gio-ant01/RL_HW2/ros2_kdl_package/scripts/robot_data_velocity_ctrl.csv
timestamp,q1,q2,q3,q4,q5,q6,q7,dq1,dq2,dq3,dq4,dq5,dq6,dq7,cmd1,cmd2,cmd3,cmd4,cmd5,cmd6,cmd7
1762513419.7991273,0.5,-0.7854,0.0,1.3962,0.0,0.6109,0.0,-0.006479108031331893,-0.6968750150852364,0.0019477403866109899,0.21233444019080921,-0.008894593943389031,0.9092094552760454,0.005909075948553134,-0.006479108031331893,-0.6968750150852364,0.0019477403866109899,0.21233444019080921,-0.008894593943389031,0.9092094552760454,0.005909075948553134
1762513419.8090038,0.49994240821297126,-0.7915944139934653,1.7313162396825163e-05,1.398087407927018,-7.906266690072388e-05,0.6189818219204831,5.252486019991679e-05,-0.006479108031331893,-0.6968750150852364,0.0019477403866109899,0.21233444019080921,-0.008894593943389031,0.9092094552760454,0.005909075948553134,-0.006479108031331893,-0.6968750150852364,0.0019477403866109899,0.21233444019080921,-0.008894593943389031,0.9092094552760454,0.005909075948553134
1762513419.8191185,0.49988481089278425,-0.7977894231181936,3.462798816394049e-05,1.3999749971876478,-0.0001581329297846754,0.6270644203058411,0.00010505476675069365,-0.006479108031331893,-0.6968750150852364,0.0019477403866109899,0.21233444019080921,-0.008894593943389031,0.9092094552760454,0.005909075948553134,-0.006479108031331893,-0.6968750150852364,0.0019477403866109899,0.21233444019080921,-0.008894593943389031,0.9092094552760454,0.005909075948553134
1762513419.82915,0.49982732974300426,-0.8039719372739014,5.1907890945923885e-05,1.4018587792917652,-0.00023704371259922194,0.635130716565666,0.00015747872356971295,-0.006479108031331893,-0.6968750150852364,0.0019477403866109899,0.21233444019080921,-0.008894593943389031,0.9092094552760454,0.005909075948553134,-0.006479108031331893,-0.6968750150852364,0.0019477403866109899,0.21233444019080921,-0.008894593943389031,0.9092094552760454,0.005909075948553134
1762513419.8392003,0.49974038195976955,-0.8133238013669659,7.804601182823318e-05,1.4047082469638104,-0.00035640662836022884,0.6473320483307757,0.0002367768387126507,-0.006479108031331893,-0.6968750150852364,0.0019477403866109899,0.21233444019080921,-0.008894593943389031,0.9092094552760454,0.005909075948553134,-0.006479108031331893,-0.6968750150852364,0.0019477403866109899,0.21233444019080921,-0.008894593943389031,0.9092094552760454,0.005909075948553134
1762513419.8490567,0.49968325877422914,-0.8194678138749653,9.52183039015967e-05,1.4065802978024413,-0.0004348259937539971,0.655348111677406,0.00028887432499458837,-0.006479108031331893,-0.6968750150852364,0.0019477403866109899,0.21233444019080921,-0.008894593943389031,0.9092094552760454,0.005909075948553134,-0.006479108031331893,-0.6968750150852364,0.0019477403866109899,0.21233444019080921,-0.008894593943389031,0.9092094552760454,0.005909075948553134
1762513419.8590896,0.49962571269730754,-0.8256573114151992,0.00011251772498999432,1.4084662077099837,-0.0005138259092944504,0.6634235191251823,0.00034135749666368813,-0.006479108031331893,-0.6968750150852364,0.0019477403866109899,0.21233444019080921,-0.008894593943389031,0.9092094552760454,0.005909075948553134,-0.006479108031331893,-0.6968750150852364,0.0019477403866109899,0.21233444019080921,-0.008894593943389031,0.9092094552760454,0.005909075948553134
1762513419.8690522,0.4995682297463355,-0.8318400193021611,0.00012979816924380517,1.4103500488430751,-0.0005927391648061132,0.6714900681452358,0.0003937830962058211,-0.006479108031331893,-0.6968750150852364,0.0019477403866109899,0.21233444019080921,-0.008894593943389031,0.9092094552760454,0.005909075948553134,-0.006479108031331893,-0.6968750150852364,0.0019477403866109899,0.21233444019080921,-0.008894593943389031,0.9092094552760454,0.005909075948553134
1762513419.8790817,0.49948124461752214,-0.8411959001828127,0.0001559475169017029,1.4132007404108335,-0.0007121533490066098,0.6836966405936458,0.00047311527126252636,-0.006479108031331893,-0.6968750150852364,0.0019477403866109899,0.21233444019080921,-0.008894593943389031,0.9092094552760454,0.005909075948553134,-0.006479108031331893,-0.6968750150852364,0.0019477403866109899,0.21233444019080921,-0.008894593943389031,0.9092094552760454,0.005909075948553134
1762513419.88901,0.4994240682320257,-0.8473456347315608,0.0001731358018713809,1.415074534727553,-0.0007906457479112472,0.6917201694591134,0.0005252612769670776,-0.006479108031331893,-0.6968750150852364,0.0019477403866109899,0.21233444019080921,-0.008894593943389031,0.9092094552760454,0.005909075948553134,-0.006479108031331893,-0.6968750150852364,0.0019477403866109899,0.21233444019080921,-0.008894593943389031,0.9092094552760454,0.005909075948553134
1762513419.899122,0.49936655346863323,-0.8535317642748468,0.00019042580953049004,1.4169594184227459,-0.0008696026758791721,0.6997911826975923,0.000577715890072118,-0.006479108031331893,-0.6968750150852364,0.0019477403866109899,0.21233444019080921,-0.008894593943389031,0.9092094552760454,0.005909075948553134,-0.013274270112972218,-0.7007475291134484,0.0039904924993979605,0.21990895445561592,-0.018223070518162347,0.9206564835690639,0.012106399504352583
1762513419.9091468,0.49927921307057316,-0.8597435275951874,0.0002166819577320178,1.4188801040139385,-0.0009895045777832468,0.7079236316091253,0.0006573720777785571,-0.013274270112972218,-0.7007475291134484,0.0039904924993979605,0.21990895445561592,-0.018223070518162347,0.9206564835690639,0.012106399504352583,-0.013274270112972218,-0.7007475291134484,0.0039904924993979605,0.21990895445561592,-0.018223070518162347,0.9206564835690639,0.012106399504352583
1762513419.9190588,0.4991011777899103,-0.8691419940990135,0.0002702026745825082,1.4218295356658166,-0.00123391345651093,0.7202715297648297,0.0008197438101021051,-0.013274270112972218,-0.7007475291134484,0.0039904924993979605,0.21990895445561592,-0.018223070518162347,0.9206564835690639,0.012106399504352583,-0.013274270112972218,-0.7007475291134484,0.0039904924993979605,0.21990895445561592,-0.018223070518162347,0.9206564835690639,0.012106399504352583
1762513419.9290154,0.4989840914399396,-0.8753229720161876,0.0003054010092075804,1.423769253374131,-0.0013946509429468364,0.7283922253903182,0.0009265289001438228,-0.013274270112972218,-0.7007475291134484,0.0039904924993979605,0.21990895445561592,-0.018223070518162347,0.9206564835690639,0.012106399504352583,-0.013274270112972218,-0.7007475291134484,0.0039904924993979605,0.21990895445561592,-0.018223070518162347,0.9206564835690639,0.012106399504352583
1762513419.9391308,0.4988662381822874,-0.8815444349211087,0.00034082989054631276,1.4257216761023803,-0.001556441249058859,0.7365661110234886,0.001034013425310505,-0.013274270112972218,-0.7007475291134484,0.0039904924993979605,0.21990895445561592,-0.018223070518162347,0.9206564835690639,0.012106399504352583,-0.013274270112972218,-0.7007475291134484,0.0039904924993979605,0.21990895445561592,-0.018223070518162347,0.9206564835690639,0.012106399504352583
1762513419.9490917,0.49874824000942836,-0.8877735478868052,0.0003763023360916611,1.4276764995766853,-0.0017184304964317284,0.74475004746349,0.0011416301160405763,-0.013274270112972218,-0.7007475291134484,0.0039904924993979605,0.21990895445561592,-0.018223070518162347,0.9206564835690639,0.012106399504352583,-0.013274270112972218,-0.7007475291134484,0.0039904924993979605,0.21990895445561592,-0.018223070518162347,0.9206564835690639,0.012106399504352583
1762513419.9592314,0.4985703034627866,-0.8971668022305099,0.0004297933716589409,1.4306242955457602,-0.001962703831960898,0.7570910977762696,0.001303911800964611,-0.013274270112972218,-0.7007475291134484,0.0039904924993979605,0.21990895445561592,-0.018223070518162347,0.9206564835690639,0.012106399504352583,-0.013274270112972218,-0.7007475291134484,0.0039904924993979605,0.21990895445561592,-0.018223070518162347,0.9206564835690639,0.012106399504352583
1762513419.9691978,0.4984531180071152,-0.9033530119287364,0.00046502149930101354,1.4325656550943286,-0.0021235773718412928,0.7652186670230645,0.0014107872773850283,-0.013274270112972218,-0.7007475291134484,0.0039904924993979605,0.21990895445561592,-0.018223070518162347,0.9206564835690639,0.012106399504352583,-0.013274270112972218,-0.7007475291134484,0.0039904924993979605,0.21990895445561592,-0.018223070518162347,0.9206564835690639,0.012106399504352583
1762513419.9791062,0.49833526485565716,-0.9095744692276773,0.000500450348715806,1.434518076063306,-0.002285367532168751,0.773392545290983,0.0015182717057005144,-0.013274270112972218,-0.7007475291134484,0.0039904924993979605,0.21990895445561592,-0.018223070518162347,0.9206564835690639,0.012106399504352583,-0.013274270112972218,-0.7007475291134484,0.0039904924993979605,0.21990895445561592,-0.018223070518162347,0.9206564835690639,0.012106399504352583
1762513419.9891284,0.49821727253675124,-0.9158032731637133,0.0005359210344539621,1.4364728025577622,-0.0024473487431675217,0.7815760757214752,0.0016258830575084041,-0.013274270112972218,-0.7007475291134484,0.0039904924993979605,0.21990895445561592,-0.018223070518162347,0.9206564835690639,0.012106399504352583,-0.013274270112972218,-0.7007475291134484,0.0039904924993979605,0.21990895445561592,-0.018223070518162347,0.9206564835690639,0.012106399504352583
1762513419.9991698,0.4980394048304743,-0.9251928934307321,0.0005893913753271401,1.4394194580789992,-0.0026915275738529838,0.793912351509731,0.0017881019586446093,-0.015672728865893687,-0.4423454457982304,0.002372011339886604,0.01575183886340845,-0.021573249488600867,0.4581030992575865,0.014428071223232017,-0.015672728865893687,-0.4423454457982304,0.002372011339886604,0.01575183886340845,-0.021573249488600867,0.4581030992575865,0.014428071223232017
1762513420.0090115,0.4979009549214915,-0.929100489053279,0.0006103452728215439,1.4395586068306692,-0.0028821015609178813,0.7979591472489836,0.0019155567984971084,-0.015672728865893687,-0.4423454457982304,0.002372011339886604,0.01575183886340845,-0.021573249488600867,0.4581030992575865,0.014428071223232017,-0.015672728865893687,-0.4423454457982304,0.002372011339886604,0.01575183886340845,-0.021573249488600867,0.4581030992575865,0.014428071223232017
1762513420.0191066,0.497761813422002,-0.9330276040533126,0.0006314038400603428,1.4396984506637327,-0.003073627510762962,0.8020261577036972,0.0020436483058484754,-0.015672728865893687,-0.4423454457982304,0.002372011339886604,0.01575183886340845,-0.021573249488600867,0.4581030992575865,0.014428071223232017,-0.015672728865893687,-0.4423454457982304,0.002372011339886604,0.01575183886340845,-0.021573249488600867,0.4581030992575865,0.014428071223232017
1762513420.029127,0.497622529175298,-0.9369587479356666,0.0006524840115784253,1.4398384379645446,-0.003265349949764385,0.8060973405614389,0.002171871224072543,-0.015672728865893687,-0.4423454457982304,0.002372011339886604,0.01575183886340845,-0.021573249488600867,0.4581030992575865,0.014428071223232017,-0.015672728865893687,-0.4423454457982304,0.002372011339886604,0.01575183886340845,-0.021573249488600867,0.4581030992575865,0.014428071223232017
1762513420.0396562,0.4974121386824204,-0.9428967870072258,0.0006843258585969044,1.4400498904289212,-0.0035549489488738706,0.8122469101524293,0.002365553450180213,-0.015672728865893687,-0.4423454457982304,0.002372011339886604,0.01575183886340845,-0.021573249488600867,0.4581030992575865,0.014428071223232017,-0.015672728865893687,-0.4423454457982304,0.002372011339886604,0.01575183886340845,-0.021573249488600867,0.4581030992575865,0.014428071223232017
1762513420.0492904,0.497274134537192,-0.9467918014406033,0.000705212291344779,1.4401885911667902,-0.003744909349576813,0.8162806765233329,0.002492597926830981,-0.015672728865893687,-0.4423454457982304,0.002372011339886604,0.01575183886340845,-0.021573249488600867,0.4581030992575865,0.014428071223232017,-0.015672728865893687,-0.4423454457982304,0.002372011339886604,0.01575183886340845,-0.021573249488600867,0.4581030992575865,0.014428071223232017
1762513420.0592375,0.49713473194571234,-0.9507262854734184,0.0007263103739204891,1.4403286974097373,-0.003936794688185125,0.820355318517577,0.002620929791420855,-0.015672728865893687,-0.4423454457982304,0.002372011339886604,0.01575183886340845,-0.021573249488600867,0.4581030992575865,0.014428071223232017,-0.015672728865893687,-0.4423454457982304,0.002372011339886604,0.01575183886340845,-0.021573249488600867,0.4581030992575865,0.014428071223232017
1762513420.0692863,0.4969955328175988,-0.9546550269776563,0.0007473776630449846,1.4404685991623123,-0.004128399962868575,0.8244240134173866,0.00274907435079011,-0.015672728865893687,-0.4423454457982304,0.002372011339886604,0.01575183886340845,-0.021573249488600867,0.4581030992575865,0.014428071223232017,-0.015672728865893687,-0.4423454457982304,0.002372011339886604,0.01575183886340845,-0.021573249488600867,0.4581030992575865,0.014428071223232017
1762513420.079014,0.4967867049741528,-0.9605489619965422,0.0007789830086728202,1.440678481089595,-0.004415848001137799,0.8305279078388655,0.002941318026056467,-0.015672728865893687,-0.4423454457982304,0.002372011339886604,0.01575183886340845,-0.021573249488600867,0.4581030992575865,0.014428071223232017,-0.015672728865893687,-0.4423454457982304,0.002372011339886604,0.01575183886340845,-0.021573249488600867,0.4581030992575865,0.014428071223232017
1762513420.0890384,0.4966476337355068,-0.9644740939619422,0.0008000309421847823,1.4408182543071648,-0.004607277238105422,0.8345928646173851,0.00306934485236454,-0.015672728865893687,-0.4423454457982304,0.002372011339886604,0.01575183886340845,-0.021573249488600867,0.4581030992575865,0.014428071223232017,-0.015672728865893687,-0.4423454457982304,0.002372011339886604,0.01575183886340845,-0.021573249488600867,0.4581030992575865,0.014428071223232017
1762513420.0992117,0.49650823430991836,-0.9684084886409773,0.0008211285456142017,1.4409583573682405,-0.004799158218917337,0.8386674140748032,0.0031976738024840274,-0.015672728865893687,-0.4423454457982304,0.002372011339886604,0.01575183886340845,-0.021573249488600867,0.4581030992575865,0.014428071223232017,-0.01565749534604628,-0.12824503213335084,0.0001243507551348557,-0.13185181612497776,-0.021718272997990912,-0.0035856645856450356,0.014885288066800468
1762513420.1091871,0.4963687736591571,-0.9709732305746076,0.0008324186264421694,1.4404532593747474,-0.004991849200171145,0.8407271766929594,0.0033281193996528174,-0.01565749534604628,-0.12824503213335084,0.0001243507551348557,-0.13185181612497776,-0.021718272997990912,-0.0035856645856450356,0.014885288066800468,-0.01565749534604628,-0.12824503213335084,0.0001243507551348557,-0.13185181612497776,-0.021718272997990912,-0.0035856645856450356,0.014885288066800468
1762513420.1195736,0.496158938310445,-0.9726919180430407,0.000834085124403028,1.4386862352624332,-0.005282908612116563,0.8406791230827193,0.0035276059422412577,-0.01565749534604628,-0.12824503213335084,0.0001243507551348557,-0.13185181612497776,-0.021718272997990912,-0.0035856645856450356,0.014885288066800468,-0.01565749534604628,-0.12824503213335084,0.0001243507551348557,-0.13185181612497776,-0.021718272997990912,-0.0035856645856450356,0.014885288066800468
1762513420.1293683,0.4960207101837312,-0.9738240959655216,0.0008351829227135398,1.437522215785246,-0.005474642738528346,0.8406474679751977,0.0036590168377641083,-0.01565749534604628,-0.12824503213335084,0.0001243507551348557,-0.13185181612497776,-0.021718272997990912,-0.0035856645856450356,0.014885288066800468,-0.01565749534604628,-0.12824503213335084,0.0001243507551348557,-0.13185181612497776,-0.021718272997990912,-0.0035856645856450356,0.014885288066800468
1762513420.139252,0.4958815776957437,-0.9749636811928134,0.0008362879033993173,1.4363505806790113,-0.00566763129067022,0.8406156057632754,0.0037912874926404093,-0.01565749534604628,-0.12824503213335084,0.0001243507551348557,-0.13185181612497776,-0.021718272997990912,-0.0035856645856450356,0.014885288066800468,-0.01565749534604628,-0.12824503213335084,0.0001243507551348557,-0.13185181612497776,-0.021718272997990912,-0.0035856645856450356,0.014885288066800468
1762513420.149207,0.49574250808825754,-0.9761027513880562,0.0008373923846924622,1.43517947508967,-0.0058605326222277345,0.8405837579513821,0.0039234983681998336,-0.01565749534604628,-0.12824503213335084,0.0001243507551348557,-0.13185181612497776,-0.021718272997990912,-0.0035856645856450356,0.014885288066800468,-0.01565749534604628,-0.12824503213335084,0.0001243507551348557,-0.13185181612497776,-0.021718272997990912,-0.0035856645856450356,0.014885288066800468
1762513420.159763,0.4955309587448449,-0.9778354775836667,0.0008390724950817838,1.4333980174227483,-0.006153969490081696,0.8405353118256111,0.00412461437350237,-0.01565749534604628,-0.12824503213335084,0.0001243507551348557,-0.13185181612497776,-0.021718272997990912,-0.0035856645856450356,0.014885288066800468,-0.01565749534604628,-0.12824503213335084,0.0001243507551348557,-0.13185181612497776,-0.021718272997990912,-0.0035856645856450356,0.014885288066800468
1762513420.169027,0.49539328562936863,-0.9789631096044936,0.0008401658855310783,1.4322386716968871,-0.00634493376887052,0.8405037838191421,0.004255497630219116,-0.01565749534604628,-0.12824503213335084,0.0001243507551348557,-0.13185181612497776,-0.021718272997990912,-0.0035856645856450356,0.014885288066800468,-0.01565749534604628,-0.12824503213335084,0.0001243507551348557,-0.13185181612497776,-0.021718272997990912,-0.0035856645856450356,0.014885288066800468
1762513420.179096,0.49525539321501255,-0.9800925378252405,0.0008412610176370492,1.4310774792544896,-0.006536202233790953,0.840472205591855,0.0043865893702805265,-0.01565749534604628,-0.12824503213335084,0.0001243507551348557,-0.13185181612497776,-0.021718272997990912,-0.0035856645856450356,0.014885288066800468,-0.01565749534604628,-0.12824503213335084,0.0001243507551348557,-0.13185181612497776,-0.021718272997990912,-0.0035856645856450356,0.014885288066800468
1762513420.1890547,0.4951162653929587,-0.9812320848355129,0.0008423659612663017,1.429905883440096,-0.006729184313887474,0.8404403444484607,0.004518855589340984,-0.01565749534604628,-0.12824503213335084,0.0001243507551348557,-0.13185181612497776,-0.021718272997990912,-0.0035856645856450356,0.014885288066800468,-0.01565749534604628,-0.12824503213335084,0.0001243507551348557,-0.13185181612497776,-0.021718272997990912,-0.0035856645856450356,0.014885288066800468
1762513420.1990075,0.49490771918846843,-0.9829402133774703,0.0008440222209320868,1.4281497152152107,-0.007018455573543875,0.8403925860603287,0.0047171165666217325,-0.014477116529060318,0.10850675887403868,-0.0009599236680585605,-0.13789684332078786,-0.020468497002004312,-0.24635943861929038,0.014764904401629742,-0.014477116529060318,0.10850675887403868,-0.0009599236680585605,-0.13789684332078786,-0.020468497002004312,-0.24635943861929038,0.014764904401629742
1762513420.2089977,0.4947780150098199,-0.9819680736554942,0.0008354220200094149,1.4269142622322049,-0.007201838057651567,0.8381853890280817,0.004849399110206556,-0.014477116529060318,0.10850675887403868,-0.0009599236680585605,-0.13789684332078786,-0.020468497002004312,-0.24635943861929038,0.014764904401629742,-0.014477116529060318,0.10850675887403868,-0.0009599236680585605,-0.13789684332078786,-0.020468497002004312,-0.24635943861929038,0.014764904401629742
1762513420.2191658,0.49465002770137473,-0.9810088019670665,0.0008269356583543852,1.4256951627116419,-0.007382793141762798,0.8360074082543794,0.004979930654248581,-0.014477116529060318,0.10850675887403868,-0.0009599236680585605,-0.13789684332078786,-0.020468497002004312,-0.24635943861929038,0.014764904401629742,-0.014477116529060318,0.10850675887403868,-0.0009599236680585605,-0.13789684332078786,-0.020468497002004312,-0.24635943861929038,0.014764904401629742
1762513420.2292256,0.494521351311137,-0.98004436557393,0.0008184036062526033,1.4244694995771305,-0.00756472248539433,0.8338177012641176,0.005111164978210315,-0.014477116529060318,0.10850675887403868,-0.0009599236680585605,-0.13789684332078786,-0.020468497002004312,-0.24635943861929038,0.014764904401629742,-0.014477116529060318,0.10850675887403868,-0.0009599236680585605,-0.13789684332078786,-0.020468497002004312,-0.24635943861929038,0.014764904401629742
1762513420.2393525,0.4943281670177819,-0.9785964390137443,0.0008055942753947317,1.4226293883796177,-0.007837856442797733,0.8305302528302058,0.005308189545744764,-0.014477116529060318,0.10850675887403868,-0.0009599236680585605,-0.13789684332078786,-0.020468497002004312,-0.24635943861929038,0.014764904401629742,-0.014477116529060318,0.10850675887403868,-0.0009599236680585605,-0.13789684332078786,-0.020468497002004312,-0.24635943861929038,0.014764904401629742
1762513420.249184,0.4941996530463146,-0.9776332199579356,0.0007970729926765819,1.4214052723097916,-0.0080195561503614,0.8283433097464858,0.005439258222244016,-0.014477116529060318,0.10850675887403868,-0.0009599236680585605,-0.13789684332078786,-0.020468497002004312,-0.24635943861929038,0.014764904401629742,-0.014477116529060318,0.10850675887403868,-0.0009599236680585605,-0.13789684332078786,-0.020468497002004312,-0.24635943861929038,0.014764904401629742
1762513420.2591321,0.4940709096559816,-0.976668281395519,0.0007885364980480643,1.4201789709886894,-0.008201580222197058,0.8261524626047422,0.005570560878183321,-0.014477116529060318,0.10850675887403868,-0.0009599236680585605,-0.13789684332078786,-0.020468497002004312,-0.24635943861929038,0.014764904401629742,-0.014477116529060318,0.10850675887403868,-0.0009599236680585605,-0.13789684332078786,-0.020468497002004312,-0.24635943861929038,0.014764904401629742
1762513420.269108,0.49394225089887184,-0.9757039771636148,0.0007800056151333101,1.4189534758125333,-0.00838348463519924,0.8239630556802767,0.005701777218491493,-0.014477116529060318,0.10850675887403868,-0.0009599236680585605,-0.13789684332078786,-0.020468497002004312,-0.24635943861929038,0.014764904401629742,-0.014477116529060318,0.10850675887403868,-0.0009599236680585605,-0.13789684332078786,-0.020468497002004312,-0.24635943861929038,0.014764904401629742
1762513420.2791274,0.49374936812042275,-0.9742583104736963,0.0007672162766056732,1.4171162365925762,-0.008656192295215583,0.820680738174393,0.00589849427736197,-0.014477116529060318,0.10850675887403868,-0.0009599236680585605,-0.13789684332078786,-0.020468497002004312,-0.24635943861929038,0.014764904401629742,-0.014477116529060318,0.10850675887403868,-0.0009599236680585605,-0.13789684332078786,-0.020468497002004312,-0.24635943861929038,0.014764904401629742
1762513420.2892087,0.49362072586722583,-0.9732941299394972,0.0007586864880039006,1.4158908986188214,-0.008838073374131184,0.8184916120996876,0.006029693785679125,-0.014477116529060318,0.10850675887403868,-0.0009599236680585605,-0.13789684332078786,-0.020468497002004312,-0.24635943861929038,0.014764904401629742,-0.014477116529060318,0.10850675887403868,-0.0009599236680585605,-0.13789684332078786,-0.020468497002004312,-0.24635943861929038,0.014764904401629742
1762513420.29911,0.4934920894338297,-0.9723299930250151,0.0007501570852914425,1.4146656160795978,-0.009019946224710992,0.8163025850614765,0.006160887358504711,-0.014477116529060318,0.10850675887403868,-0.0009599236680585605,-0.13789684332078786,-0.020468497002004312,-0.24635943861929038,0.014764904401629742,-0.013494148049167185,0.17862723075310943,-0.0009597799064917938,-0.07216844895834545,-0.01939051339422751,-0.25072858007354226,0.014362814197103148
1762513420.3091516,0.4933675720331881,-0.971051875753077,0.0007416113758843192,1.4137304173473284,-0.00919738295818697,0.8140897643272857,0.006290552125087566,-0.013494148049167185,0.17862723075310943,-0.0009597799064917938,-0.07216844895834545,-0.01939051339422751,-0.25072858007354226,0.014362814197103148,-0.013494148049167185,0.17862723075310943,-0.0009597799064917938,-0.07216844895834545,-0.01939051339422751,-0.25072858007354226,0.014362814197103148
1762513420.3190866,0.49318781477326834,-0.9686723597265565,0.0007288260258578939,1.4127690522733614,-0.009455686449706674,0.8107497770695965,0.00648188099708458,-0.013494148049167185,0.17862723075310943,-0.0009597799064917938,-0.07216844895834545,-0.01939051339422751,-0.25072858007354226,0.014362814197103148,-0.013494148049167185,0.17862723075310943,-0.0009597799064917938,-0.07216844895834545,-0.01939051339422751,-0.25072858007354226,0.014362814197103148
1762513420.3290043,0.4930678875296153,-0.9670848366500684,0.0007202961239863742,1.4121276658641744,-0.00962801676770189,0.8085214639220227,0.006609528382564833,-0.013494148049167185,0.17862723075310943,-0.0009597799064917938,-0.07216844895834545,-0.01939051339422751,-0.25072858007354226,0.014362814197103148,-0.013494148049167185,0.17862723075310943,-0.0009597799064917938,-0.07216844895834545,-0.01939051339422751,-0.25072858007354226,0.014362814197103148
1762513420.3391237,0.49294796704653043,-0.9654974030658229,0.0007117667029645877,1.4114863156113804,-0.009800337371049893,0.8062932763894676,0.006737168572275173,-0.013494148049167185,0.17862723075310943,-0.0009597799064917938,-0.07216844895834545,-0.01939051339422751,-0.25072858007354226,0.014362814197103148,-0.013494148049167185,0.17862723075310943,-0.0009597799064917938,-0.07216844895834545,-0.01939051339422751,-0.25072858007354226,0.014362814197103148
1762513420.3491142,0.4928280409363858,-0.9639098949940221,0.0007032368817145801,1.4108449352643433,-0.009972666060241983,0.8040649843030945,0.006864814751279034,-0.013494148049167185,0.17862723075310943,-0.0009597799064917938,-0.07216844895834545,-0.01939051339422751,-0.25072858007354226,0.014362814197103148,-0.013494148049167185,0.17862723075310943,-0.0009597799064917938,-0.07216844895834545,-0.01939051339422751,-0.25072858007354226,0.014362814197103148
1762513420.3591814,0.4926481161466181,-0.961528161310432,0.0006904396160206158,1.4098826742190824,-0.010231210284985477,0.8007218842500836,0.007056321937614305,-0.013494148049167185,0.17862723075310943,-0.0009597799064917938,-0.07216844895834545,-0.01939051339422751,-0.25072858007354226,0.014362814197103148,-0.013494148049167185,0.17862723075310943,-0.0009597799064917938,-0.07216844895834545,-0.01939051339422751,-0.25072858007354226,0.014362814197103148
1762513420.3690102,0.4925277756851635,-0.9599351683108837,0.0006818803237687995,1.4092390778676516,-0.01040413437928185,0.7984858932919308,0.007184409141190902,-0.013494148049167185,0.17862723075310943,-0.0009597799064917938,-0.07216844895834545,-0.01939051339422751,-0.25072858007354226,0.014362814197103148,-0.013494148049167185,0.17862723075310943,-0.0009597799064917938,-0.07216844895834545,-0.01939051339422751,-0.25072858007354226,0.014362814197103148
1762513420.37912,0.492406492967833,-0.9583297023076937,0.0006732540129654527,1.4085904422099353,-0.010578412454957001,0.7962323947092171,0.00731349925699444,-0.013494148049167185,0.17862723075310943,-0.0009597799064917938,-0.07216844895834545,-0.01939051339422751,-0.25072858007354226,0.014362814197103148,-0.013494148049167185,0.17862723075310943,-0.0009597799064917938,-0.07216844895834545,-0.01939051339422751,-0.25072858007354226,0.014362814197103148
1762513420.3890991,0.49228675433188723,-0.9567446759040098,0.0006647375259376861,1.4079500644991596,-0.010750471751746505,0.7940075859950071,0.00744094589342066,-0.013494148049167185,0.17862723075310943,-0.0009597799064917938,-0.07216844895834545,-0.01939051339422751,-0.25072858007354226,0.014362814197103148,-0.013494148049167185,0.17862723075310943,-0.0009597799064917938,-0.07216844895834545,-0.01939051339422751,-0.25072858007354226,0.014362814197103148
1762513420.3991945,0.492107008420546,-0.9543653101029904,0.0006519529830861621,1.4069887601188582,-0.011008758935844444,0.7906678096000536,0.007632262686290935,-0.012656010077985145,0.12148339145282125,-0.0005317467328869304,-0.003944860436613202,-0.018031965539049472,-0.12534316499248038,0.013035422557583052,-0.012656010077985145,0.12148339145282125,-0.0005317467328869304,-0.003944860436613202,-0.018031965539049472,-0.12534316499248038,0.013035422557583052
1762513420.4090137,0.49199540345860293,-0.9532940286172565,0.0006472638611969162,1.4069539730101102,-0.011167770884740169,0.7895624913305033,0.0077472134353411045,-0.012656010077985145,0.12148339145282125,-0.0005317467328869304,-0.003944860436613202,-0.018031965539049472,-0.12534316499248038,0.013035422557583052,-0.012656010077985145,0.12148339145282125,-0.0005317467328869304,-0.003944860436613202,-0.018031965539049472,-0.12534316499248038,0.013035422557583052
1762513420.4191053,0.4918829405710487,-0.9522145120153828,0.0006425386932601414,1.4069189184871629,-0.011328005184515854,0.7884486762984845,0.007863047829615607,-0.012656010077985145,0.12148339145282125,-0.0005317467328869304,-0.003944860436613202,-0.018031965539049472,-0.12534316499248038,0.013035422557583052,-0.012656010077985145,0.12148339145282125,-0.0005317467328869304,-0.003944860436613202,-0.018031965539049472,-0.12534316499248038,0.013035422557583052
1762513420.4291162,0.49177046697650995,-0.9511348926385599,0.0006378130754656305,1.4068838606268637,-0.011488254739334387,0.7873347552261482,0.007978893251857593,-0.012656010077985145,0.12148339145282125,-0.0005317467328869304,-0.003944860436613202,-0.018031965539049472,-0.12534316499248038,0.013035422557583052,-0.012656010077985145,0.12148339145282125,-0.0005317467328869304,-0.003944860436613202,-0.018031965539049472,-0.12534316499248038,0.013035422557583052
1762513420.4393153,0.4916007189627315,-0.9495055035752522,0.0006306810527203484,1.4068309504111147,-0.011730107449304852,0.785653597170247,0.00815373011389209,-0.012656010077985145,0.12148339145282125,-0.0005317467328869304,-0.003944860436613202,-0.018031965539049472,-0.12534316499248038,0.013035422557583052,-0.012656010077985145,0.12148339145282125,-0.0005317467328869304,-0.003944860436613202,-0.018031965539049472,-0.12534316499248038,0.013035422557583052
1762513420.4492087,0.491489176255702,-0.9484348196663208,0.0006259945464932816,1.4067961827071351,-0.01188903069896209,0.7845488954637253,0.008268616741698698,-0.012656010077985145,0.12148339145282125,-0.0005317467328869304,-0.003944860436613202,-0.018031965539049472,-0.12534316499248038,0.013035422557583052,-0.012656010077985145,0.12148339145282125,-0.0005317467328869304,-0.003944860436613202,-0.018031965539049472,-0.12534316499248038,0.013035422557583052
1762513420.4590807,0.49137684912916785,-0.9473566062167873,0.0006212750826037105,1.406761170500706,-0.012049071569843438,0.7834364249878373,0.008384311304995427,-0.012656010077985145,0.12148339145282125,-0.0005317467328869304,-0.003944860436613202,-0.018031965539049472,-0.12534316499248038,0.013035422557583052,-0.012656010077985145,0.12148339145282125,-0.0005317467328869304,-0.003944860436613202,-0.018031965539049472,-0.12534316499248038,0.013035422557583052
1762513420.4691925,0.4912643473750067,-0.9462767165394185,0.0006165482816727189,1.4067261038630923,-0.012209361245785295,0.7823222250269587,0.008500185731052604,-0.012656010077985145,0.12148339145282125,-0.0005317467328869304,-0.003944860436613202,-0.018031965539049472,-0.12534316499248038,0.013035422557583052,-0.012656010077985145,0.12148339145282125,-0.0005317467328869304,-0.003944860436613202,-0.018031965539049472,-0.12534316499248038,0.013035422557583052
1762513420.4795768,0.4910954242673091,-0.9446552456420824,0.0006094509176477396,1.4066734507694014,-0.012450038650273892,0.7806492367132085,0.00867417295728022,-0.012656010077985145,0.12148339145282125,-0.0005317467328869304,-0.003944860436613202,-0.018031965539049472,-0.12534316499248038,0.013035422557583052,-0.012656010077985145,0.12148339145282125,-0.0005317467328869304,-0.003944860436613202,-0.018031965539049472,-0.12534316499248038,0.013035422557583052
1762513420.4890647,0.4909828683960489,-0.9435748365017317,0.0006047218429677182,1.4066383672635645,-0.012610405430900393,0.7795345007849565,0.008790103122804252,-0.012656010077985145,0.12148339145282125,-0.0005317467328869304,-0.003944860436613202,-0.018031965539049472,-0.12534316499248038,0.013035422557583052,-0.012656010077985145,0.12148339145282125,-0.0005317467328869304,-0.003944860436613202,-0.018031965539049472,-0.12534316499248038,0.013035422557583052
1762513420.4991956,0.4908705835279324,-0.9424970286852421,0.0006000041545804882,1.4066033682290242,-0.012770386093048808,0.7784224488298964,0.00890575416082506,-0.012656010077985145,0.12148339145282125,-0.0005317467328869304,-0.003944860436613202,-0.018031965539049472,-0.12534316499248038,0.013035422557583052,-0.01277839708825433,0.027806962272998007,-0.00021969803668209177,0.036234497310935275,-0.0175437945988165,0.008529212440189936,0.011999463854641531
1762513420.5091407,0.4907575469673798,-0.9418256718791608,0.000596638220657088,1.4067435320415067,-0.012928548247704867,0.7778920845522078,0.009017111631223618,-0.01277839708825433,0.027806962272998007,-0.00021969803668209177,0.036234497310935275,-0.0175437945988165,0.008529212440189936,0.011999463854641531,-0.01277839708825433,0.027806962272998007,-0.00021969803668209177,0.036234497310935275,-0.0175437945988165,0.008529212440189936,0.011999463854641531
1762513420.5190454,0.49058588673445985,-0.9414521234921753,0.0005936868789599705,1.407230292799149,-0.013164225058053775,0.7780066628192623,0.009178307964846318,-0.01277839708825433,0.027806962272998007,-0.00021969803668209177,0.036234497310935275,-0.0175437945988165,0.008529212440189936,0.011999463854641531,-0.01277839708825433,0.027806962272998007,-0.00021969803668209177,0.036234497310935275,-0.0175437945988165,0.008529212440189936,0.011999463854641531
1762513420.5290003,0.490473422093813,-0.9412073901349385,0.0005917532827056337,1.407549198190095,-0.013318630696062327,0.7780817297314472,0.00928391709414845,-0.01277839708825433,0.027806962272998007,-0.00021969803668209177,0.036234497310935275,-0.0175437945988165,0.008529212440189936,0.011999463854641531,-0.01277839708825433,0.027806962272998007,-0.00021969803668209177,0.036234497310935275,-0.0175437945988165,0.008529212440189936,0.011999463854641531
1762513420.539018,0.49035925809247255,-0.9409589588132098,0.0005897904694684927,1.407872922298135,-0.013475369430683193,0.7781579309180068,0.00939112199615022,-0.01277839708825433,0.027806962272998007,-0.00021969803668209177,0.036234497310935275,-0.0175437945988165,0.008529212440189936,0.011999463854641531,-0.01277839708825433,0.027806962272998007,-0.00021969803668209177,0.036234497310935275,-0.0175437945988165,0.008529212440189936,0.011999463854641531
1762513420.549015,0.49024669992673736,-0.9407140219368161,0.0005878552652442255,1.408192092889367,-0.013629903471724414,0.7782330602554974,0.009496818949528307,-0.01277839708825433,0.027806962272998007,-0.00021969803668209177,0.036234497310935275,-0.0175437945988165,0.008529212440189936,0.011999463854641531,-0.01277839708825433,0.027806962272998007,-0.00021969803668209177,0.036234497310935275,-0.0175437945988165,0.008529212440189936,0.011999463854641531
1762513420.559191,0.4900750420067073,-0.9403404785828908,0.0005849039633124525,1.4086788470885652,-0.013865577106646501,0.7783476369787644,0.00965801311124805,-0.01277839708825433,0.027806962272998007,-0.00021969803668209177,0.036234497310935275,-0.0175437945988165,0.008529212440189936,0.011999463854641531,-0.01277839708825433,0.027806962272998007,-0.00021969803668209177,0.036234497310935275,-0.0175437945988165,0.008529212440189936,0.011999463854641531
1762513420.569018,0.4899622967652388,-0.9400951346125694,0.0005829655427089283,1.4089985481528378,-0.014020367988840649,0.7784228911839253,0.00976388573677697,-0.01277839708825433,0.027806962272998007,-0.00021969803668209177,0.036234497310935275,-0.0175437945988165,0.008529212440189936,0.011999463854641531,-0.01277839708825433,0.027806962272998007,-0.00021969803668209177,0.036234497310935275,-0.0175437945988165,0.008529212440189936,0.011999463854641531
1762513420.5791435,0.4898487761561917,-0.9398481033713912,0.0005810137912679343,1.409320447853938,-0.014176223393403463,0.7784986629246385,0.009870486465773659,-0.01277839708825433,0.027806962272998007,-0.00021969803668209177,0.036234497310935275,-0.0175437945988165,0.008529212440189936,0.011999463854641531,-0.01277839708825433,0.027806962272998007,-0.00021969803668209177,0.036234497310935275,-0.0175437945988165,0.008529212440189936,0.011999463854641531
1762513420.5890884,0.48973524877459423,-0.939601057392523,0.0005790619233869809,1.409642366759322,-0.014332088096177415,0.7785744391858345,0.00997709355448619,-0.01277839708825433,0.027806962272998007,-0.00021969803668209177,0.036234497310935275,-0.0175437945988165,0.008529212440189936,0.011999463854641531,-0.01277839708825433,0.027806962272998007,-0.00021969803668209177,0.036234497310935275,-0.0175437945988165,0.008529212440189936,0.011999463854641531
1762513420.5991795,0.48956418499891524,-0.9392288069511155,0.0005761208365351215,1.4101274361993332,-0.014566946014825834,0.7786886193348399,0.010137729789134547,-0.013375917367345763,-0.04396816302785096,-0.00010040159818735099,0.0478916729405899,-0.01769295868355692,0.09198049452907286,0.011535209346046434,-0.013375917367345763,-0.04396816302785096,-0.00010040159818735099,0.0478916729405899,-0.01769295868355692,0.09198049452907286,0.011535209346046434
1762513420.6090114,0.4894452870713532,-0.9396196379737027,0.000575228371246906,1.410553143124977,-0.01472421792838083,0.7795062298115866,0.010240265745927134,-0.013375917367345763,-0.04396816302785096,-0.00010040159818735099,0.0478916729405899,-0.01769295868355692,0.09198049452907286,0.011535209346046434,-0.013375917367345763,-0.04396816302785096,-0.00010040159818735099,0.0478916729405899,-0.01769295868355692,0.09198049452907286,0.011535209346046434
1762513420.6191328,0.4893271128210485,-0.9400080901867657,0.0005743413379863573,1.4109762589674395,-0.01488053259979217,0.7803188638676377,0.010342177613288471,-0.013375917367345763,-0.04396816302785096,-0.00010040159818735099,0.0478916729405899,-0.01769295868355692,0.09198049452907286,0.011535209346046434,-0.013375917367345763,-0.04396816302785096,-0.00010040159818735099,0.0478916729405899,-0.01769295868355692,0.09198049452907286,0.011535209346046434
1762513420.6290843,0.4892081756084172,-0.9403990503438476,0.000573448577818648,1.4114021065509266,-0.01503785647756682,0.7811367444910968,0.010444747448990906,-0.013375917367345763,-0.04396816302785096,-0.00010040159818735099,0.0478916729405899,-0.01769295868355692,0.09198049452907286,0.011535209346046434,-0.013375917367345763,-0.04396816302785096,-0.00010040159818735099,0.0478916729405899,-0.01769295868355692,0.09198049452907286,0.011535209346046434
1762513420.6390622,0.4890285173086956,-0.9409896076263521,0.0005721000362626346,1.4120453623587361,-0.015275499009801049,0.7823721782038516,0.010599682324942095,-0.013375917367345763,-0.04396816302785096,-0.00010040159818735099,0.0478916729405899,-0.01769295868355692,0.09198049452907286,0.011535209346046434,-0.013375917367345763,-0.04396816302785096,-0.00010040159818735099,0.0478916729405899,-0.01769295868355692,0.09198049452907286,0.011535209346046434
1762513420.6490586,0.4889109473555857,-0.9413760734457457,0.0005712175389454888,1.4124663145511984,-0.015431014348724983,0.7831806567651209,0.010701073054615597,-0.013375917367345763,-0.04396816302785096,-0.00010040159818735099,0.0478916729405899,-0.01769295868355692,0.09198049452907286,0.011535209346046434,-0.013375917367345763,-0.04396816302785096,-0.00010040159818735099,0.0478916729405899,-0.01769295868355692,0.09198049452907286,0.011535209346046434
1762513420.6591187,0.48879198050192146,-0.9417671310362771,0.0005703245562878379,1.4128922682626326,-0.015588377434096076,0.7839987412173559,0.010803668452341942,-0.013375917367345763,-0.04396816302785096,-0.00010040159818735099,0.0478916729405899,-0.01769295868355692,0.09198049452907286,0.011535209346046434,-0.013375917367345763,-0.04396816302785096,-0.00010040159818735099,0.0478916729405899,-0.01769295868355692,0.09198049452907286,0.011535209346046434
1762513420.6691496,0.48867324264396256,-0.9421574358918574,0.000569433292505548,1.413317402068626,-0.015745437616014504,0.7848152509635246,0.010906066367284285,-0.013375917367345763,-0.04396816302785096,-0.00010040159818735099,0.0478916729405899,-0.01769295868355692,0.09198049452907286,0.011535209346046434,-0.013375917367345763,-0.04396816302785096,-0.00010040159818735099,0.0478916729405899,-0.01769295868355692,0.09198049452907286,0.011535209346046434
1762513420.6792917,0.48849403778783973,-0.9427465026536352,0.0005680881545637131,1.413959034348723,-0.01598248035694936,0.7860475665375148,0.011060610199638644,-0.013375917367345763,-0.04396816302785096,-0.00010040159818735099,0.0478916729405899,-0.01769295868355692,0.09198049452907286,0.011535209346046434,-0.013375917367345763,-0.04396816302785096,-0.00010040159818735099,0.0478916729405899,-0.01769295868355692,0.09198049452907286,0.011535209346046434
1762513420.6890097,0.48837587237901636,-0.9431349258037425,0.0005672011876686207,1.4143821185347896,-0.016138783333315008,0.7868601397944591,0.011162514442226603,-0.013375917367345763,-0.04396816302785096,-0.00010040159818735099,0.0478916729405899,-0.01769295868355692,0.09198049452907286,0.011535209346046434,-0.013375917367345763,-0.04396816302785096,-0.00010040159818735099,0.0478916729405899,-0.01769295868355692,0.09198049452907286,0.011535209346046434
1762513420.699085,0.4882569790527699,-0.9435257417012817,0.000566308756918555,1.4148078089856977,-0.016296049160492217,0.7876777186299156,0.011265046430907175,-0.013375917367345763,-0.04396816302785096,-0.00010040159818735099,0.0478916729405899,-0.01769295868355692,0.09198049452907286,0.011535209346046434,-0.014640257712096457,-0.06966905908302226,-0.0001024256368601936,0.03831124980755104,-0.019201567504056865,0.1081282784600379,0.012399088778642455
1762513420.7091339,0.4881317371955366,-0.9440333155891858,0.0005654019033302772,1.4151934425878274,-0.016460983492788277,0.7885721266668315,0.011372045355092498,-0.014640257712096457,-0.06966905908302226,-0.0001024256368601936,0.03831124980755104,-0.019201567504056865,0.1081282784600379,0.012399088778642455,-0.014640257712096457,-0.06966905908302226,-0.0001024256368601936,0.03831124980755104,-0.019201567504056865,0.1081282784600379,0.012399088778642455
1762513420.7191951,0.48793748681575194,-0.9449577010373282,0.0005640428959103915,1.4157017652534176,-0.01671575440280047,0.7900067980755847,0.011536559378793389,-0.014640257712096457,-0.06966905908302226,-0.0001024256368601936,0.03831124980755104,-0.019201567504056865,0.1081282784600379,0.012399088778642455,-0.014640257712096457,-0.06966905908302226,-0.0001024256368601936,0.03831124980755104,-0.019201567504056865,0.1081282784600379,0.012399088778642455
1762513420.7290273,0.4878072521047535,-0.9455774530904435,0.0005631317525768767,1.416042568990947,-0.016886564961178904,0.7909686701527657,0.011646857419680742,-0.014640257712096457,-0.06966905908302226,-0.0001024256368601936,0.03831124980755104,-0.019201567504056865,0.1081282784600379,0.012399088778642455,-0.014640257712096457,-0.06966905908302226,-0.0001024256368601936,0.03831124980755104,-0.019201567504056865,0.1081282784600379,0.012399088778642455
1762513420.7391057,0.48767706289567603,-0.9461969886121232,0.0005622209275822413,1.416383253657112,-0.017057315841085538,0.7919302061672573,0.01175711692420017,-0.014640257712096457,-0.06966905908302226,-0.0001024256368601936,0.03831124980755104,-0.019201567504056865,0.1081282784600379,0.012399088778642455,-0.014640257712096457,-0.06966905908302226,-0.0001024256368601936,0.03831124980755104,-0.019201567504056865,0.1081282784600379,0.012399088778642455
1762513420.749091,0.4875471222196135,-0.9468153414318559,0.0005613118413652171,1.4167232879515,-0.01722774075518222,0.7928899065960937,0.011867165941788492,-0.014640257712096457,-0.06966905908302226,-0.0001024256368601936,0.03831124980755104,-0.019201567504056865,0.1081282784600379,0.012399088778642455,-0.014640257712096457,-0.06966905908302226,-0.0001024256368601936,0.03831124980755104,-0.019201567504056865,0.1081282784600379,0.012399088778642455
1762513420.7591555,0.4873510751142011,-0.9477482770152743,0.0005599402637590477,1.417236312365223,-0.017484868177566348,0.7943378480478209,0.012033201643659742,-0.014640257712096457,-0.06966905908302226,-0.0001024256368601936,0.03831124980755104,-0.019201567504056865,0.1081282784600379,0.012399088778642455,-0.014640257712096457,-0.06966905908302226,-0.0001024256368601936,0.03831124980755104,-0.019201567504056865,0.1081282784600379,0.012399088778642455
1762513420.76901,0.48722157702776947,-0.9483645236696818,0.0005590342739714515,1.4175751884722183,-0.017654712609075817,0.7952942796506712,0.012142875824395197,-0.014640257712096457,-0.06966905908302226,-0.0001024256368601936,0.03831124980755104,-0.019201567504056865,0.1081282784600379,0.012399088778642455,-0.014640257712096457,-0.06966905908302226,-0.0001024256368601936,0.03831124980755104,-0.019201567504056865,0.1081282784600379,0.012399088778642455
1762513420.7791638,0.48709145555916444,-0.948983736832625,0.0005581239229002378,1.4179156958722303,-0.01782537464332961,0.7962553153556183,0.012253077958330846,-0.014640257712096457,-0.06966905908302226,-0.0001024256368601936,0.03831124980755104,-0.019201567504056865,0.1081282784600379,0.012399088778642455,-0.014640257712096457,-0.06966905908302226,-0.0001024256368601936,0.03831124980755104,-0.019201567504056865,0.1081282784600379,0.012399088778642455
1762513420.789114,0.4869615193630208,-0.9496020683336257,0.0005572148680254585,1.418255718443376,-0.017995793681746638,0.7972149826972015,0.012363123181798002,-0.014640257712096457,-0.06966905908302226,-0.0001024256368601936,0.03831124980755104,-0.019201567504056865,0.1081282784600379,0.012399088778642455,-0.014640257712096457,-0.06966905908302226,-0.0001024256368601936,0.03831124980755104,-0.019201567504056865,0.1081282784600379,0.012399088778642455
1762513420.7991776,0.48676526587389546,-0.95053598604177,0.0005558418465250863,1.4187692829307876,-0.018253191788627866,0.7986644484332701,0.012529333673623765,-0.015668431297371905,-0.059553442434950664,-0.000188103627588784,0.019305204915231525,-0.020841296533747757,0.07903879542882869,0.013711807627119807,-0.015668431297371905,-0.059553442434950664,-0.000188103627588784,0.019305204915231525,-0.020841296533747757,0.07903879542882869,0.013711807627119807
1762513420.8090124,0.4866259471810288,-0.9510655162543535,0.0005541692890736241,1.4189409386545335,-0.018438505949032357,0.7993672361888475,0.012651254692977482,-0.015668431297371905,-0.059553442434950664,-0.000188103627588784,0.019305204915231525,-0.020841296533747757,0.07903879542882869,0.013711807627119807,-0.015668431297371905,-0.059553442434950664,-0.000188103627588784,0.019305204915231525,-0.020841296533747757,0.07903879542882869,0.013711807627119807
1762513420.8191237,0.48648760044796086,-0.9515913521882424,0.000552508400254492,1.419111396818503,-0.01862252726128897,0.8000651209308282,0.012772325127768665,-0.015668431297371905,-0.059553442434950664,-0.000188103627588784,0.019305204915231525,-0.020841296533747757,0.07903879542882869,0.013711807627119807,-0.015668431297371905,-0.059553442434950664,-0.000188103627588784,0.019305204915231525,-0.020841296533747757,0.07903879542882869,0.013711807627119807
1762513420.8291314,0.486347890232333,-0.9521223705222455,0.0005508311424695837,1.4192835349407091,-0.018808362204011244,0.8007698837078258,0.012894588777771367,-0.015668431297371905,-0.059553442434950664,-0.000188103627588784,0.019305204915231525,-0.020841296533747757,0.07903879542882869,0.013711807627119807,-0.015668431297371905,-0.059553442434950664,-0.000188103627588784,0.019305204915231525,-0.020841296533747757,0.07903879542882869,0.013711807627119807
1762513420.8390152,0.48613865805891154,-0.9529176317681802,0.0005483192553456025,1.419541331647099,-0.01908667148002711,0.8018253473109344,0.013077692705465748,-0.015668431297371905,-0.059553442434950664,-0.000188103627588784,0.019305204915231525,-0.020841296533747757,0.07903879542882869,0.013711807627119807,-0.015668431297371905,-0.059553442434950664,-0.000188103627588784,0.019305204915231525,-0.020841296533747757,0.07903879542882869,0.013711807627119807
1762513420.8490016,0.48599949424848826,-0.9534465732949853,0.000546648557298499,1.4197127965388943,-0.019271779624215366,0.8025273537680189,0.01319947818360107,-0.015668431297371905,-0.059553442434950664,-0.000188103627588784,0.019305204915231525,-0.020841296533747757,0.07903879542882869,0.013711807627119807,-0.015668431297371905,-0.059553442434950664,-0.000188103627588784,0.019305204915231525,-0.020841296533747757,0.07903879542882869,0.013711807627119807
1762513420.8591506,0.4858609748649758,-0.9539730654482563,0.0005449855957654946,1.4198834674269165,-0.019456030586718485,0.8032261094384863,0.013320699708800498,-0.015668431297371905,-0.059553442434950664,-0.000188103627588784,0.019305204915231525,-0.020841296533747757,0.07903879542882869,0.013711807627119807,-0.015668431297371905,-0.059553442434950664,-0.000188103627588784,0.019305204915231525,-0.020841296533747757,0.07903879542882869,0.013711807627119807
1762513420.868958,0.48572112692383684,-0.9545046072570184,0.0005433066845496996,1.420055775241874,-0.01964204872443729,0.8039315669664957,0.013443083885592242,-0.015668431297371905,-0.059553442434950664,-0.000188103627588784,0.019305204915231525,-0.020841296533747757,0.07903879542882869,0.013711807627119807,-0.015668431297371905,-0.059553442434950664,-0.000188103627588784,0.019305204915231525,-0.020841296533747757,0.07903879542882869,0.013711807627119807
1762513420.8789086,0.48551192224851236,-0.9552997639866617,0.000540795127547585,1.4203135380676295,-0.019920321423977736,0.8049868918565183,0.01362616374906424,-0.015668431297371905,-0.059553442434950664,-0.000188103627588784,0.019305204915231525,-0.020841296533747757,0.07903879542882869,0.013711807627119807,-0.015668431297371905,-0.059553442434950664,-0.000188103627588784,0.019305204915231525,-0.020841296533747757,0.07903879542882869,0.013711807627119807
1762513420.888973,0.48537343017507567,-0.9558261523382826,0.0005391324938792034,1.4204841753066797,-0.020104536060100993,0.8056855097623653,0.013747361374582972,-0.015668431297371905,-0.059553442434950664,-0.000188103627588784,0.019305204915231525,-0.020841296533747757,0.07903879542882869,0.013711807627119807,-0.015668431297371905,-0.059553442434950664,-0.000188103627588784,0.019305204915231525,-0.020841296533747757,0.07903879542882869,0.013711807627119807
1762513420.8990824,0.4852343168326696,-0.9563549020434495,0.0005374624017138843,1.42065557801641,-0.02028957707447311,0.8063872616354898,0.013869102686985928,-0.015668431297371905,-0.059553442434950664,-0.000188103627588784,0.019305204915231525,-0.020841296533747757,0.07903879542882869,0.013711807627119807,-0.016680116481167722,-0.036074847111480374,-0.00031152085669430694,0.005188710925701354,-0.022624538382864084,0.04148147592809424,0.015266575176126286
1762513420.9091394,0.48509058806868877,-0.9567812480259446,0.0005352484398786944,1.4207652269446516,-0.020482678042396472,0.8069250238106652,0.013997821673992404,-0.016680116481167722,-0.036074847111480374,-0.00031152085669430694,0.005188710925701354,-0.022624538382864084,0.04148147592809424,0.015266575176126286,-0.016680116481167722,-0.036074847111480374,-0.00031152085669430694,0.005188710925701354,-0.022624538382864084,0.04148147592809424,0.015266575176126286
1762513420.919083,0.4848680123473903,-0.9572626226689596,0.0005310915756591583,1.4208344639357842,-0.020784574792056275,0.8074785432921177,0.014201535418163219,-0.016680116481167722,-0.036074847111480374,-0.00031152085669430694,0.005188710925701354,-0.022624538382864084,0.04148147592809424,0.015266575176126286,-0.016680116481167722,-0.036074847111480374,-0.00031152085669430694,0.005188710925701354,-0.022624538382864084,0.04148147592809424,0.015266575176126286
1762513420.9290164,0.484719884956622,-0.9575829845190116,0.0005283251218562642,1.4208805421638195,-0.020985491484800917,0.8078469185850231,0.01433710988788358,-0.016680116481167722,-0.036074847111480374,-0.00031152085669430694,0.005188710925701354,-0.022624538382864084,0.04148147592809424,0.015266575176126286,-0.016680116481167722,-0.036074847111480374,-0.00031152085669430694,0.005188710925701354,-0.022624538382864084,0.04148147592809424,0.015266575176126286
1762513420.9390407,0.4845717077089855,-0.9579034541967816,0.0005255577369175293,1.4209266359009118,-0.021186475802290782,0.8082154178660601,0.014472729989397142,-0.016680116481167722,-0.036074847111480374,-0.00031152085669430694,0.005188710925701354,-0.022624538382864084,0.04148147592809424,0.015266575176126286,-0.016680116481167722,-0.036074847111480374,-0.00031152085669430694,0.005188710925701354,-0.022624538382864084,0.04148147592809424,0.015266575176126286
1762513420.9491196,0.48442348435750704,-0.958224023585429,0.0005227894909351467,1.4209727439796012,-0.021387522654004742,0.8085840318018965,0.014608392287724491,-0.016680116481167722,-0.036074847111480374,-0.00031152085669430694,0.005188710925701354,-0.022624538382864084,0.04148147592809424,0.015266575176126286,-0.016680116481167722,-0.036074847111480374,-0.00031152085669430694,0.005188710925701354,-0.022624538382864084,0.04148147592809424,0.015266575176126286
1762513420.9589865,0.4841996142424895,-0.9587081976726547,0.0005186084523856102,1.4210423836198904,-0.021691175090467592,0.8091407702873625,0.014813290733395549,-0.016680116481167722,-0.036074847111480374,-0.00031152085669430694,0.005188710925701354,-0.022624538382864084,0.04148147592809424,0.015266575176126286,-0.016680116481167722,-0.036074847111480374,-0.00031152085669430694,0.005188710925701354,-0.022624538382864084,0.04148147592809424,0.015266575176126286
1762513420.9689891,0.48405256794011065,-0.9590262214036408,0.0005158621891840011,1.4210881255520045,-0.021890625419006025,0.8095064570413687,0.01494787573057902,-0.016680116481167722,-0.036074847111480374,-0.00031152085669430694,0.005188710925701354,-0.022624538382864084,0.04148147592809424,0.015266575176126286,-0.016680116481167722,-0.036074847111480374,-0.00031152085669430694,0.005188710925701354,-0.022624538382864084,0.04148147592809424,0.015266575176126286
1762513420.97904,0.48390444375192465,-0.9593465763273222,0.0005130957951931115,1.4211342027838074,-0.022091537767839297,0.8098748243698308,0.015083447269116946,-0.016680116481167722,-0.036074847111480374,-0.00031152085669430694,0.005188710925701354,-0.022624538382864084,0.04148147592809424,0.015266575176126286,-0.016680116481167722,-0.036074847111480374,-0.00031152085669430694,0.005188710925701354,-0.022624538382864084,0.04148147592809424,0.015266575176126286
1762513420.9890356,0.4837562672715735,-0.9596670443456493,0.0005103284245843362,1.4211802962822189,-0.022292521044600402,0.81024332174272,0.01521906666836805,-0.016680116481167722,-0.036074847111480374,-0.00031152085669430694,0.005188710925701354,-0.022624538382864084,0.04148147592809424,0.015266575176126286,-0.016680116481167722,-0.036074847111480374,-0.00031152085669430694,0.005188710925701354,-0.022624538382864084,0.04148147592809424,0.015266575176126286
1762513420.9990404,0.4835338837719374,-0.9601480032621262,0.0005061751503311527,1.421249473478647,-0.02259415706907988,0.8107963631916437,0.015422604480526535,-0.01706275786995759,-0.01465768913433264,-0.0004367071169448638,6.900378554532507e-05,-0.023458040310421133,0.014980463768039874,0.016118053139408558,-0.01706275786995759,-0.01465768913433264,-0.0004367071169448638,6.900378554532507e-05,-0.023458040310421133,0.014980463768039874,0.016118053139408558
1762513421.009163,0.48338194678939683,-0.9602785240768188,0.0005022864494477268,1.4212500879295487,-0.022803041464453937,0.8109297581843712,0.015566129248157553,-0.01706275786995759,-0.01465768913433264,-0.0004367071169448638,6.900378554532507e-05,-0.023458040310421133,0.014980463768039874,0.016118053139408558,-0.01706275786995759,-0.01465768913433264,-0.0004367071169448638,6.900378554532507e-05,-0.023458040310421133,0.014980463768039874,0.016118053139408558
1762513421.0190628,0.4832303177725731,-0.9604087803348801,0.0004984056306910546,1.4212507011350013,-0.02301150246565843,0.8110628827947081,0.01570936310104746,-0.01706275786995759,-0.01465768913433264,-0.0004367071169448638,6.900378554532507e-05,-0.023458040310421133,0.014980463768039874,0.016118053139408558,-0.01706275786995759,-0.01465768913433264,-0.0004367071169448638,6.900378554532507e-05,-0.023458040310421133,0.014980463768039874,0.016118053139408558
1762513421.0289772,0.48307890959902444,-0.9605388468784709,0.000494530464234597,1.4212513134473377,-0.023219659849447186,0.8111958135129025,0.01585238833797558,-0.01706275786995759,-0.01465768913433264,-0.0004367071169448638,6.900378554532507e-05,-0.023458040310421133,0.014980463768039874,0.016118053139408558,-0.01706275786995759,-0.01465768913433264,-0.0004367071169448638,6.900378554532507e-05,-0.023458040310421133,0.014980463768039874,0.016118053139408558
1762513421.0389452,0.4828513715631729,-0.960734312454503,0.000488706817178868,1.421252233637728,-0.0235324812853392,0.8113955834051968,0.016067328395206776,-0.01706275786995759,-0.01465768913433264,-0.0004367071169448638,6.900378554532507e-05,-0.023458040310421133,0.014980463768039874,0.016118053139408558,-0.01706275786995759,-0.01465768913433264,-0.0004367071169448638,6.900378554532507e-05,-0.023458040310421133,0.014980463768039874,0.016118053139408558
1762513421.0490363,0.48269963353238915,-0.9608646623605401,0.00048482320830042563,1.4212528472840456,-0.023741092159963235,0.8115288037257167,0.016210665226338187,-0.01706275786995759,-0.01465768913433264,-0.0004367071169448638,6.900378554532507e-05,-0.023458040310421133,0.014980463768039874,0.016118053139408558,-0.01706275786995759,-0.01465768913433264,-0.0004367071169448638,6.900378554532507e-05,-0.023458040310421133,0.014980463768039874,0.016118053139408558
1762513421.0590377,0.48254808822545553,-0.9609948467079785,0.0004809445320288692,1.4212534601509654,-0.023949438076021963,0.8116618548418983,0.01635382000405939,-0.01706275786995759,-0.01465768913433264,-0.0004367071169448638,6.900378554532507e-05,-0.023458040310421133,0.014980463768039874,0.016118053139408558,-0.01706275786995759,-0.01465768913433264,-0.0004367071169448638,6.900378554532507e-05,-0.023458040310421133,0.014980463768039874,0.016118053139408558
1762513421.0691023,0.48239636225804156,-0.9611251862510295,0.0004770612319023586,1.4212540737484973,-0.0241580323658115,0.8117950645712304,0.01649714543972723,-0.01706275786995759,-0.01465768913433264,-0.0004367071169448638,6.900378554532507e-05,-0.023458040310421133,0.014980463768039874,0.016118053139408558,-0.01706275786995759,-0.01465768913433264,-0.0004367071169448638,6.900378554532507e-05,-0.023458040310421133,0.014980463768039874,0.016118053139408558
1762513421.0789468,0.4821689731118153,-0.9613205239240662,0.0004712413955529321,1.4212549933367609,-0.024470649106843764,0.8119947037439977,0.016711944850826735,-0.01706275786995759,-0.01465768913433264,-0.0004367071169448638,6.900378554532507e-05,-0.023458040310421133,0.014980463768039874,0.016118053139408558,-0.01706275786995759,-0.01465768913433264,-0.0004367071169448638,6.900378554532507e-05,-0.023458040310421133,0.014980463768039874,0.016118053139408558
1762513421.0889838,0.4820172357635418,-0.9614508732437959,0.0004673578041427745,1.4212556069803184,-0.024679259043146187,0.812127923465299,0.016855281037236023,-0.01706275786995759,-0.01465768913433264,-0.0004367071169448638,6.900378554532507e-05,-0.023458040310421133,0.014980463768039874,0.016118053139408558,-0.01706275786995759,-0.01465768913433264,-0.0004367071169448638,6.900378554532507e-05,-0.023458040310421133,0.014980463768039874,0.016118053139408558
1762513421.0990663,0.4818652499473882,-0.9615814360087946,0.0004634678534035799,1.4212562216287088,-0.02488821057543161,0.8122613613321138,0.016998851934735125,-0.01706275786995759,-0.01465768913433264,-0.0004367071169448638,6.900378554532507e-05,-0.023458040310421133,0.014980463768039874,0.016118053139408558,-0.01752795166789843,-0.005676709124988319,-0.0005413866938957465,0.002834241923760554,-0.0241629736141772,0.008802483309576946,0.016689585552421077
1762513421.1090937,0.48171174888274665,-0.9616719383340601,0.0004591300535686488,1.4212690269378137,-0.0250995335693006,0.8123670879512326,0.017144436635199062,-0.01752795166789843,-0.005676709124988319,-0.0005413866938957465,0.002834241923760554,-0.0241629736141772,0.008802483309576946,0.016689585552421077,-0.01752795166789843,-0.005676709124988319,-0.0005413866938957465,0.002834241923760554,-0.0241629736141772,0.008802483309576946,0.016689585552421077
1762513421.1189926,0.48147801233265886,-0.9617476376759949,0.00045191062140154695,1.421306821766435,-0.025421748634668673,0.812484469726352,0.017366993510259512,-0.01752795166789843,-0.005676709124988319,-0.0005413866938957465,0.002834241923760554,-0.0241629736141772,0.008802483309576946,0.016689585552421077,-0.01752795166789843,-0.005676709124988319,-0.0005413866938957465,0.002834241923760554,-0.0241629736141772,0.008802483309576946,0.016689585552421077
1762513421.1290739,0.48132221243495416,-0.9617980959792656,0.0004470984223993038,1.4213320143622477,-0.025636524946736225,0.8125627119548317,0.017515341461638384,-0.01752795166789843,-0.005676709124988319,-0.0005413866938957465,0.002834241923760554,-0.0241629736141772,0.008802483309576946,0.016689585552421077,-0.01752795166789843,-0.005676709124988319,-0.0005413866938957465,0.002834241923760554,-0.0241629736141772,0.008802483309576946,0.016689585552421077
1762513421.1390715,0.4811662630588776,-0.9618486026935117,0.00044228160645133505,1.4213572311284755,-0.025851507320642758,0.8126410292508889,0.017663831741802846,-0.01752795166789843,-0.005676709124988319,-0.0005413866938957465,0.002834241923760554,-0.0241629736141772,0.008802483309576946,0.016689585552421077,-0.01752795166789843,-0.005676709124988319,-0.0005413866938957465,0.002834241923760554,-0.0241629736141772,0.008802483309576946,0.016689585552421077
1762513421.1490507,0.48101057179941736,-0.9618990258125392,0.0004374727629638206,1.4213824061576565,-0.026066133870599847,0.812719216921577,0.017812076251130463,-0.01752795166789843,-0.005676709124988319,-0.0005413866938957465,0.002834241923760554,-0.0241629736141772,0.008802483309576946,0.016689585552421077,-0.01752795166789843,-0.005676709124988319,-0.0005413866938957465,0.002834241923760554,-0.0241629736141772,0.008802483309576946,0.016689585552421077
1762513421.1595001,0.480776822033254,-0.9619747294347127,0.00043025292259115153,1.4214202031232963,-0.026388367154850028,0.812836605333769,0.01803464571013842,-0.01752795166789843,-0.005676709124988319,-0.0005413866938957465,0.002834241923760554,-0.0241629736141772,0.008802483309576946,0.016689585552421077,-0.01752795166789843,-0.005676709124988319,-0.0005413866938957465,0.002834241923760554,-0.0241629736141772,0.008802483309576946,0.016689585552421077
1762513421.169015,0.4806208576883068,-0.9620252409968684,0.0004254356442989462,1.4214454223099666,-0.026603370163936026,0.812914930147147,0.01818315024320894,-0.01752795166789843,-0.005676709124988319,-0.0005413866938957465,0.002834241923760554,-0.0241629736141772,0.008802483309576946,0.016689585552421077,-0.01752795166789843,-0.005676709124988319,-0.0005413866938957465,0.002834241923760554,-0.0241629736141772,0.008802483309576946,0.016689585552421077
1762513421.179067,0.48046513172350225,-0.96207567535578,0.0004206257288657779,1.4214706029509467,-0.02681804455658087,0.812993135246752,0.01833142779791595,-0.01752795166789843,-0.005676709124988319,-0.0005413866938957465,0.002834241923760554,-0.0241629736141772,0.008802483309576946,0.016689585552421077,-0.01752795166789843,-0.005676709124988319,-0.0005413866938957465,0.002834241923760554,-0.0241629736141772,0.008802483309576946,0.016689585552421077
1762513421.1890783,0.48030956857584073,-0.9621260569837405,0.00041582084237360914,1.4214957572646536,-0.027032494499363815,0.8130712585800894,0.01847955032306276,-0.01752795166789843,-0.005676709124988319,-0.0005413866938957465,0.002834241923760554,-0.0241629736141772,0.008802483309576946,0.016689585552421077,-0.01752795166789843,-0.005676709124988319,-0.0005413866938957465,0.002834241923760554,-0.0241629736141772,0.008802483309576946,0.016689585552421077
1762513421.1991043,0.4800756609178888,-0.9622018117417098,0.00040859612518960147,1.4215335797611448,-0.027354945443680313,0.8131887262850509,0.018702270121857375,-0.01759965971444592,-0.007233435501301578,-0.0006277402682582988,0.008616634143403993,-0.02410264364533388,0.01617460726845995,0.01655257745330416,-0.01759965971444592,-0.007233435501301578,-0.0006277402682582988,0.008616634143403993,-0.02410264364533388,0.01617460726845995,0.01655257745330416
1762513421.2089922,0.47991912509167456,-0.9622661477471176,0.0004030128444254243,1.4216102182852246,-0.027569320454230755,0.8133325873342723,0.018849492933529156,-0.01759965971444592,-0.007233435501301578,-0.0006277402682582988,0.008616634143403993,-0.02410264364533388,0.01617460726845995,0.01655257745330416,-0.01759965971444592,-0.007233435501301578,-0.0006277402682582988,0.008616634143403993,-0.02410264364533388,0.01617460726845995,0.01655257745330416
1762513421.2191036,0.4797627924535318,-0.9623304002425125,0.0003974368109226442,1.4216867573302632,-0.027783417199760314,0.8134762616476526,0.018996524645694242,-0.01759965971444592,-0.007233435501301578,-0.0006277402682582988,0.008616634143403993,-0.02410264364533388,0.01617460726845995,0.01655257745330416,-0.01759965971444592,-0.007233435501301578,-0.0006277402682582988,0.008616634143403993,-0.02410264364533388,0.01617460726845995,0.01655257745330416
1762513421.2292206,0.47960649768985675,-0.9623946371715542,0.00039186212831692136,1.421763277832305,-0.027997462076400744,0.8136199011532782,0.019143520736712646,-0.01759965971444592,-0.007233435501301578,-0.0006277402682582988,0.008616634143403993,-0.02410264364533388,0.01617460726845995,0.01655257745330416,-0.01759965971444592,-0.007233435501301578,-0.0006277402682582988,0.008616634143403993,-0.02410264364533388,0.01617460726845995,0.01655257745330416
1762513421.2389631,0.4793717779625111,-0.9624911066508615,0.0003834902036888261,1.4218781944869217,-0.028318909538256967,0.8138356155176224,0.019364275940491848,-0.01759965971444592,-0.007233435501301578,-0.0006277402682582988,0.008616634143403993,-0.02410264364533388,0.01617460726845995,0.01655257745330416,-0.01759965971444592,-0.007233435501301578,-0.0006277402682582988,0.008616634143403993,-0.02410264364533388,0.01617460726845995,0.01655257745330416
1762513421.2490065,0.47921526447026513,-0.9625554334770395,0.00037790771952704935,1.4219548220764928,-0.028533253962552622,0.8139794560412671,0.019511477746942844,-0.01759965971444592,-0.007233435501301578,-0.0006277402682582988,0.008616634143403993,-0.02410264364533388,0.01617460726845995,0.01655257745330416,-0.01759965971444592,-0.007233435501301578,-0.0006277402682582988,0.008616634143403993,-0.02410264364533388,0.01617460726845995,0.01655257745330416
1762513421.2590873,0.4790587739631747,-0.9626197508563509,0.0003723260551940629,1.4220314384127397,-0.028747566908795676,0.8141232754408747,0.019658657935727686,-0.01759965971444592,-0.007233435501301578,-0.0006277402682582988,0.008616634143403993,-0.02410264364533388,0.01617460726845995,0.01655257745330416,-0.01759965971444592,-0.007233435501301578,-0.0006277402682582988,0.008616634143403993,-0.02410264364533388,0.01617460726845995,0.01655257745330416
1762513421.2692418,0.4789024654013664,-0.962683993456406,0.00036675088043996973,1.422107965670223,-0.028961630681908726,0.8142669276273924,0.019805667003966812,-0.01759965971444592,-0.007233435501301578,-0.0006277402682582988,0.008616634143403993,-0.02410264364533388,0.01617460726845995,0.01655257745330416,-0.01759965971444592,-0.007233435501301578,-0.0006277402682582988,0.008616634143403993,-0.02410264364533388,0.01617460726845995,0.01655257745330416
1762513421.2791874,0.47866787105399655,-0.9627804114047187,0.0003583834278335456,1.422222820939938,-0.029282906436531617,0.8144825267638344,0.02002630428718424,-0.01759965971444592,-0.007233435501301578,-0.0006277402682582988,0.008616634143403993,-0.02410264364533388,0.01617460726845995,0.01655257745330416,-0.01759965971444592,-0.007233435501301578,-0.0006277402682582988,0.008616634143403993,-0.02410264364533388,0.01617460726845995,0.01655257745330416
1762513421.2890236,0.4785110562731759,-0.9628448620600791,0.00035279019738611653,1.422299596037669,-0.029497663473983835,0.814626644180581,0.020173789457208657,-0.01759965971444592,-0.007233435501301578,-0.0006277402682582988,0.008616634143403993,-0.02410264364533388,0.01617460726845995,0.01655257745330416,-0.01759965971444592,-0.007233435501301578,-0.0006277402682582988,0.008616634143403993,-0.02410264364533388,0.01617460726845995,0.01655257745330416
1762513421.2990654,0.4783548284586064,-0.9629090714731321,0.0003472179027043742,1.4223760837620347,-0.029711616664167842,0.8147702221580004,0.02032072258222243,-0.01759965971444592,-0.007233435501301578,-0.0006277402682582988,0.008616634143403993,-0.02410264364533388,0.01617460726845995,0.01655257745330416,-0.018072107252024086,-0.014397008157139443,-0.0007280549319379107,0.013509098150483165,-0.024485493058910377,0.0282694572724679,0.016634930606403444
1762513421.3091598,0.47819632223850417,-0.963004665141246,0.00034119970781888725,1.4224740505934503,-0.02992753603734363,0.8149668370180602,0.020468217117813887,-0.018072107252024086,-0.014397008157139443,-0.0007280549319379107,0.013509098150483165,-0.024485493058910377,0.0282694572724679,0.016634930606403444,-0.018072107252024086,-0.014397008157139443,-0.0007280549319379107,0.013509098150483165,-0.024485493058910377,0.0282694572724679,0.016634930606403444
1762513421.3193321,0.477955166503204,-0.9631967800418406,0.0003314844809224386,1.4226543171474435,-0.03025427253798864,0.8153440670588078,0.020690195045794835,-0.018072107252024086,-0.014397008157139443,-0.0007280549319379107,0.013509098150483165,-0.024485493058910377,0.0282694572724679,0.016634930606403444,-0.018072107252024086,-0.014397008157139443,-0.0007280549319379107,0.013509098150483165,-0.024485493058910377,0.0282694572724679,0.016634930606403444
1762513421.3290308,0.4777944526268919,-0.9633248115412094,0.0003250099437448896,1.4227744525306043,-0.030472020166864056,0.8155954651938532,0.020838128219422852,-0.018072107252024086,-0.014397008157139443,-0.0007280549319379107,0.013509098150483165,-0.024485493058910377,0.0282694572724679,0.016634930606403444,-0.018072107252024086,-0.014397008157139443,-0.0007280549319379107,0.013509098150483165,-0.024485493058910377,0.0282694572724679,0.016634930606403444
1762513421.3390784,0.4776341927580582,-0.9634524813589393,0.0003185536967633407,1.4228942485382012,-0.030689152671182846,0.8158461531435929,0.020985643490324175,-0.018072107252024086,-0.014397008157139443,-0.0007280549319379107,0.013509098150483165,-0.024485493058910377,0.0282694572724679,0.016634930606403444,-0.018072107252024086,-0.014397008157139443,-0.0007280549319379107,0.013509098150483165,-0.024485493058910377,0.0282694572724679,0.016634930606403444
1762513421.3490794,0.47747362188633075,-0.9635803989347826,0.00031208492068446813,1.4230142770238683,-0.03090670654635169,0.8160973275824228,0.021133445031746304,-0.018072107252024086,-0.014397008157139443,-0.0007280549319379107,0.013509098150483165,-0.024485493058910377,0.0282694572724679,0.016634930606403444,-0.018072107252024086,-0.014397008157139443,-0.0007280549319379107,0.013509098150483165,-0.024485493058910377,0.0282694572724679,0.016634930606403444
1762513421.3593445,0.4772309570577867,-0.9637737160431464,0.0003023088982889829,1.4231956716415934,-0.031235487683609092,0.8164769182359306,0.02135681204297261,-0.018072107252024086,-0.014397008157139443,-0.0007280549319379107,0.013509098150483165,-0.024485493058910377,0.0282694572724679,0.016634930606403444,-0.018072107252024086,-0.014397008157139443,-0.0007280549319379107,0.013509098150483165,-0.024485493058910377,0.0282694572724679,0.016634930606403444
1762513421.3690693,0.4770720903496289,-0.9639002760099145,0.0002959087763340822,1.423314426246323,-0.031450732625753465,0.8167254269214786,0.02150304494370842,-0.018072107252024086,-0.014397008157139443,-0.0007280549319379107,0.013509098150483165,-0.024485493058910377,0.0282694572724679,0.016634930606403444,-0.018072107252024086,-0.014397008157139443,-0.0007280549319379107,0.013509098150483165,-0.024485493058910377,0.0282694572724679,0.016634930606403444
1762513421.3791308,0.4769112292217869,-0.9640284248161058,0.00028942830696494776,1.4234346717016155,-0.03166867976242633,0.8169770553960618,0.021651113658751022,-0.018072107252024086,-0.014397008157139443,-0.0007280549319379107,0.013509098150483165,-0.024485493058910377,0.0282694572724679,0.016634930606403444,-0.018072107252024086,-0.014397008157139443,-0.0007280549319379107,0.013509098150483165,-0.024485493058910377,0.0282694572724679,0.016634930606403444
1762513421.3891299,0.4767504690266639,-0.9641564932150066,0.0002829519037826082,1.4235548417085948,-0.03188649014762046,0.817228525985726,0.021799089467706187,-0.018072107252024086,-0.014397008157139443,-0.0007280549319379107,0.013509098150483165,-0.024485493058910377,0.0282694572724679,0.016634930606403444,-0.018072107252024086,-0.014397008157139443,-0.0007280549319379107,0.013509098150483165,-0.024485493058910377,0.0282694572724679,0.016634930606403444
1762513421.3989875,0.4765094132662611,-0.9643485284713521,0.00027324070448604297,1.423735033530257,-0.032213091194517866,0.817605599639836,0.02202097537125102,-0.018323815498254875,-0.02146020213017128,-0.0008343660518864629,0.015570043357035348,-0.024577375231585093,0.03743100622809595,0.01652777119249719,-0.018323815498254875,-0.02146020213017128,-0.0008343660518864629,0.015570043357035348,-0.024577375231585093,0.03743100622809595,0.01652777119249719
1762513421.4090552,0.4763466165368387,-0.9645391902208043,0.0002658278343662171,1.4238733645528399,-0.03243144726265612,0.8179381529442231,0.02216781526357786,-0.018323815498254875,-0.02146020213017128,-0.0008343660518864629,0.015570043357035348,-0.024577375231585093,0.03743100622809595,0.01652777119249719,-0.018323815498254875,-0.02146020213017128,-0.0008343660518864629,0.015570043357035348,-0.024577375231585093,0.03743100622809595,0.01652777119249719
1762513421.4190905,0.47618230596707506,-0.9647316249263156,0.00025834603226064864,1.4240129819101246,-0.03265183381522651,0.8182737986486208,0.022316020614249543,-0.018323815498254875,-0.02146020213017128,-0.0008343660518864629,0.015570043357035348,-0.024577375231585093,0.03743100622809595,0.01652777119249719,-0.018323815498254875,-0.02146020213017128,-0.0008343660518864629,0.015570043357035348,-0.024577375231585093,0.03743100622809595,0.01652777119249719
1762513421.4290833,0.4760210400275232,-0.9649204938690216,0.0002510028659151634,1.4241500121957151,-0.032868136664860534,0.8186032249293166,0.022461479760043195,-0.018323815498254875,-0.02146020213017128,-0.0008343660518864629,0.015570043357035348,-0.024577375231585093,0.03743100622809595,0.01652777119249719,-0.018323815498254875,-0.02146020213017128,-0.0008343660518864629,0.015570043357035348,-0.024577375231585093,0.03743100622809595,0.01652777119249719
1762513421.4392536,0.4757764585390922,-0.9652069390244821,0.0002398659664584885,1.4243578370550933,-0.033196189030179415,0.8191028441935255,0.022682088119644592,-0.018323815498254875,-0.02146020213017128,-0.0008343660518864629,0.015570043357035348,-0.024577375231585093,0.03743100622809595,0.01652777119249719,-0.018323815498254875,-0.02146020213017128,-0.0008343660518864629,0.015570043357035348,-0.024577375231585093,0.03743100622809595,0.01652777119249719
1762513421.449016,0.4756137859535197,-0.9653974553810648,0.0002324587491686642,1.4244960625906322,-0.03341437858660047,0.8194351439028454,0.022828816036321607,-0.018323815498254875,-0.02146020213017128,-0.0008343660518864629,0.015570043357035348,-0.024577375231585093,0.03743100622809595,0.01652777119249719,-0.018323815498254875,-0.02146020213017128,-0.0008343660518864629,0.015570043357035348,-0.024577375231585093,0.03743100622809595,0.01652777119249719
1762513421.459101,0.47545097322740637,-0.9655881358652734,0.00022504515064727506,1.4246344072058628,-0.0336327561107873,0.8197677298845011,0.0229756703573927,-0.018323815498254875,-0.02146020213017128,-0.0008343660518864629,0.015570043357035348,-0.024577375231585093,0.03743100622809595,0.01652777119249719,-0.018323815498254875,-0.02146020213017128,-0.0008343660518864629,0.015570043357035348,-0.024577375231585093,0.03743100622809595,0.01652777119249719
1762513421.46913,0.47528793634605804,-0.9657790788721347,0.0002176213453259732,1.4247729422894337,-0.03385143429000534,0.8201007737596558,0.02312272686268879,-0.018323815498254875,-0.02146020213017128,-0.0008343660518864629,0.015570043357035348,-0.024577375231585093,0.03743100622809595,0.01652777119249719,-0.018323815498254875,-0.02146020213017128,-0.0008343660518864629,0.015570043357035348,-0.024577375231585093,0.03743100622809595,0.01652777119249719
1762513421.4792666,0.47504360545412777,-0.9660652305378709,0.00020649585665942388,1.424980554212899,-0.034179150535140555,0.8205998811174237,0.023343109188491362,-0.018323815498254875,-0.02146020213017128,-0.0008343660518864629,0.015570043357035348,-0.024577375231585093,0.03743100622809595,0.01652777119249719,-0.018323815498254875,-0.02146020213017128,-0.0008343660518864629,0.015570043357035348,-0.024577375231585093,0.03743100622809595,0.01652777119249719
1762513421.489001,0.4748805795120973,-0.9662561607329915,0.00019907254945465496,1.4251190800011542,-0.03439781404166558,0.8209329026462676,0.023490155826708055,-0.018323815498254875,-0.02146020213017128,-0.0008343660518864629,0.015570043357035348,-0.024577375231585093,0.03743100622809595,0.01652777119249719,-0.018323815498254875,-0.02146020213017128,-0.0008343660518864629,0.015570043357035348,-0.024577375231585093,0.03743100622809595,0.01652777119249719
1762513421.499037,0.4747180193248091,-0.9664465454526943,0.0001916704501661929,1.4252572100300471,-0.03461585284046697,0.8212649727537953,0.023636782362036573,-0.018323815498254875,-0.02146020213017128,-0.0008343660518864629,0.015570043357035348,-0.024577375231585093,0.03743100622809595,0.01652777119249719,-0.019013651928740063,-0.025834192118698997,-0.0009621812240086728,0.015393265272817246,-0.025361190515514945,0.0416764876514219,0.01696870909248705
1762513421.509063,0.4745521421371349,-0.9666565986437029,0.00018369062269264078,1.4253947817260453,-0.03483771460431144,0.8216163724122499,0.023785598404468748,-0.019013651928740063,-0.025834192118698997,-0.0009621812240086728,0.015393265272817246,-0.025361190515514945,0.0416764876514219,0.01696870909248705,-0.019013651928740063,-0.025834192118698997,-0.0009621812240086728,0.015393265272817246,-0.025361190515514945,0.0416764876514219,0.01696870909248705
1762513421.5189772,0.47429826035332295,-0.9670015524065579,0.00017084299687003643,1.4256003219168936,-0.03517635256359486,0.8221728620896467,0.024012174874340635,-0.019013651928740063,-0.025834192118698997,-0.0009621812240086728,0.015393265272817246,-0.025361190515514945,0.0416764876514219,0.01696870909248705,-0.019013651928740063,-0.025834192118698997,-0.0009621812240086728,0.015393265272817246,-0.025361190515514945,0.0416764876514219,0.01696870909248705
1762513421.5290034,0.4741286344497943,-0.9672320261838465,0.00016225911934390582,1.4257376493771807,-0.035402606566344016,0.8225446692469602,0.024163557292737458,-0.019013651928740063,-0.025834192118698997,-0.0009621812240086728,0.015393265272817246,-0.025361190515514945,0.0416764876514219,0.01696870909248705,-0.019013651928740063,-0.025834192118698997,-0.0009621812240086728,0.015393265272817246,-0.025361190515514945,0.0416764876514219,0.01696870909248705
1762513421.539033,0.473959603673571,-0.9674616913509217,0.00015370535809008666,1.425874495028265,-0.03562806676383004,0.8229151719302102,0.024314408590539686,-0.019013651928740063,-0.025834192118698997,-0.0009621812240086728,0.015393265272817246,-0.025361190515514945,0.0416764876514219,0.01696870909248705,-0.019013651928740063,-0.025834192118698997,-0.0009621812240086728,0.015393265272817246,-0.025361190515514945,0.0416764876514219,0.01696870909248705
1762513421.549154,0.4737915587552002,-0.9676900170151357,0.00014520148593273236,1.4260105425385445,-0.03585221198358783,0.8232835136875756,0.02446438006077547,-0.019013651928740063,-0.025834192118698997,-0.0009621812240086728,0.015393265272817246,-0.025361190515514945,0.0416764876514219,0.01696870909248705,-0.019013651928740063,-0.025834192118698997,-0.0009621812240086728,0.015393265272817246,-0.025361190515514945,0.0416764876514219,0.01696870909248705
1762513421.5594337,0.47353646523135084,-0.9680366171910544,0.000132292540300722,1.4262170637421885,-0.03619246621154281,0.8238426594075304,0.02469203794647782,-0.019013651928740063,-0.025834192118698997,-0.0009621812240086728,0.015393265272817246,-0.025361190515514945,0.0416764876514219,0.01696870909248705,-0.019013651928740063,-0.025834192118698997,-0.0009621812240086728,0.015393265272817246,-0.025361190515514945,0.0416764876514219,0.01696870909248705
1762513421.5690966,0.47336875548563623,-0.9682644874501296,0.00012380562947398452,1.426352839899988,-0.03641616436423419,0.8242102664917714,0.02484171029230972,-0.019013651928740063,-0.025834192118698997,-0.0009621812240086728,0.015393265272817246,-0.025361190515514945,0.0416764876514219,0.01696870909248705,-0.019013651928740063,-0.025834192118698997,-0.0009621812240086728,0.015393265272817246,-0.025361190515514945,0.0416764876514219,0.01696870909248705
1762513421.5790684,0.4731999720389972,-0.9684938165660338,0.00011526438427352726,1.4264894853154775,-0.03664129466335399,0.8245802270472701,0.024992340861144074,-0.019013651928740063,-0.025834192118698997,-0.0009621812240086728,0.015393265272817246,-0.025361190515514945,0.0416764876514219,0.01696870909248705,-0.019013651928740063,-0.025834192118698997,-0.0009621812240086728,0.015393265272817246,-0.025361190515514945,0.0416764876514219,0.01696870909248705
1762513421.5891085,0.47303090367278405,-0.9687235328073069,0.00010670872078742825,1.426626361399047,-0.036866804999913655,0.8249508121249362,0.02514322570608418,-0.019013651928740063,-0.025834192118698997,-0.0009621812240086728,0.015393265272817246,-0.025361190515514945,0.0416764876514219,0.01696870909248705,-0.019013651928740063,-0.025834192118698997,-0.0009621812240086728,0.015393265272817246,-0.025361190515514945,0.0416764876514219,0.01696870909248705
1762513421.5991025,0.4727776209330898,-0.9690676726381051,9.389140944646753e-05,1.4268314166096794,-0.03720464392952869,0.825505988742913,0.0253692675598074,-0.019013651928740063,-0.025834192118698997,-0.0009621812240086728,0.015393265272817246,-0.025361190515514945,0.0416764876514219,0.01696870909248705,-0.019405307119402245,-0.026692963626598395,-0.0010885906693544846,0.013686691413182798,-0.025835260528341557,0.04087573697942845,0.017274455005756674
1762513421.6090136,0.4726068469487808,-0.969301157060758,8.477600397076774e-05,1.426960685279009,-0.037432214601319215,0.825872942770586,0.025521480100292933,-0.019405307119402245,-0.026692963626598395,-0.0010885906693544846,0.013686691413182798,-0.025835260528341557,0.04087573697942845,0.017274455005756674,-0.019405307119402245,-0.026692963626598395,-0.0010885906693544846,0.013686691413182798,-0.025835260528341557,0.04087573697942845,0.017274455005756674
1762513421.6189995,0.4724343662335681,-0.9695384128500704,7.51002541323962e-05,1.4270823370678374,-0.037661846845025305,0.8262362596872251,0.025675021105130882,-0.019405307119402245,-0.026692963626598395,-0.0010885906693544846,0.013686691413182798,-0.025835260528341557,0.04087573697942845,0.017274455005756674,-0.019405307119402245,-0.026692963626598395,-0.0010885906693544846,0.013686691413182798,-0.025835260528341557,0.04087573697942845,0.017274455005756674
1762513421.6291246,0.4722619375245785,-0.9697755971022403,6.542742171701852e-05,1.427203952176333,-0.03789140985023318,0.8265994670568892,0.02582851581442942,-0.019405307119402245,-0.026692963626598395,-0.0010885906693544846,0.013686691413182798,-0.025835260528341557,0.04087573697942845,0.017274455005756674,-0.019405307119402245,-0.026692963626598395,-0.0010885906693544846,0.013686691413182798,-0.025835260528341557,0.04087573697942845,0.017274455005756674
1762513421.639125,0.47200305817237204,-0.9701316985073666,5.0904917869666624e-05,1.4273865414950742,-0.03823606894109482,0.8271447758347967,0.026058968220778602,-0.019405307119402245,-0.026692963626598395,-0.0010885906693544846,0.013686691413182798,-0.025835260528341557,0.04087573697942845,0.017274455005756674,-0.019405307119402245,-0.026692963626598395,-0.0010885906693544846,0.013686691413182798,-0.025835260528341557,0.04087573697942845,0.017274455005756674
1762513421.6490083,0.47183010749943155,-0.970369600746872,4.120280454246466e-05,1.4275085247481951,-0.03846632686314039,0.8275090826800341,0.026212927578367882,-0.019405307119402245,-0.026692963626598395,-0.0010885906693544846,0.013686691413182798,-0.025835260528341557,0.04087573697942845,0.017274455005756674,-0.019405307119402245,-0.026692963626598395,-0.0010885906693544846,0.013686691413182798,-0.025835260528341557,0.04087573697942845,0.017274455005756674
1762513421.6591046,0.47165678071282846,-0.9706080203493984,3.147959215090927e-05,1.427630773276769,-0.03869708552420551,0.8278741817788056,0.026367221749444083,-0.019405307119402245,-0.026692963626598395,-0.0010885906693544846,0.013686691413182798,-0.025835260528341557,0.04087573697942845,0.017274455005756674,-0.019405307119402245,-0.026692963626598395,-0.0010885906693544846,0.013686691413182798,-0.025835260528341557,0.04087573697942845,0.017274455005756674
1762513421.6691406,0.4714855011279106,-0.9708436239243412,2.1871222809198766e-05,1.427751577900459,-0.038925118642790676,0.8282349686099529,0.026519693517340542,-0.019405307119402245,-0.026692963626598395,-0.0010885906693544846,0.013686691413182798,-0.025835260528341557,0.04087573697942845,0.017274455005756674,-0.019405307119402245,-0.026692963626598395,-0.0010885906693544846,0.013686691413182798,-0.025835260528341557,0.04087573697942845,0.017274455005756674
1762513421.679215,0.47122661083111084,-0.971199740384299,7.348104996709354e-06,1.4279341749384942,-0.03926979230473925,0.8287803004417761,0.026750155666482346,-0.019405307119402245,-0.026692963626598395,-0.0010885906693544846,0.013686691413182798,-0.025835260528341557,0.04087573697942845,0.017274455005756674,-0.019405307119402245,-0.026692963626598395,-0.0010885906693544846,0.013686691413182798,-0.025835260528341557,0.04087573697942845,0.017274455005756674
1762513421.6890168,0.4710542132288285,-0.9714368818476481,-2.3229824078253394e-06,1.4280557681072235,-0.039499313896024506,0.8291434422876337,0.02690362268482951,-0.019405307119402245,-0.026692963626598395,-0.0010885906693544846,0.013686691413182798,-0.025835260528341557,0.04087573697942845,0.017274455005756674,-0.019405307119402245,-0.026692963626598395,-0.0010885906693544846,0.013686691413182798,-0.025835260528341557,0.04087573697942845,0.017274455005756674
1762513421.6990833,0.4708817009993971,-0.9716741809863333,-1.2000500117443908e-05,1.428177442123239,-0.0397289880961937,0.8295068255864697,0.02705719174338239,-0.019405307119402245,-0.026692963626598395,-0.0010885906693544846,0.013686691413182798,-0.025835260528341557,0.04087573697942845,0.017274455005756674,-0.020129805155856263,-0.02616834596516588,-0.0012355483063972183,0.012307350407498694,-0.0268024675262203,0.03902953190109642,0.017950674874621042
1762513421.7092104,0.4707060785669612,-0.9719090976480571,-2.2318002812447797e-05,1.4282930327854149,-0.03996281465322051,0.829861994346883,0.027213666431185543,-0.020129805155856263,-0.02616834596516588,-0.0012355483063972183,0.012307350407498694,-0.0268024675262203,0.03902953190109642,0.017950674874621042,-0.020129805155856263,-0.02616834596516588,-0.0012355483063972183,0.012307350407498694,-0.0268024675262203,0.03902953190109642,0.017950674874621042
1762513421.7191489,0.47043760576534294,-0.9722581069454939,-3.8796608183183705e-05,1.4284571768900804,-0.04032028128001265,0.8303825342971809,0.02745307600009168,-0.020129805155856263,-0.02616834596516588,-0.0012355483063972183,0.012307350407498694,-0.0268024675262203,0.03902953190109642,0.017950674874621042,-0.020129805155856263,-0.02616834596516588,-0.0012355483063972183,0.012307350407498694,-0.0268024675262203,0.03902953190109642,0.017950674874621042
1762513421.7291205,0.4702585231277928,-0.9724909108091916,-4.978853025182946e-05,1.428566667903787,-0.04055872653769318,0.8307297563125495,0.02761277224044086,-0.020129805155856263,-0.02616834596516588,-0.0012355483063972183,0.012307350407498694,-0.0268024675262203,0.03902953190109642,0.017950674874621042,-0.020129805155856263,-0.02616834596516588,-0.0012355483063972183,0.012307350407498694,-0.0268024675262203,0.03902953190109642,0.017950674874621042
1762513421.73914,0.47007960028063606,-0.972723506948559,-6.077064453801904e-05,1.4286760612217457,-0.040796959037386483,0.831076668511494,0.027772325988332885,-0.020129805155856263,-0.02616834596516588,-0.0012355483063972183,0.012307350407498694,-0.0268024675262203,0.03902953190109642,0.017950674874621042,-0.020129805155856263,-0.02616834596516588,-0.0012355483063972183,0.012307350407498694,-0.0268024675262203,0.03902953190109642,0.017950674874621042
1762513421.7491262,0.46990067652763806,-0.972956104265502,-7.17528144238824e-05,1.4287854550935355,-0.041035192743190826,0.8314235824667674,0.027931880544005278,-0.020129805155856263,-0.02616834596516588,-0.0012355483063972183,0.012307350407498694,-0.0268024675262203,0.03902953190109642,0.017950674874621042,-0.020129805155856263,-0.02616834596516588,-0.0012355483063972183,0.012307350407498694,-0.0268024675262203,0.03902953190109642,0.017950674874621042
1762513421.759306,0.4696323107763236,-0.973304974399675,-8.822484914872489e-05,1.4289495337477114,-0.04139251683446066,0.8319439148580147,0.02817119465122243,-0.020129805155856263,-0.02616834596516588,-0.0012355483063972183,0.012307350407498694,-0.0268024675262203,0.03902953190109642,0.017950674874621042,-0.020129805155856263,-0.02616834596516588,-0.0012355483063972183,0.012307350407498694,-0.0268024675262203,0.03902953190109642,0.017950674874621042
1762513421.7690792,0.4694534786541986,-0.9735374525983073,-9.920139481869754e-05,1.429058871596442,-0.041630628535432826,0.8322906511508589,0.028330667495422797,-0.020129805155856263,-0.02616834596516588,-0.0012355483063972183,0.012307350407498694,-0.0268024675262203,0.03902953190109642,0.017950674874621042,-0.020129805155856263,-0.02616834596516588,-0.0012355483063972183,0.012307350407498694,-0.0268024675262203,0.03902953190109642,0.017950674874621042
1762513421.7791302,0.469273051144366,-0.9737720047691989,-0.0001102758638696937,1.4291691848642292,-0.04187086446596878,0.8326404807292538,0.02849156302036035,-0.020129805155856263,-0.02616834596516588,-0.0012355483063972183,0.012307350407498694,-0.0268024675262203,0.03902953190109642,0.017950674874621042,-0.020129805155856263,-0.02616834596516588,-0.0012355483063972183,0.012307350407498694,-0.0268024675262203,0.03902953190109642,0.017950674874621042
1762513421.7891445,0.46909566641562117,-0.9740026013852512,-0.00012116356990979147,1.4292776377775434,-0.0421070489891184,0.8329844106816656,0.028649745157185203,-0.020129805155856263,-0.02616834596516588,-0.0012355483063972183,0.012307350407498694,-0.0268024675262203,0.03902953190109642,0.017950674874621042,-0.020129805155856263,-0.02616834596516588,-0.0012355483063972183,0.012307350407498694,-0.0268024675262203,0.03902953190109642,0.017950674874621042
1762513421.7990901,0.4688272368125647,-0.9743515545254176,-0.00013763952379386183,1.429441755470635,-0.04246445809781522,0.8335048668745881,0.02888911620394306,-0.020129805155856263,-0.02616834596516588,-0.0012355483063972183,0.012307350407498694,-0.0268024675262203,0.03902953190109642,0.017950674874621042,-0.020463950632380032,-0.024896519020892325,-0.0013753285358889616,0.011340124975416335,-0.02723593874836653,0.03684328367305364,0.018261788603807564
1762513421.8090696,0.4686468187450791,-0.9745786228741276,-0.00014923570360400219,1.4295469328328883,-0.042704631371415745,0.833842267438322,0.029050060852744322,-0.020463950632380032,-0.024896519020892325,-0.0013753285358889616,0.011340124975416335,-0.02723593874836653,0.03684328367305364,0.018261788603807564,-0.020463950632380032,-0.024896519020892325,-0.0013753285358889616,0.011340124975416335,-0.02723593874836653,0.03684328367305364,0.018261788603807564
1762513421.8190274,0.46846499161189825,-0.9747998344456892,-0.00016145582909955276,1.4296476925762651,-0.04294662925105622,0.8341696288929885,0.029212321245580205,-0.020463950632380032,-0.024896519020892325,-0.0013753285358889616,0.011340124975416335,-0.02723593874836653,0.03684328367305364,0.018261788603807564,-0.020463950632380032,-0.024896519020892325,-0.0013753285358889616,0.011340124975416335,-0.02723593874836653,0.03684328367305364,0.018261788603807564
1762513421.8291574,0.468283053993848,-0.9750211804335571,-0.0001736833799938686,1.4297485135449766,-0.04318877417753,0.8344971892645435,0.02937468023381276,-0.020463950632380032,-0.024896519020892325,-0.0013753285358889616,0.011340124975416335,-0.02723593874836653,0.03684328367305364,0.018261788603807564,-0.020463950632380032,-0.024896519020892325,-0.0013753285358889616,0.011340124975416335,-0.02723593874836653,0.03684328367305364,0.018261788603807564
1762513421.8393626,0.4680087578803491,-0.9753548901130691,-0.00019211810352088603,1.4299005150945907,-0.043553841132605124,0.834991031812427,0.02961945885596389,-0.020463950632380032,-0.024896519020892325,-0.0013753285358889616,0.011340124975416335,-0.02723593874836653,0.03684328367305364,0.018261788603807564,-0.020463950632380032,-0.024896519020892325,-0.0013753285358889616,0.011340124975416335,-0.02723593874836653,0.03684328367305364,0.018261788603807564
1762513421.8492432,0.4678284058091939,-0.9755743071186432,-0.0002042390939602412,1.430000457430419,-0.04379387581854468,0.835315737566363,0.029780402920815425,-0.020463950632380032,-0.024896519020892325,-0.0013753285358889616,0.011340124975416335,-0.02723593874836653,0.03684328367305364,0.018261788603807564,-0.020463950632380032,-0.024896519020892325,-0.0013753285358889616,0.011340124975416335,-0.02723593874836653,0.03684328367305364,0.018261788603807564
1762513421.8591955,0.4676448044924212,-0.975797677168611,-0.00021657845768919626,1.4301022003399508,-0.04403823499960276,0.8356462932600374,0.02994424657419968,-0.020463950632380032,-0.024896519020892325,-0.0013753285358889616,0.011340124975416335,-0.02723593874836653,0.03684328367305364,0.018261788603807564,-0.020463950632380032,-0.024896519020892325,-0.0013753285358889616,0.011340124975416335,-0.02723593874836653,0.03684328367305364,0.018261788603807564
1762513421.869097,0.4674628770244904,-0.9760190108078055,-0.00022880532642055828,1.4302030156839602,-0.044280366417050916,0.8359738353573237,0.03010659650458509,-0.020463950632380032,-0.024896519020892325,-0.0013753285358889616,0.011340124975416335,-0.02723593874836653,0.03684328367305364,0.018261788603807564,-0.020463950632380032,-0.024896519020892325,-0.0013753285358889616,0.011340124975416335,-0.02723593874836653,0.03684328367305364,0.018261788603807564
1762513421.8790638,0.4671917264043793,-0.9763488936682755,-0.0002470286495736528,1.4303532741543046,-0.04464124696321698,0.8364620147609171,0.030348568125471716,-0.020463950632380032,-0.024896519020892325,-0.0013753285358889616,0.011340124975416335,-0.02723593874836653,0.03684328367305364,0.018261788603807564,-0.020463950632380032,-0.024896519020892325,-0.0013753285358889616,0.011340124975416335,-0.02723593874836653,0.03684328367305364,0.018261788603807564
1762513421.8890414,0.46700984663791745,-0.9765701692736841,-0.00025925231241419767,1.4304540630644826,-0.04488331489369191,0.8367894709765091,0.03051087548762789,-0.020463950632380032,-0.024896519020892325,-0.0013753285358889616,0.011340124975416335,-0.02723593874836653,0.03684328367305364,0.018261788603807564,-0.020463950632380032,-0.024896519020892325,-0.0013753285358889616,0.011340124975416335,-0.02723593874836653,0.03684328367305364,0.018261788603807564
1762513421.89912,0.46682778042440143,-0.9767916717112776,-0.00027148850587303304,1.4305549552945394,-0.045125630970804784,0.8371172628712588,0.03067334923294003,-0.020463950632380032,-0.024896519020892325,-0.0013753285358889616,0.011340124975416335,-0.02723593874836653,0.03684328367305364,0.018261788603807564,-0.021098119945387253,-0.024758582704788312,-0.0015392864821730282,0.011405708745405491,-0.028027117680386293,0.03683327660430586,0.018780340339461177
1762513421.9091444,0.4666432270503252,-0.9770121652854783,-0.0002844301525506723,1.4306559576836404,-0.045371022797318986,0.8374444229783571,0.030837832324142583,-0.021098119945387253,-0.024758582704788312,-0.0015392864821730282,0.011405708745405491,-0.028027117680386293,0.03683327660430586,0.018780340339461177,-0.021098119945387253,-0.024758582704788312,-0.0015392864821730282,0.011405708745405491,-0.028027117680386293,0.03683327660430586,0.018780340339461177
1762513421.9190493,0.46636205546504034,-0.9773421193271906,-0.00030494400030205236,1.4308079599102628,-0.045744536130713435,0.8379352947148376,0.031088115196697234,-0.021098119945387253,-0.024758582704788312,-0.0015392864821730282,0.011405708745405491,-0.028027117680386293,0.03683327660430586,0.018780340339461177,-0.021098119945387253,-0.024758582704788312,-0.0015392864821730282,0.011405708745405491,-0.028027117680386293,0.03683327660430586,0.018780340339461177
1762513421.9290166,0.46617411098628303,-0.9775626716291619,-0.00031865614130319517,1.4309095632754234,-0.04599420491812885,0.8382634097786555,0.031255412628180296,-0.021098119945387253,-0.024758582704788312,-0.0015392864821730282,0.011405708745405491,-0.028027117680386293,0.03683327660430586,0.018780340339461177,-0.021098119945387253,-0.024758582704788312,-0.0015392864821730282,0.011405708745405491,-0.028027117680386293,0.03683327660430586,0.018780340339461177
1762513421.9391253,0.4659863866453093,-0.9777829656000812,-0.0003323522213891829,1.4310110476334188,-0.04624358127059838,0.8385911405240654,0.031422514105592256,-0.021098119945387253,-0.024758582704788312,-0.0015392864821730282,0.011405708745405491,-0.028027117680386293,0.03683327660430586,0.018780340339461177,-0.021098119945387253,-0.024758582704788312,-0.0015392864821730282,0.011405708745405491,-0.028027117680386293,0.03683327660430586,0.018780340339461177
1762513421.949106,0.46579871093550196,-0.9780032025024674,-0.0003460447534198293,1.4311125057012557,-0.04649289302056167,0.8389187863687726,0.03158957229431973,-0.021098119945387253,-0.024758582704788312,-0.0015392864821730282,0.011405708745405491,-0.028027117680386293,0.03683327660430586,0.018780340339461177,-0.021098119945387253,-0.024758582704788312,-0.0015392864821730282,0.011405708745405491,-0.028027117680386293,0.03683327660430586,0.018780340339461177
1762513421.959015,0.46551661101184144,-0.9783342459465771,-0.0003666263313157114,1.4312650097904684,-0.04686763957516117,0.839411278806257,0.03184068152062966,-0.021098119945387253,-0.024758582704788312,-0.0015392864821730282,0.011405708745405491,-0.028027117680386293,0.03683327660430586,0.018780340339461177,-0.021098119945387253,-0.024758582704788312,-0.0015392864821730282,0.011405708745405491,-0.028027117680386293,0.03683327660430586,0.018780340339461177
