gio-ant01/RL_HW2/ros2_kdl_package/scripts/robot_data_velocity_ctrl_null.csv
timestamp,q1,q2,q3,q4,q5,q6,q7,dq1,dq2,dq3,dq4,dq5,dq6,dq7,cmd1,cmd2,cmd3,cmd4,cmd5,cmd6,cmd7
1762513474.503354,0.5,-0.7854,0.0,1.3962,0.0,0.6109,0.0,0.0,0.0,0.0,0.0,0.0,0.0,0.0,0.0,0.0,0.0,0.0,0.0,0.0,0.0
1762513474.5135021,0.5,-0.7854,0.0,1.3962,0.0,0.6109,0.0,0.0,0.0,0.0,0.0,0.0,0.0,0.0,0.0,0.0,0.0,0.0,0.0,0.0,0.0
1762513474.5235655,0.5,-0.7854,0.0,1.3962,0.0,0.6109,0.0,0.0,0.0,0.0,0.0,0.0,0.0,0.0,0.0,0.0,0.0,0.0,0.0,0.0,0.0
1762513474.533598,0.5,-0.7854,0.0,1.3962,0.0,0.6109,0.0,0.0,0.0,0.0,0.0,0.0,0.0,0.0,0.0,0.0,0.0,0.0,0.0,0.0,0.0
1762513474.5437877,0.5,-0.7854,0.0,1.3962,0.0,0.6109,0.0,0.0,0.0,0.0,0.0,0.0,0.0,0.0,0.0,0.0,0.0,0.0,0.0,0.0,0.0
1762513474.553359,0.5,-0.7854,0.0,1.3962,0.0,0.6109,0.0,0.0,0.0,0.0,0.0,0.0,0.0,0.0,0.0,0.0,0.0,0.0,0.0,0.0,0.0
1762513474.5633903,0.5,-0.7854,0.0,1.3962,0.0,0.6109,0.0,0.0,0.0,0.0,0.0,0.0,0.0,0.0,0.0,0.0,0.0,0.0,0.0,0.0,0.0
1762513474.5733933,0.5,-0.7854,0.0,1.3962,0.0,0.6109,0.0,0.0,0.0,0.0,0.0,0.0,0.0,0.0,0.0,0.0,0.0,0.0,0.0,0.0,0.0
1762513474.5835965,0.5,-0.7854,0.0,1.3962,0.0,0.6109,0.0,0.0,0.0,0.0,0.0,0.0,0.0,0.0,0.0,0.0,0.0,0.0,0.0,0.0,0.0
1762513474.5935302,0.5,-0.7854,0.0,1.3962,0.0,0.6109,0.0,0.0,0.0,0.0,0.0,0.0,0.0,0.0,0.0,0.0,0.0,0.0,0.0,0.0,0.0
1762513474.6034493,0.5,-0.7854,0.0,1.3962,0.0,0.6109,0.0,-0.10380008561553611,-0.28622864977195717,0.1559343551237794,0.08496761555906895,-0.027419211995447876,-1.5350686655324133,5.896202700092862e-18,-0.10380008561553611,-0.28622864977195717,0.1559343551237794,0.08496761555906895,-0.027419211995447876,-1.5350686655324133,5.896202700092862e-18
1762513474.613364,0.49907758645578243,-0.7879435545811654,0.001385701758549224,1.3969550598725116,-0.00024365926450246384,0.5972586998026601,5.2396269210821315e-20,-0.10380008561553611,-0.28622864977195717,0.1559343551237794,0.08496761555906895,-0.027419211995447876,-1.5350686655324133,5.896202700092862e-18,-0.10380008561553611,-0.28622864977195717,0.1559343551237794,0.08496761555906895,-0.027419211995447876,-1.5350686655324133,5.896202700092862e-18
1762513474.6236055,0.4976996697984605,-0.7917431586179516,0.0034556860374605402,1.3980829808382553,-0.0006076415166858277,0.5768810992272183,1.3066668553298724e-19,-0.10380008561553611,-0.28622864977195717,0.1559343551237794,0.08496761555906895,-0.027419211995447876,-1.5350686655324133,5.896202700092862e-18,-0.10380008561553611,-0.28622864977195717,0.1559343551237794,0.08496761555906895,-0.027419211995447876,-1.5350686655324133,5.896202700092862e-18
1762513474.6334052,0.49676902604925455,-0.7943094079825289,0.004853751675093174,1.398844777708037,-0.0008534748230881986,0.563118084970457,1.835304587596962e-19,-0.10380008561553611,-0.28622864977195717,0.1559343551237794,0.08496761555906895,-0.027419211995447876,-1.5350686655324133,5.896202700092862e-18,-0.10380008561553611,-0.28622864977195717,0.1559343551237794,0.08496761555906895,-0.027419211995447876,-1.5350686655324133,5.896202700092862e-18
1762513474.643535,0.495847321771022,-0.7968510067633304,0.006238387934193837,1.3995992569968314,-0.0010969467321150976,0.5494872738973088,2.358864392174678e-19,-0.10380008561553611,-0.28622864977195717,0.1559343551237794,0.08496761555906895,-0.027419211995447876,-1.5350686655324133,5.896202700092862e-18,-0.10380008561553611,-0.28622864977195717,0.1559343551237794,0.08496761555906895,-0.027419211995447876,-1.5350686655324133,5.896202700092862e-18
1762513474.6535714,0.4949254610660604,-0.7993930368907072,0.007623259186367671,1.4003538643318225,-0.0013404599618944738,0.5358541494756816,2.882513052527084e-19,-0.10380008561553611,-0.28622864977195717,0.1559343551237794,0.08496761555906895,-0.027419211995447876,-1.5350686655324133,5.896202700092862e-18,-0.10380008561553611,-0.28622864977195717,0.1559343551237794,0.08496761555906895,-0.027419211995447876,-1.5350686655324133,5.896202700092862e-18
1762513474.6639233,0.4935429357887372,-0.8032053491933147,0.009700166794712129,1.4014855577747296,-0.0017056595996712235,0.5154083933865589,3.6678350707855575e-19,-0.10380008561553611,-0.28622864977195717,0.1559343551237794,0.08496761555906895,-0.027419211995447876,-1.5350686655324133,5.896202700092862e-18,-0.10380008561553611,-0.28622864977195717,0.1559343551237794,0.08496761555906895,-0.027419211995447876,-1.5350686655324133,5.896202700092862e-18
1762513474.6735778,0.4926217051502953,-0.8057456419127873,0.011084091525350361,1.4022396493562943,-0.001949006394833787,0.5017845868317314,4.1911258316340684e-19,-0.10380008561553611,-0.28622864977195717,0.1559343551237794,0.08496761555906895,-0.027419211995447876,-1.5350686655324133,5.896202700092862e-18,-0.10380008561553611,-0.28622864977195717,0.1559343551237794,0.08496761555906895,-0.027419211995447876,-1.5350686655324133,5.896202700092862e-18
1762513474.6835907,0.4916973831377036,-0.8082944590939075,0.01247266029295289,1.4029962714433857,-0.002193169788967999,0.4881150628619071,4.71617259957072e-19,-0.10380008561553611,-0.28622864977195717,0.1559343551237794,0.08496761555906895,-0.027419211995447876,-1.5350686655324133,5.896202700092862e-18,-0.10380008561553611,-0.28622864977195717,0.1559343551237794,0.08496761555906895,-0.027419211995447876,-1.5350686655324133,5.896202700092862e-18
1762513474.6936266,0.49077586756802666,-0.8108355375110238,0.013857013063395937,1.403750596261055,-0.0024365918498674903,0.47448704254359275,5.239625211183348e-19,-0.10380008561553611,-0.28622864977195717,0.1559343551237794,0.08496761555906895,-0.027419211995447876,-1.5350686655324133,5.896202700092862e-18,-0.10380008561553611,-0.28622864977195717,0.1559343551237794,0.08496761555906895,-0.027419211995447876,-1.5350686655324133,5.896202700092862e-18
1762513474.70418,0.4893969798609038,-0.8146378192168287,0.015928456108199436,1.4048793120988423,-0.0028008306087790717,0.4540950814007849,6.022880964167601e-19,-0.10401585491616719,-0.28635761527872305,0.15579517065884083,0.08545432890184454,-0.02739473805352793,-1.5351142995743634,5.8909429150855205e-18,-0.10401585491616719,-0.28635761527872305,0.15579517065884083,0.08545432890184454,-0.02739473805352793,-1.5351142995743634,5.8909429150855205e-18
1762513474.713516,0.4884760143280808,-0.8171732547419767,0.017307880259187832,1.40563593224692,-0.003043386030241957,0.44050304430229514,6.544470233899039e-19,-0.10401585491616719,-0.28635761527872305,0.15579517065884083,0.08545432890184454,-0.02739473805352793,-1.5351142995743634,5.8909429150855205e-18,-0.10401585491616719,-0.28635761527872305,0.15579517065884083,0.08545432890184454,-0.02739473805352793,-1.5351142995743634,5.8909429150855205e-18
1762513474.7235763,0.4875339688380847,-0.8197667237877946,0.018718878015257116,1.4064098706547474,-0.003291493296713508,0.4265998994047393,7.077998147451619e-19,-0.10401585491616719,-0.28635761527872305,0.15579517065884083,0.08545432890184454,-0.02739473805352793,-1.5351142995743634,5.8909429150855205e-18,-0.10401585491616719,-0.28635761527872305,0.15579517065884083,0.08545432890184454,-0.02739473805352793,-1.5351142995743634,5.8909429150855205e-18
1762513474.7336433,0.4866139651398721,-0.8222995113640741,0.020096861528302427,1.407165700606646,-0.003533795399033612,0.41302205750817766,7.599042681691698e-19,-0.10401585491616719,-0.28635761527872305,0.15579517065884083,0.08545432890184454,-0.02739473805352793,-1.5351142995743634,5.8909429150855205e-18,-0.10401585491616719,-0.28635761527872305,0.15579517065884083,0.08545432890184454,-0.02739473805352793,-1.5351142995743634,5.8909429150855205e-18
1762513474.7436929,0.4852295015250195,-0.8261109658727053,0.02217051410098725,1.4083031080643034,-0.003898422677289373,0.3925895004320127,8.383134311730508e-19,-0.10401585491616719,-0.28635761527872305,0.15579517065884083,0.08545432890184454,-0.02739473805352793,-1.5351142995743634,5.8909429150855205e-18,-0.10401585491616719,-0.28635761527872305,0.15579517065884083,0.08545432890184454,-0.02739473805352793,-1.5351142995743634,5.8909429150855205e-18
1762513474.7535808,0.4843058216984625,-0.8286538738998239,0.023554003726953987,1.409061958143094,-0.004141692964441765,0.3789574045258755,8.906260823015637e-19,-0.10401585491616719,-0.28635761527872305,0.15579517065884083,0.08545432890184454,-0.02739473805352793,-1.5351142995743634,5.8909429150855205e-18,-0.10401585491616719,-0.28635761527872305,0.15579517065884083,0.08545432890184454,-0.02739473805352793,-1.5351142995743634,5.8909429150855205e-18
1762513474.7636163,0.48337568737606035,-0.8312145512760434,0.024947160910645617,1.4098261109193562,-0.004386663177274592,0.36523005017210686,9.433042841107864e-19,-0.10401585491616719,-0.28635761527872305,0.15579517065884083,0.08545432890184454,-0.02739473805352793,-1.5351142995743634,5.8909429150855205e-18,-0.10401585491616719,-0.28635761527872305,0.15579517065884083,0.08545432890184454,-0.02739473805352793,-1.5351142995743634,5.8909429150855205e-18
1762513474.7735655,0.48245628748988556,-0.8337456765463662,0.026324240032725255,1.4105814448088754,-0.004628806253140295,0.3516611196140543,9.953745406111723e-19,-0.10401585491616719,-0.28635761527872305,0.15579517065884083,0.08545432890184454,-0.02739473805352793,-1.5351142995743634,5.8909429150855205e-18,-0.10401585491616719,-0.28635761527872305,0.15579517065884083,0.08545432890184454,-0.02739473805352793,-1.5351142995743634,5.8909429150855205e-18
1762513474.7835734,0.4810790969756562,-0.8375371080714643,0.0283869989396921,1.411712877043493,-0.0049915180091271395,0.33133590233505844,1.0733717912136017e-18,-0.10401585491616719,-0.28635761527872305,0.15579517065884083,0.08545432890184454,-0.02739473805352793,-1.5351142995743634,5.8909429150855205e-18,-0.10401585491616719,-0.28635761527872305,0.15579517065884083,0.08545432890184454,-0.02739473805352793,-1.5351142995743634,5.8909429150855205e-18
1762513474.793398,0.48014205371213886,-0.8401168058932059,0.02979050435020923,1.4124827058671892,-0.005238307835250958,0.3175065826192835,1.1264412812331302e-18,-0.10401585491616719,-0.28635761527872305,0.15579517065884083,0.08545432890184454,-0.02739473805352793,-1.5351142995743634,5.8909429150855205e-18,-0.10401585491616719,-0.28635761527872305,0.15579517065884083,0.08545432890184454,-0.02739473805352793,-1.5351142995743634,5.8909429150855205e-18
1762513474.8035374,0.4792223759996156,-0.8426486960247191,0.031167999601189694,1.413238268005221,-0.005480524082462002,0.3039335517709367,1.1785272724420423e-18,-0.09832746543529224,-0.16921405785417085,0.13978162385393303,-0.1814035931234094,-0.020579782840674195,-1.5469913033751903,1.555924107428759e-16,-0.09832746543529224,-0.16921405785417085,0.13978162385393303,-0.1814035931234094,-0.020579782840674195,-1.5469913033751903,1.555924107428759e-16
1762513474.8136723,0.4783547034714629,-0.8441418941736526,0.032401476681288316,1.4116375055573682,-0.0056621265688797055,0.2902824132076935,2.551523716446563e-18,-0.09832746543529224,-0.16921405785417085,0.13978162385393303,-0.1814035931234094,-0.020579782840674195,-1.5469913033751903,1.555924107428759e-16,-0.09832746543529224,-0.16921405785417085,0.13978162385393303,-0.1814035931234094,-0.020579782840674195,-1.5469913033751903,1.555924107428759e-16
1762513474.823656,0.4770413701623869,-0.8464020404874011,0.034268501950285225,1.4092145469243926,-0.005937005151161441,0.26961966960315426,4.629729381195845e-18,-0.09832746543529224,-0.16921405785417085,0.13978162385393303,-0.1814035931234094,-0.020579782840674195,-1.5469913033751903,1.555924107428759e-16,-0.09832746543529224,-0.16921405785417085,0.13978162385393303,-0.1814035931234094,-0.020579782840674195,-1.5469913033751903,1.555924107428759e-16
1762513474.8336556,0.47615729218826375,-0.8479234711558172,0.03552530089541575,1.407583518194045,-0.006122041271447197,0.2557104232758994,6.028685640970761e-18,-0.09832746543529224,-0.16921405785417085,0.13978162385393303,-0.1814035931234094,-0.020579782840674195,-1.5469913033751903,1.555924107428759e-16,-0.09832746543529224,-0.16921405785417085,0.13978162385393303,-0.1814035931234094,-0.020579782840674195,-1.5469913033751903,1.555924107428759e-16
1762513474.84357,0.4752944262999314,-0.8494083974447465,0.0367519448906139,1.4059916234794385,-0.0063026377357605174,0.24213490783553035,7.394076105568527e-18,-0.09832746543529224,-0.16921405785417085,0.13978162385393303,-0.1814035931234094,-0.020579782840674195,-1.5469913033751903,1.555924107428759e-16,-0.09832746543529224,-0.16921405785417085,0.13978162385393303,-0.1814035931234094,-0.020579782840674195,-1.5469913033751903,1.555924107428759e-16
1762513474.8535645,0.4744122938330393,-0.8509264800438139,0.03800597811653485,1.4043641840005847,-0.006487266664462988,0.22825627027820405,8.789953813904484e-18,-0.09832746543529224,-0.16921405785417085,0.13978162385393303,-0.1814035931234094,-0.020579782840674195,-1.5469913033751903,1.555924107428759e-16,-0.09832746543529224,-0.16921405785417085,0.13978162385393303,-0.1814035931234094,-0.020579782840674195,-1.5469913033751903,1.555924107428759e-16
1762513474.8640218,0.4731022589187912,-0.8531809500719917,0.03986831441095959,1.4019473105511404,-0.006761454897929333,0.20764542049693657,1.0862940131235396e-17,-0.09832746543529224,-0.16921405785417085,0.13978162385393303,-0.1814035931234094,-0.020579782840674195,-1.5469913033751903,1.555924107428759e-16,-0.09832746543529224,-0.16921405785417085,0.13978162385393303,-0.1814035931234094,-0.020579782840674195,-1.5469913033751903,1.555924107428759e-16
1762513474.8734002,0.47222554498353686,-0.854689707791973,0.04111464469093482,1.4003298676800928,-0.006944949736538803,0.19385203298936537,1.2250243608592545e-17,-0.09832746543529224,-0.16921405785417085,0.13978162385393303,-0.1814035931234094,-0.020579782840674195,-1.5469913033751903,1.555924107428759e-16,-0.09832746543529224,-0.16921405785417085,0.13978162385393303,-0.1814035931234094,-0.020579782840674195,-1.5469913033751903,1.555924107428759e-16
1762513474.8836255,0.4713478341061105,-0.8562001811732868,0.04236239221679432,1.3987105855580146,-0.007128653233566494,0.18004296053696925,1.3639124637402218e-17,-0.09832746543529224,-0.16921405785417085,0.13978162385393303,-0.1814035931234094,-0.020579782840674195,-1.5469913033751903,1.555924107428759e-16,-0.09832746543529224,-0.16921405785417085,0.13978162385393303,-0.1814035931234094,-0.020579782840674195,-1.5469913033751903,1.555924107428759e-16
1762513474.8936265,0.47047478365556333,-0.8577026343159005,0.043603514513028005,1.3970999014220395,-0.007311381310626886,0.1663072108313792,1.502063105271991e-17,-0.09832746543529224,-0.16921405785417085,0.13978162385393303,-0.1814035931234094,-0.020579782840674195,-1.5469913033751903,1.555924107428759e-16,-0.09832746543529224,-0.16921405785417085,0.13978162385393303,-0.1814035931234094,-0.020579782840674195,-1.5469913033751903,1.555924107428759e-16
1762513474.9039855,0.4691798602961682,-0.8599310985123829,0.045444368328809125,1.394710907165208,-0.007582406719587579,0.14593411195556225,1.7069704994813394e-17,-0.09094973207389886,-0.02526559604494802,0.1215781596533292,-0.46547293224898545,-0.012049806215417966,-1.5653814096452878,2.4406430453421824e-16,-0.09094973207389886,-0.02526559604494802,0.1215781596533292,-0.46547293224898545,-0.012049806215417966,-1.5653814096452878,2.4406430453421824e-16
1762513474.9134054,0.46835625790329394,-0.8601598930880845,0.0465453288366463,1.3904957807203386,-0.007691524679656181,0.1317586785007694,1.927984834153876e-17,-0.09094973207389886,-0.02526559604494802,0.1215781596533292,-0.46547293224898545,-0.012049806215417966,-1.5653814096452878,2.4406430453421824e-16,-0.09094973207389886,-0.02526559604494802,0.1215781596533292,-0.46547293224898545,-0.012049806215417966,-1.5653814096452878,2.4406430453421824e-16
1762513474.923524,0.4675515656877627,-0.8603834344663219,0.04762101093510651,1.3863774349420697,-0.00779813725606628,0.11790871758328857,2.1439246082129678e-17,-0.09094973207389886,-0.02526559604494802,0.1215781596533292,-0.46547293224898545,-0.012049806215417966,-1.5653814096452878,2.4406430453421824e-16,-0.09094973207389886,-0.02526559604494802,0.1215781596533292,-0.46547293224898545,-0.012049806215417966,-1.5653814096452878,2.4406430453421824e-16
1762513474.9335392,0.4667433843676599,-0.8606079451086205,0.04870135713650551,1.3822412322257007,-0.007905212099192222,0.10399870393878952,2.360800686163544e-17,-0.09094973207389886,-0.02526559604494802,0.1215781596533292,-0.46547293224898545,-0.012049806215417966,-1.5653814096452878,2.4406430453421824e-16,-0.09094973207389886,-0.02526559604494802,0.1215781596533292,-0.46547293224898545,-0.012049806215417966,-1.5653814096452878,2.4406430453421824e-16
1762513474.9432998,0.46554453793220585,-0.8609409814911081,0.050303929678566776,1.3761056389380413,-0.008064045631736644,0.08336475724882575,2.6825120478580267e-17,-0.09094973207389886,-0.02526559604494802,0.1215781596533292,-0.46547293224898545,-0.012049806215417966,-1.5653814096452878,2.4406430453421824e-16,-0.09094973207389886,-0.02526559604494802,0.1215781596533292,-0.46547293224898545,-0.012049806215417966,-1.5653814096452878,2.4406430453421824e-16
1762513474.9535637,0.4647246514725349,-0.8611687437903519,0.051399922867534996,1.371909530320765,-0.008172671272872705,0.06925328058228676,2.9025292090015285e-17,-0.09094973207389886,-0.02526559604494802,0.1215781596533292,-0.46547293224898545,-0.012049806215417966,-1.5653814096452878,2.4406430453421824e-16,-0.09094973207389886,-0.02526559604494802,0.1215781596533292,-0.46547293224898545,-0.012049806215417966,-1.5653814096452878,2.4406430453421824e-16
1762513474.963588,0.4639130625388205,-0.8613942010587374,0.052484824237841725,1.3677558877300433,-0.008280197586088119,0.05528461679251254,3.120319722681903e-17,-0.09094973207389886,-0.02526559604494802,0.1215781596533292,-0.46547293224898545,-0.012049806215417966,-1.5653814096452878,2.4406430453421824e-16,-0.09094973207389886,-0.02526559604494802,0.1215781596533292,-0.46547293224898545,-0.012049806215417966,-1.5653814096452878,2.4406430453421824e-16
1762513474.9735832,0.46310925244474066,-0.8616174973859588,0.05355932714973146,1.363642056573744,-0.008386693291427733,0.04144983850932388,3.336022778772027e-17,-0.09094973207389886,-0.02526559604494802,0.1215781596533292,-0.46547293224898545,-0.012049806215417966,-1.5653814096452878,2.4406430453421824e-16,-0.09094973207389886,-0.02526559604494802,0.1215781596533292,-0.46547293224898545,-0.012049806215417966,-1.5653814096452878,2.4406430453421824e-16
1762513474.9836328,0.46190002828105803,-0.8619534166740176,0.05517577224612181,1.357453350962623,-0.00854690175506056,0.020637275538993943,3.660519011806967e-17,-0.09094973207389886,-0.02526559604494802,0.1215781596533292,-0.46547293224898545,-0.012049806215417966,-1.5653814096452878,2.4406430453421824e-16,-0.09094973207389886,-0.02526559604494802,0.1215781596533292,-0.46547293224898545,-0.012049806215417966,-1.5653814096452878,2.4406430453421824e-16
1762513474.9935224,0.4610857972576269,-0.8621796079079682,0.05626420546196646,1.3532861863832197,-0.008654778115146531,0.006623137419269528,3.879018532292014e-17,-0.09094973207389886,-0.02526559604494802,0.1215781596533292,-0.46547293224898545,-0.012049806215417966,-1.5653814096452878,2.4406430453421824e-16,-0.09094973207389886,-0.02526559604494802,0.1215781596533292,-0.46547293224898545,-0.012049806215417966,-1.5653814096452878,2.4406430453421824e-16
1762513475.0035212,0.4602787134279411,-0.8624038136703193,0.05734308457971292,1.3491556005287242,-0.00876170755326087,-0.007267986767759323,4.0956000978463084e-17,-0.07986022924830949,0.05295223807167458,0.10551486691209021,-0.6011229374020071,-0.0030436122753467586,-1.492956382272218,1.934467115411888e-16,-0.07986022924830949,0.05295223807167458,0.10551486691209021,-0.6011229374020071,-0.0030436122753467586,-1.492956382272218,1.934467115411888e-16
1762513475.0137014,0.45956196962736257,-0.8619285684985752,0.05829007818892186,1.3437605353902458,-0.008789023906472638,-0.02066723745361207,4.26921809587176e-17,-0.07986022924830949,0.05295223807167458,0.10551486691209021,-0.6011229374020071,-0.0030436122753467586,-1.492956382272218,1.934467115411888e-16,-0.07986022924830949,0.05295223807167458,0.10551486691209021,-0.6011229374020071,-0.0030436122753467586,-1.492956382272218,1.934467115411888e-16
1762513475.0235999,0.45850908326088674,-0.861230440155283,0.05968119822298568,1.3358352620555227,-0.00882915123768261,-0.04035054459451657,4.524260445660175e-17,-0.07986022924830949,0.05295223807167458,0.10551486691209021,-0.6011229374020071,-0.0030436122753467586,-1.492956382272218,1.934467115411888e-16,-0.07986022924830949,0.05295223807167458,0.10551486691209021,-0.6011229374020071,-0.0030436122753467586,-1.492956382272218,1.934467115411888e-16
1762513475.0335865,0.45779302218540807,-0.8607556476722223,0.060627289785597394,1.330445335917036,-0.008856441571053034,-0.05373703199625727,4.69771306609193e-17,-0.07986022924830949,0.05295223807167458,0.10551486691209021,-0.6011229374020071,-0.0030436122753467586,-1.492956382272218,1.934467115411888e-16,-0.07986022924830949,0.05295223807167458,0.10551486691209021,-0.6011229374020071,-0.0030436122753467586,-1.492956382272218,1.934467115411888e-16
1762513475.0436056,0.45708263158550716,-0.8602846150628258,0.061565889265084,1.3250980925127198,-0.008883515792733849,-0.06701751203007474,4.8697921181483874e-17,-0.07986022924830949,0.05295223807167458,0.10551486691209021,-0.6011229374020071,-0.0030436122753467586,-1.492956382272218,1.934467115411888e-16,-0.07986022924830949,0.05295223807167458,0.10551486691209021,-0.6011229374020071,-0.0030436122753467586,-1.492956382272218,1.934467115411888e-16
1762513475.0536406,0.4563741793530906,-0.8598148677101518,0.06250192768772092,1.3197654395643401,-0.008910516139857516,-0.08026175502658169,5.0414016363465913e-17,-0.07986022924830949,0.05295223807167458,0.10551486691209021,-0.6011229374020071,-0.0030436122753467586,-1.492956382272218,1.934467115411888e-16,-0.07986022924830949,0.05295223807167458,0.10551486691209021,-0.6011229374020071,-0.0030436122753467586,-1.492956382272218,1.934467115411888e-16
1762513475.063899,0.4553118966320414,-0.8591105090065283,0.06390546260102563,1.3117694381048024,-0.008951001582487806,-0.10012072341542433,5.2987200801429997e-17,-0.07986022924830949,0.05295223807167458,0.10551486691209021,-0.6011229374020071,-0.0030436122753467586,-1.492956382272218,1.934467115411888e-16,-0.07986022924830949,0.05295223807167458,0.10551486691209021,-0.6011229374020071,-0.0030436122753467586,-1.492956382272218,1.934467115411888e-16
1762513475.0734627,0.45459819023542214,-0.858637277820207,0.06484844305778643,1.3063972360761251,-0.008978202174950293,-0.11346319099823372,5.4716023229457756e-17,-0.07986022924830949,0.05295223807167458,0.10551486691209021,-0.6011229374020071,-0.0030436122753467586,-1.492956382272218,1.934467115411888e-16,-0.07986022924830949,0.05295223807167458,0.10551486691209021,-0.6011229374020071,-0.0030436122753467586,-1.492956382272218,1.934467115411888e-16
1762513475.0837145,0.45388933622619215,-0.8581672640648234,0.06578501232571879,1.3010615588782473,-0.009005217834487317,-0.1267149450582999,5.643309164184556e-17,-0.07986022924830949,0.05295223807167458,0.10551486691209021,-0.6011229374020071,-0.0030436122753467586,-1.492956382272218,1.934467115411888e-16,-0.07986022924830949,0.05295223807167458,0.10551486691209021,-0.6011229374020071,-0.0030436122753467586,-1.492956382272218,1.934467115411888e-16
1762513475.0936103,0.45317952101924297,-0.8576966129763022,0.06672285157058931,1.295718646564695,-0.009032270126941688,-0.13998466834138307,5.815248837885348e-17,-0.07986022924830949,0.05295223807167458,0.10551486691209021,-0.6011229374020071,-0.0030436122753467586,-1.492956382272218,1.934467115411888e-16,-0.07986022924830949,0.05295223807167458,0.10551486691209021,-0.6011229374020071,-0.0030436122753467586,-1.492956382272218,1.934467115411888e-16
1762513475.1037195,0.45211994404262096,-0.8569940483474566,0.06812281153468816,1.2877430117513995,-0.009072652448944474,-0.15979305387503798,6.071911864878384e-17,-0.06527711832369766,0.024832043121642285,0.09196291042170451,-0.59457317751085,0.005327592575813876,-1.2953810680499063,1.0250476173408605e-17,-0.06527711832369766,0.024832043121642285,0.09196291042170451,-0.59457317751085,0.005327592575813876,-1.2953810680499063,1.0250476173408605e-17
1762513475.1136127,0.4515346596734401,-0.8567714005488536,0.06894736469200281,1.2824119800504339,-0.009024884460098432,-0.17140763354295258,6.081102594547558e-17,-0.06527711832369766,0.024832043121642285,0.09196291042170451,-0.59457317751085,0.005327592575813876,-1.2953810680499063,1.0250476173408605e-17,-0.06527711832369766,0.024832043121642285,0.09196291042170451,-0.59457317751085,0.005327592575813876,-1.2953810680499063,1.0250476173408605e-17
1762513475.1235893,0.450955556264039,-0.8565511040467496,0.06976321006525546,1.2771372472945004,-0.00897762093033821,-0.18289955616829567,6.09019626450794e-17,-0.06527711832369766,0.024832043121642285,0.09196291042170451,-0.59457317751085,0.005327592575813876,-1.2953810680499063,1.0250476173408605e-17,-0.06527711832369766,0.024832043121642285,0.09196291042170451,-0.59457317751085,0.005327592575813876,-1.2953810680499063,1.0250476173408605e-17
1762513475.1335452,0.45037264863473625,-0.8563293603828366,0.07058441485300167,1.2718278640029277,-0.008930046919137855,-0.19446697101152258,6.099349672193365e-17,-0.06527711832369766,0.024832043121642285,0.09196291042170451,-0.59457317751085,0.005327592575813876,-1.2953810680499063,1.0250476173408605e-17,-0.06527711832369766,0.024832043121642285,0.09196291042170451,-0.59457317751085,0.005327592575813876,-1.2953810680499063,1.0250476173408605e-17
1762513475.1435726,0.4495084089628338,-0.8560005953063254,0.07180196240367534,1.263955982690614,-0.008859511990850739,-0.21161723343102273,6.11292084137553e-17,-0.06527711832369766,0.024832043121642285,0.09196291042170451,-0.59457317751085,0.005327592575813876,-1.2953810680499063,1.0250476173408605e-17,-0.06527711832369766,0.024832043121642285,0.09196291042170451,-0.59457317751085,0.005327592575813876,-1.2953810680499063,1.0250476173408605e-17
1762513475.1534646,0.4489247274080162,-0.8557785572337092,0.0726242575036875,1.258639550139449,-0.008811874815712805,-0.22320000631219244,6.122086402025507e-17,-0.06527711832369766,0.024832043121642285,0.09196291042170451,-0.59457317751085,0.005327592575813876,-1.2953810680499063,1.0250476173408605e-17,-0.06527711832369766,0.024832043121642285,0.09196291042170451,-0.59457317751085,0.005327592575813876,-1.2953810680499063,1.0250476173408605e-17
1762513475.1635983,0.4483490594027983,-0.8555595675923706,0.07343526305289047,1.2533961085807013,-0.008764891666494662,-0.2346237556226862,6.131126125779885e-17,-0.06527711832369766,0.024832043121642285,0.09196291042170451,-0.59457317751085,0.005327592575813876,-1.2953810680499063,1.0250476173408605e-17,-0.06527711832369766,0.024832043121642285,0.09196291042170451,-0.59457317751085,0.005327592575813876,-1.2953810680499063,1.0250476173408605e-17
1762513475.1735919,0.4477686816534933,-0.8553387863191209,0.07425290372608036,1.2481097685671962,-0.008717524131472174,-0.24614096667723975,6.140239806719853e-17,-0.06527711832369766,0.024832043121642285,0.09196291042170451,-0.59457317751085,0.005327592575813876,-1.2953810680499063,1.0250476173408605e-17,-0.06527711832369766,0.024832043121642285,0.09196291042170451,-0.59457317751085,0.005327592575813876,-1.2953810680499063,1.0250476173408605e-17
1762513475.1837964,0.44689959822357983,-0.8550081786305139,0.07547727520059605,1.2401937681413915,-0.008646593879833155,-0.2633873502581324,6.153887037510367e-17,-0.06527711832369766,0.024832043121642285,0.09196291042170451,-0.59457317751085,0.005327592575813876,-1.2953810680499063,1.0250476173408605e-17,-0.06527711832369766,0.024832043121642285,0.09196291042170451,-0.59457317751085,0.005327592575813876,-1.2953810680499063,1.0250476173408605e-17
1762513475.1935225,0.44631916981923103,-0.8547873780875986,0.07629498723700442,1.2349069667391008,-0.008599222210598828,-0.2749055665283948,6.163001513887286e-17,-0.06527711832369766,0.024832043121642285,0.09196291042170451,-0.59457317751085,0.005327592575813876,-1.2953810680499063,1.0250476173408605e-17,-0.06527711832369766,0.024832043121642285,0.09196291042170451,-0.59457317751085,0.005327592575813876,-1.2953810680499063,1.0250476173408605e-17
1762513475.203619,0.44573891746727035,-0.8545666445167037,0.0771124512494434,1.2296217689006699,-0.00855186490988168,-0.28642028915591666,6.17211322571078e-17,-0.049086935892722276,-0.06531212218239894,0.07867436902622103,-0.5012050292205255,0.012463309374091333,-1.0145119421506466,-2.08419652161565e-16,-0.049086935892722276,-0.06531212218239894,0.07867436902622103,-0.5012050292205255,0.012463309374091333,-1.0145119421506466,-2.08419652161565e-16
1762513475.2135942,0.4453026315047955,-0.855147140356776,0.07781171108688205,1.225167045569627,-0.008441090692118711,-0.2954372976750621,5.986869296978486e-17,-0.049086935892722276,-0.06531212218239894,0.07867436902622103,-0.5012050292205255,0.012463309374091333,-1.0145119421506466,-2.08419652161565e-16,-0.049086935892722276,-0.06531212218239894,0.07867436902622103,-0.5012050292205255,0.012463309374091333,-1.0145119421506466,-2.08419652161565e-16
1762513475.2233496,0.44464830647812653,-0.8560177458511218,0.0788604342894008,1.21848602162411,-0.008274955750300204,-0.3089606627319988,5.709047526320406e-17,-0.049086935892722276,-0.06531212218239894,0.07867436902622103,-0.5012050292205255,0.012463309374091333,-1.0145119421506466,-2.08419652161565e-16,-0.049086935892722276,-0.06531212218239894,0.07867436902622103,-0.5012050292205255,0.012463309374091333,-1.0145119421506466,-2.08419652161565e-16
1762513475.2333896,0.4442117787624924,-0.8565985633533959,0.0795600815981069,1.2140288298582984,-0.00816412015073857,-0.3179826677224593,5.5237009509094226e-17,-0.049086935892722276,-0.06531212218239894,0.07867436902622103,-0.5012050292205255,0.012463309374091333,-1.0145119421506466,-2.08419652161565e-16,-0.049086935892722276,-0.06531212218239894,0.07867436902622103,-0.5012050292205255,0.012463309374091333,-1.0145119421506466,-2.08419652161565e-16
1762513475.2434008,0.4437755297624803,-0.8571790100134402,0.08025928219374567,1.2095744839346427,-0.00805335531784756,-0.3269989123141123,5.338472716176936e-17,-0.049086935892722276,-0.06531212218239894,0.07867436902622103,-0.5012050292205255,0.012463309374091333,-1.0145119421506466,-2.08419652161565e-16,-0.049086935892722276,-0.06531212218239894,0.07867436902622103,-0.5012050292205255,0.012463309374091333,-1.0145119421506466,-2.08419652161565e-16
1762513475.2536054,0.4433391157321897,-0.8577596762528393,0.08095874729261311,1.2051184529596786,-0.007942548583310435,-0.33601856769491484,5.1531744107573925e-17,-0.049086935892722276,-0.06531212218239894,0.07867436902622103,-0.5012050292205255,0.012463309374091333,-1.0145119421506466,-2.08419652161565e-16,-0.049086935892722276,-0.06531212218239894,0.07867436902622103,-0.5012050292205255,0.012463309374091333,-1.0145119421506466,-2.08419652161565e-16
1762513475.2634015,0.4426848913337393,-0.8586301478573347,0.08200730921267536,1.198438456484471,-0.007776439191276146,-0.34953985300237006,4.875395366128006e-17,-0.049086935892722276,-0.06531212218239894,0.07867436902622103,-0.5012050292205255,0.012463309374091333,-1.0145119421506466,-2.08419652161565e-16,-0.049086935892722276,-0.06531212218239894,0.07867436902622103,-0.5012050292205255,0.012463309374091333,-1.0145119421506466,-2.08419652161565e-16
1762513475.2734814,0.44224835532241297,-0.8592109763973574,0.08270696981734983,1.1939811800150093,-0.007665601485415227,-0.3585620294453488,4.690045268424901e-17,-0.049086935892722276,-0.06531212218239894,0.07867436902622103,-0.5012050292205255,0.012463309374091333,-1.0145119421506466,-2.08419652161565e-16,-0.049086935892722276,-0.06531212218239894,0.07867436902622103,-0.5012050292205255,0.012463309374091333,-1.0145119421506466,-2.08419652161565e-16
1762513475.283511,0.44181227601593825,-0.8597911972733954,0.08340589843569488,1.1895285667571396,-0.007554879738184725,-0.3675747668692178,4.5048890843661663e-17,-0.049086935892722276,-0.06531212218239894,0.07867436902622103,-0.5012050292205255,0.012463309374091333,-1.0145119421506466,-2.08419652161565e-16,-0.049086935892722276,-0.06531212218239894,0.07867436902622103,-0.5012050292205255,0.012463309374091333,-1.0145119421506466,-2.08419652161565e-16
1762513475.2936835,0.44137552691822324,-0.8603723093333405,0.08410590056580529,1.185069114556646,-0.007443987929097813,-0.37660134730853745,4.3194485116920574e-17,-0.049086935892722276,-0.06531212218239894,0.07867436902622103,-0.5012050292205255,0.012463309374091333,-1.0145119421506466,-2.08419652161565e-16,-0.049086935892722276,-0.06531212218239894,0.07867436902622103,-0.5012050292205255,0.012463309374091333,-1.0145119421506466,-2.08419652161565e-16
1762513475.3035722,0.44071996195555363,-0.8612445646118927,0.08515661108288564,1.1783754301720906,-0.007277538164084517,-0.3901503389371328,4.0411002729926186e-17,-0.036279538018860684,-0.13691142378503046,0.065923739149594,-0.37680885547528276,0.016917142097755876,-0.7464937881656963,0.0,-0.036279538018860684,-0.13691142378503046,0.065923739149594,-0.37680885547528276,0.016917142097755876,-0.7464937881656963,0.0
1762513475.3136013,0.44039476719648135,-0.8624717819333723,0.08574752418819459,1.1749978715904763,-0.0071258999060170615,-0.3968416002058218,4.0411002729926186e-17,-0.036279538018860684,-0.13691142378503046,0.065923739149594,-0.37680885547528276,0.016917142097755876,-0.7464937881656963,0.0,-0.036279538018860684,-0.13691142378503046,0.065923739149594,-0.37680885547528276,0.016917142097755876,-0.7464937881656963,0.0
1762513475.323586,0.4400726399811871,-0.8636874229832365,0.08633286324358723,1.171652173328019,-0.006975692043065398,-0.40346974318524004,4.0411002729926186e-17,-0.036279538018860684,-0.13691142378503046,0.065923739149594,-0.37680885547528276,0.016917142097755876,-0.7464937881656963,0.0,-0.036279538018860684,-0.13691142378503046,0.065923739149594,-0.37680885547528276,0.016917142097755876,-0.7464937881656963,0.0
1762513475.3336246,0.4397502954877397,-0.8649038839956178,0.08691859711625363,1.1683042183573262,-0.006825382863349711,-0.4101023569159556,4.0411002729926186e-17,-0.036279538018860684,-0.13691142378503046,0.065923739149594,-0.37680885547528276,0.016917142097755876,-0.7464937881656963,0.0,-0.036279538018860684,-0.13691142378503046,0.065923739149594,-0.37680885547528276,0.016917142097755876,-0.7464937881656963,0.0
1762513475.3437061,0.43926828111951743,-0.8667229058752194,0.08779446795729132,1.1632978899328013,-0.0066006196495475905,-0.4200203644577672,4.0411002729926186e-17,-0.036279538018860684,-0.13691142378503046,0.065923739149594,-0.37680885547528276,0.016917142097755876,-0.7464937881656963,0.0,-0.036279538018860684,-0.13691142378503046,0.065923739149594,-0.37680885547528276,0.016917142097755876,-0.7464937881656963,0.0
1762513475.3535955,0.4389428892899946,-0.8679508668995529,0.08838573916035133,1.159918284525484,-0.006448889497564261,-0.4267156806807135,4.0411002729926186e-17,-0.036279538018860684,-0.13691142378503046,0.065923739149594,-0.37680885547528276,0.016917142097755876,-0.7464937881656963,0.0,-0.036279538018860684,-0.13691142378503046,0.065923739149594,-0.37680885547528276,0.016917142097755876,-0.7464937881656963,0.0
1762513475.3636081,0.43862116071426416,-0.8691650035666926,0.0889703538456982,1.1565767266387306,-0.006298867520169967,-0.4333356211863874,4.0411002729926186e-17,-0.036279538018860684,-0.13691142378503046,0.065923739149594,-0.37680885547528276,0.016917142097755876,-0.7464937881656963,0.0,-0.036279538018860684,-0.13691142378503046,0.065923739149594,-0.37680885547528276,0.016917142097755876,-0.7464937881656963,0.0
1762513475.3735843,0.4382986278937349,-0.8703821752862747,0.08955642992849452,1.1532268156532692,-0.00614847052356965,-0.4399721099663573,4.0411002729926186e-17,-0.036279538018860684,-0.13691142378503046,0.065923739149594,-0.37680885547528276,0.016917142097755876,-0.7464937881656963,0.0,-0.036279538018860684,-0.13691142378503046,0.065923739149594,-0.37680885547528276,0.016917142097755876,-0.7464937881656963,0.0
1762513475.3835876,0.43781816273434515,-0.8721953507742578,0.09042948569402304,1.1482365777204908,-0.005924429705569388,-0.4498582407304267,4.0411002729926186e-17,-0.036279538018860684,-0.13691142378503046,0.065923739149594,-0.37680885547528276,0.016917142097755876,-0.7464937881656963,0.0,-0.036279538018860684,-0.13691142378503046,0.065923739149594,-0.37680885547528276,0.016917142097755876,-0.7464937881656963,0.0
1762513475.393604,0.43749226661924384,-0.8734252148673819,0.09102167323705722,1.1448517346700824,-0.005772464405310898,-0.45656393321702854,4.0411002729926186e-17,-0.036279538018860684,-0.13691142378503046,0.065923739149594,-0.37680885547528276,0.016917142097755876,-0.7464937881656963,0.0,-0.036279538018860684,-0.13691142378503046,0.065923739149594,-0.37680885547528276,0.016917142097755876,-0.7464937881656963,0.0
1762513475.4036093,0.437169976109749,-0.8746414721555646,0.09160730901519977,1.1415043403909666,-0.005622180398302652,-0.4631954361649873,4.0411002729926186e-17,-0.02749435039948657,-0.15496572120014812,0.05256884760740062,-0.24865814656109642,0.018916783028347,-0.5117562673219546,2.125158180596436e-16,-0.02749435039948657,-0.15496572120014812,0.05256884760740062,-0.24865814656109642,0.018916783028347,-0.5117562673219546,2.125158180596436e-16
1762513475.4134607,0.43692797424683216,-0.8760054612178189,0.092070013493303,1.1393156822185462,-0.005455677219768237,-0.467699851372178,4.228154060852573e-17,-0.02749435039948657,-0.15496572120014812,0.05256884760740062,-0.24865814656109642,0.018916783028347,-0.5117562673219546,2.125158180596436e-16,-0.02749435039948657,-0.15496572120014812,0.05256884760740062,-0.24865814656109642,0.018916783028347,-0.5117562673219546,2.125158180596436e-16
1762513475.4234436,0.43656143342445886,-0.8780713861101357,0.09277083487490567,1.1360006971322993,-0.005203488202492961,-0.47452232800295563,4.5114694386924594e-17,-0.02749435039948657,-0.15496572120014812,0.05256884760740062,-0.24865814656109642,0.018916783028347,-0.5117562673219546,2.125158180596436e-16,-0.02749435039948657,-0.15496572120014812,0.05256884760740062,-0.24865814656109642,0.018916783028347,-0.5117562673219546,2.125158180596436e-16
1762513475.4333906,0.436317134711004,-0.8794483208537732,0.09323793090196918,1.1337912663069731,-0.005035404734821141,-0.47906949481696215,4.700298562444902e-17,-0.02749435039948657,-0.15496572120014812,0.05256884760740062,-0.24865814656109642,0.018916783028347,-0.5117562673219546,2.125158180596436e-16,-0.02749435039948657,-0.15496572120014812,0.05256884760740062,-0.24865814656109642,0.018916783028347,-0.5117562673219546,2.125158180596436e-16
1762513475.4435735,0.43607277034104036,-0.8808256256555531,0.09370515246344079,1.1315812416859932,-0.00486727609387145,-0.483617883704935,4.8891784349746976e-17,-0.02749435039948657,-0.15496572120014812,0.05256884760740062,-0.24865814656109642,0.018916783028347,-0.5117562673219546,2.125158180596436e-16,-0.02749435039948657,-0.15496572120014812,0.05256884760740062,-0.24865814656109642,0.018916783028347,-0.5117562673219546,2.125158180596436e-16
1762513475.4535692,0.43582574759732534,-0.8822179137829843,0.09417745680164985,1.1293471748061383,-0.004697318427004313,-0.4882157532828827,5.080113080446148e-17,-0.02749435039948657,-0.15496572120014812,0.05256884760740062,-0.24865814656109642,0.018916783028347,-0.5117562673219546,2.125158180596436e-16,-0.02749435039948657,-0.15496572120014812,0.05256884760740062,-0.24865814656109642,0.018916783028347,-0.5117562673219546,2.125158180596436e-16
1762513475.4637074,0.43545859211125443,-0.8842873030889643,0.09487945341240964,1.1260266307183673,-0.004444706506127655,-0.49504967073677253,5.363903558648889e-17,-0.02749435039948657,-0.15496572120014812,0.05256884760740062,-0.24865814656109642,0.018916783028347,-0.5117562673219546,2.125158180596436e-16,-0.02749435039948657,-0.15496572120014812,0.05256884760740062,-0.24865814656109642,0.018916783028347,-0.5117562673219546,2.125158180596436e-16
1762513475.473411,0.4352154042795331,-0.8856579765976025,0.09534442544775441,1.1238272466767947,-0.0042773873521573125,-0.49957616055055415,5.551874033490044e-17,-0.02749435039948657,-0.15496572120014812,0.05256884760740062,-0.24865814656109642,0.018916783028347,-0.5117562673219546,2.125158180596436e-16,-0.02749435039948657,-0.15496572120014812,0.05256884760740062,-0.24865814656109642,0.018916783028347,-0.5117562673219546,2.125158180596436e-16
1762513475.483581,0.4349711957200532,-0.8870344032086402,0.09581134910156662,1.1216186312015313,-0.004109365912617042,-0.5041216493157601,5.740633473305746e-17,-0.02749435039948657,-0.15496572120014812,0.05256884760740062,-0.24865814656109642,0.018916783028347,-0.5117562673219546,2.125158180596436e-16,-0.02749435039948657,-0.15496572120014812,0.05256884760740062,-0.24865814656109642,0.018916783028347,-0.5117562673219546,2.125158180596436e-16
1762513475.4935684,0.4347251879302832,-0.8884209707764734,0.09628171286076626,1.1193937435371568,-0.003940106558795397,-0.5087006274110996,5.930783616634828e-17,-0.02749435039948657,-0.15496572120014812,0.05256884760740062,-0.24865814656109642,0.018916783028347,-0.5117562673219546,2.125158180596436e-16,-0.02749435039948657,-0.15496572120014812,0.05256884760740062,-0.24865814656109642,0.018916783028347,-0.5117562673219546,2.125158180596436e-16
1762513475.5035267,0.4343586999520513,-0.8904865978246742,0.09698243320504384,1.1160792363718677,-0.003687953899577101,-0.5155221204463313,6.214058148934484e-17,-0.022881106386962415,-0.12598973044809741,0.04033636086516789,-0.15110400072785865,0.018854701698755676,-0.3394408697172026,4.52574843717968e-17,-0.022881106386962415,-0.12598973044809741,0.04033636086516789,-0.15110400072785865,0.018854701698755676,-0.3394408697172026,4.52574843717968e-17
1762513475.5135794,0.43415625840228617,-0.8916012972563824,0.09733931085192557,1.11474233737906,-0.003521136134399889,-0.5185253377976707,6.254099898313865e-17,-0.022881106386962415,-0.12598973044809741,0.04033636086516789,-0.15110400072785865,0.018854701698755676,-0.3394408697172026,4.52574843717968e-17,-0.022881106386962415,-0.12598973044809741,0.04033636086516789,-0.15110400072785865,0.018854701698755676,-0.3394408697172026,4.52574843717968e-17
1762513475.5236242,0.4339531401895619,-0.8927197225823891,0.09769738136600717,1.1134009697876388,-0.0033537607791293395,-0.5215385934338503,6.294275487651779e-17,-0.022881106386962415,-0.12598973044809741,0.04033636086516789,-0.15110400072785865,0.018854701698755676,-0.3394408697172026,4.52574843717968e-17,-0.022881106386962415,-0.12598973044809741,0.04033636086516789,-0.15110400072785865,0.018854701698755676,-0.3394408697172026,4.52574843717968e-17
1762513475.533564,0.4337496787831229,-0.8938400376283628,0.09805605688516539,1.1120573357873105,-0.00318610262218801,-0.5245569403436349,6.334518958690504e-17,-0.022881106386962415,-0.12598973044809741,0.04033636086516789,-0.15110400072785865,0.018854701698755676,-0.3394408697172026,4.52574843717968e-17,-0.022881106386962415,-0.12598973044809741,0.04033636086516789,-0.15110400072785865,0.018854701698755676,-0.3394408697172026,4.52574843717968e-17
1762513475.5437205,0.43344467626631195,-0.8955194662464171,0.09859373593681657,1.1100431368345682,-0.0029347716168342916,-0.5290816481012651,6.394846664897037e-17,-0.022881106386962415,-0.12598973044809741,0.04033636086516789,-0.15110400072785865,0.018854701698755676,-0.3394408697172026,4.52574843717968e-17,-0.022881106386962415,-0.12598973044809741,0.04033636086516789,-0.15110400072785865,0.018854701698755676,-0.3394408697172026,4.52574843717968e-17
1762513475.5535805,0.43324043383618754,-0.89664408182585,0.09895378829731656,1.108694345050279,-0.002766469873505177,-0.5321115814856966,6.435244617832916e-17,-0.022881106386962415,-0.12598973044809741,0.04033636086516789,-0.15110400072785865,0.018854701698755676,-0.3394408697172026,4.52574843717968e-17,-0.022881106386962415,-0.12598973044809741,0.04033636086516789,-0.15110400072785865,0.018854701698755676,-0.3394408697172026,4.52574843717968e-17
1762513475.5635858,0.4330375801976964,-0.8977610503326036,0.09931139240205747,1.1073547246744182,-0.0025993125351503705,-0.5351209121670997,6.47536787594165e-17,-0.022881106386962415,-0.12598973044809741,0.04033636086516789,-0.15110400072785865,0.018854701698755676,-0.3394408697172026,4.52574843717968e-17,-0.022881106386962415,-0.12598973044809741,0.04033636086516789,-0.15110400072785865,0.018854701698755676,-0.3394408697172026,4.52574843717968e-17
1762513475.5735455,0.4328336395693652,-0.8988840041074918,0.09967091272595764,1.106007925951899,-0.0024312594853366626,-0.5381463683264596,6.515706134255643e-17,-0.022881106386962415,-0.12598973044809741,0.04033636086516789,-0.15110400072785865,0.018854701698755676,-0.3394408697172026,4.52574843717968e-17,-0.022881106386962415,-0.12598973044809741,0.04033636086516789,-0.15110400072785865,0.018854701698755676,-0.3394408697172026,4.52574843717968e-17
1762513475.583702,0.43252940695602193,-0.9005591934230959,0.10020723453973844,1.103998811346573,-0.0021805629029857045,-0.5426596545777057,6.575881558078764e-17,-0.022881106386962415,-0.12598973044809741,0.04033636086516789,-0.15110400072785865,0.018854701698755676,-0.3394408697172026,4.52574843717968e-17,-0.022881106386962415,-0.12598973044809741,0.04033636086516789,-0.15110400072785865,0.018854701698755676,-0.3394408697172026,4.52574843717968e-17
1762513475.593538,0.4323253106217618,-0.9016830045580999,0.1005670293525743,1.1026509843613288,-0.002012381546926936,-0.545687420632184,6.61625061411087e-17,-0.022881106386962415,-0.12598973044809741,0.04033636086516789,-0.15110400072785865,0.018854701698755676,-0.3394408697172026,4.52574843717968e-17,-0.022881106386962415,-0.12598973044809741,0.04033636086516789,-0.15110400072785865,0.018854701698755676,-0.3394408697172026,4.52574843717968e-17
1762513475.603489,0.4321223750231476,-0.902800424360068,0.10092477794215983,1.1013108227309374,-0.0018451566710306444,-0.5486979671907823,6.656390083450508e-17,-0.020582480716745306,-0.07653060978143367,0.029753852658129163,-0.08693594186447819,0.01755962464844837,-0.21773813565520292,7.744095255327097e-17,-0.020582480716745306,-0.07653060978143367,0.029753852658129163,-0.08693594186447819,0.01755962464844837,-0.21773813565520292,7.744095255327097e-17
1762513475.6135838,0.43194083793429305,-0.9034754228842586,0.10118720635728132,1.1005440493754755,-0.001690281115264198,-0.5506184134102367,6.724692856464683e-17,-0.020582480716745306,-0.07653060978143367,0.029753852658129163,-0.08693594186447819,0.01755962464844837,-0.21773813565520292,7.744095255327097e-17,-0.020582480716745306,-0.07653060978143367,0.029753852658129163,-0.08693594186447819,0.01755962464844837,-0.21773813565520292,7.744095255327097e-17
1762513475.6233132,0.43166603003737425,-0.9044972246881022,0.10158446623021583,1.0993833203224903,-0.0014558330141469552,-0.5535255537089151,6.828088485006375e-17,-0.020582480716745306,-0.07653060978143367,0.029753852658129163,-0.08693594186447819,0.01755962464844837,-0.21773813565520292,7.744095255327097e-17,-0.020582480716745306,-0.07653060978143367,0.029753852658129163,-0.08693594186447819,0.01755962464844837,-0.21773813565520292,7.744095255327097e-17
1762513475.6333768,0.43148178867812575,-0.9051822783395201,0.10185080391477652,1.0986051247144348,-0.001298650351976823,-0.5554746078887988,6.897408731463861e-17,-0.020582480716745306,-0.07653060978143367,0.029753852658129163,-0.08693594186447819,0.01755962464844837,-0.21773813565520292,7.744095255327097e-17,-0.020582480716745306,-0.07653060978143367,0.029753852658129163,-0.08693594186447819,0.01755962464844837,-0.21773813565520292,7.744095255327097e-17
1762513475.6435611,0.43129895814501795,-0.9058620862002907,0.10211510212150676,1.0978328881305144,-0.001142671314278219,-0.5574087372081739,6.966198158912072e-17,-0.020582480716745306,-0.07653060978143367,0.029753852658129163,-0.08693594186447819,0.01755962464844837,-0.21773813565520292,7.744095255327097e-17,-0.020582480716745306,-0.07653060978143367,0.029753852658129163,-0.08693594186447819,0.01755962464844837,-0.21773813565520292,7.744095255327097e-17
1762513475.6535606,0.43111604493208516,-0.9065422014845208,0.10237951984946313,1.0970603023249155,-0.0009866217395674021,-0.55934374118164,7.035018694390923e-17,-0.020582480716745306,-0.07653060978143367,0.029753852658129163,-0.08693594186447819,0.01755962464844837,-0.21773813565520292,7.744095255327097e-17,-0.020582480716745306,-0.07653060978143367,0.029753852658129163,-0.08693594186447819,0.01755962464844837,-0.21773813565520292,7.744095255327097e-17
1762513475.6637125,0.4308426075813923,-0.9075589072681204,0.10277479847285685,1.0959053621624275,-0.0007533428987362501,-0.5622363827333414,7.137898659117752e-17,-0.020582480716745306,-0.07653060978143367,0.029753852658129163,-0.08693594186447819,0.01755962464844837,-0.21773813565520292,7.744095255327097e-17,-0.020582480716745306,-0.07653060978143367,0.029753852658129163,-0.08693594186447819,0.01755962464844837,-0.21773813565520292,7.744095255327097e-17
1762513475.6733952,0.4306582013153083,-0.908244574082784,0.10304137454528504,1.0951264700236056,-0.0005960195488534347,-0.5641871814311679,7.207280951266424e-17,-0.020582480716745306,-0.07653060978143367,0.029753852658129163,-0.08693594186447819,0.01755962464844837,-0.21773813565520292,7.744095255327097e-17,-0.020582480716745306,-0.07653060978143367,0.029753852658129163,-0.08693594186447819,0.01755962464844837,-0.21773813565520292,7.744095255327097e-17
1762513475.6835723,0.43047486877549584,-0.9089262485251272,0.10330639844848162,1.0943521130720633,-0.000439612231909655,-0.5661266213836716,7.276259257197912e-17,-0.020582480716745306,-0.07653060978143367,0.029753852658129163,-0.08693594186447819,0.01755962464844837,-0.21773813565520292,7.744095255327097e-17,-0.020582480716745306,-0.07653060978143367,0.029753852658129163,-0.08693594186447819,0.01755962464844837,-0.21773813565520292,7.744095255327097e-17
1762513475.6936274,0.4302914295978508,-0.9096083194725595,0.10357157650638882,1.093577305705406,-0.0002831139385505716,-0.5680671894374563,7.345277685286918e-17,-0.020582480716745306,-0.07653060978143367,0.029753852658129163,-0.08693594186447819,0.01755962464844837,-0.21773813565520292,7.744095255327097e-17,-0.020582480716745306,-0.07653060978143367,0.029753852658129163,-0.08693594186447819,0.01755962464844837,-0.21773813565520292,7.744095255327097e-17
1762513475.703647,0.4300180673114652,-0.9106247461490251,0.1039667466174819,1.092422682598298,-4.989913767051243e-05,-0.570959036898177,7.448129407298351e-17,-0.018903611886359785,-0.029064676072806786,0.020998083926829097,-0.04645091492727635,0.01567024047162377,-0.1298458951495801,-1.60724736354824e-16,-0.018903611886359785,-0.029064676072806786,0.020998083926829097,-0.04645091492727635,0.01567024047162377,-0.1298458951495801,-1.60724736354824e-16
1762513475.7134042,0.42984995509020113,-0.9108832220045545,0.10415348524459984,1.0920095887125836,8.945830096417765e-05,-0.5721137729341709,7.305194858053855e-17,-0.018903611886359785,-0.029064676072806786,0.020998083926829097,-0.04645091492727635,0.01567024047162377,-0.1298458951495801,-1.60724736354824e-16,-0.018903611886359785,-0.029064676072806786,0.020998083926829097,-0.04645091492727635,0.01567024047162377,-0.1298458951495801,-1.60724736354824e-16
1762513475.7235126,0.4296811805052801,-0.9111427162572688,0.1043409596235805,1.091594867233261,0.00022936480915475293,-0.5732730586404848,7.161697145405645e-17,-0.018903611886359785,-0.029064676072806786,0.020998083926829097,-0.04645091492727635,0.01567024047162377,-0.1298458951495801,-1.60724736354824e-16,-0.018903611886359785,-0.029064676072806786,0.020998083926829097,-0.04645091492727635,0.01567024047162377,-0.1298458951495801,-1.60724736354824e-16
1762513475.7335305,0.42951431647060523,-0.9113992730013017,0.10452631176821485,1.0911848404550082,0.0003676875574813422,-0.5744192210818679,7.019823845522825e-17,-0.018903611886359785,-0.029064676072806786,0.020998083926829097,-0.04645091492727635,0.01567024047162377,-0.1298458951495801,-1.60724736354824e-16,-0.018903611886359785,-0.029064676072806786,0.020998083926829097,-0.04645091492727635,0.01567024047162377,-0.1298458951495801,-1.60724736354824e-16
1762513475.744048,0.4292636672802193,-0.9117846510745649,0.1048047322503722,1.0905689325380874,0.0005754644157334764,-0.5761408903951099,6.806713645818611e-17,-0.018903611886359785,-0.029064676072806786,0.020998083926829097,-0.04645091492727635,0.01567024047162377,-0.1298458951495801,-1.60724736354824e-16,-0.018903611886359785,-0.029064676072806786,0.020998083926829097,-0.04645091492727635,0.01567024047162377,-0.1298458951495801,-1.60724736354824e-16
1762513475.7534432,0.4290956706545419,-0.9120429491996,0.10499134247420695,1.0901561226997176,0.0007147260308476825,-0.5772948324234549,6.663877379750395e-17,-0.018903611886359785,-0.029064676072806786,0.020998083926829097,-0.04645091492727635,0.01567024047162377,-0.1298458951495801,-1.60724736354824e-16,-0.018903611886359785,-0.029064676072806786,0.020998083926829097,-0.04645091492727635,0.01567024047162377,-0.1298458951495801,-1.60724736354824e-16
1762513475.7637122,0.42892773312155524,-0.9123011564684578,0.10517788705803134,1.0897434580669079,0.0008539386607901744,-0.5784483685535318,6.521091356234764e-17,-0.018903611886359785,-0.029064676072806786,0.020998083926829097,-0.04645091492727635,0.01567024047162377,-0.1298458951495801,-1.60724736354824e-16,-0.018903611886359785,-0.029064676072806786,0.020998083926829097,-0.04645091492727635,0.01567024047162377,-0.1298458951495801,-1.60724736354824e-16
1762513475.7736092,0.42875957466205644,-0.9125597034161849,0.10536467704646257,1.0893302505622555,0.000993334428833058,-0.5796034221925852,6.378117493719755e-17,-0.018903611886359785,-0.029064676072806786,0.020998083926829097,-0.04645091492727635,0.01567024047162377,-0.1298458951495801,-1.60724736354824e-16,-0.018903611886359785,-0.029064676072806786,0.020998083926829097,-0.04645091492727635,0.01567024047162377,-0.1298458951495801,-1.60724736354824e-16
1762513475.7838774,0.4285058307991758,-0.9129498396094384,0.10564653508294343,1.0887067382589537,0.0012036766308123209,-0.5813463483176302,6.162376101501624e-17,-0.018903611886359785,-0.029064676072806786,0.020998083926829097,-0.04645091492727635,0.01567024047162377,-0.1298458951495801,-1.60724736354824e-16,-0.018903611886359785,-0.029064676072806786,0.020998083926829097,-0.04645091492727635,0.01567024047162377,-0.1298458951495801,-1.60724736354824e-16
1762513475.7934082,0.42833643532512244,-0.9132102884914383,0.10583469914399067,1.0882904910993303,0.0013440978280511867,-0.5825098988123704,6.018350488456856e-17,-0.018903611886359785,-0.029064676072806786,0.020998083926829097,-0.04645091492727635,0.01567024047162377,-0.1298458951495801,-1.60724736354824e-16,-0.018903611886359785,-0.029064676072806786,0.020998083926829097,-0.04645091492727635,0.01567024047162377,-0.1298458951495801,-1.60724736354824e-16
1762513475.8035924,0.42816965796350803,-0.9134667119739314,0.10601995501241021,1.0878806772985226,0.0014823487283252134,-0.5836554659103241,5.876550880865655e-17,-0.017162424639406162,-0.00041002371787790537,0.01479650921838208,-0.024674763321380945,0.01370245775141075,-0.073613291628704,-4.6845270837361023e-17,-0.017162424639406162,-0.00041002371787790537,0.01479650921838208,-0.024674763321380945,0.01370245775141075,-0.073613291628704,-4.6845270837361023e-17
1762513475.8135438,0.4280164179004386,-0.9134703729986238,0.10615207026147741,1.0876603609756814,0.0016046953975255027,-0.584312745151978,5.834723619226068e-17,-0.017162424639406162,-0.00041002371787790537,0.01479650921838208,-0.024674763321380945,0.01370245775141075,-0.073613291628704,-4.6845270837361023e-17,-0.017162424639406162,-0.00041002371787790537,0.01479650921838208,-0.024674763321380945,0.01370245775141075,-0.073613291628704,-4.6845270837361023e-17
1762513475.8237994,0.4277898168129741,-0.9134757866754387,0.10634743339634971,1.0873345720315764,0.0017856134142186057,-0.5852846854392847,5.77287228098367e-17,-0.017162424639406162,-0.00041002371787790537,0.01479650921838208,-0.024674763321380945,0.01370245775141075,-0.073613291628704,-4.6845270837361023e-17,-0.017162424639406162,-0.00041002371787790537,0.01479650921838208,-0.024674763321380945,0.01370245775141075,-0.073613291628704,-4.6845270837361023e-17
1762513475.8335762,0.4276369523495679,-0.9134794387267621,0.10647922482381267,1.0871147957159304,0.0019076602051310055,-0.5859403536540513,5.73114754021931e-17,-0.017162424639406162,-0.00041002371787790537,0.01479650921838208,-0.024674763321380945,0.01370245775141075,-0.073613291628704,-4.6845270837361023e-17,-0.017162424639406162,-0.00041002371787790537,0.01479650921838208,-0.024674763321380945,0.01370245775141075,-0.073613291628704,-4.6845270837361023e-17
1762513475.8436158,0.42748446273067825,-0.9134830818227575,0.10661069308071779,1.0868955583217903,0.002029407720663657,-0.5865944140809154,5.689525114210986e-17,-0.017162424639406162,-0.00041002371787790537,0.01479650921838208,-0.024674763321380945,0.01370245775141075,-0.073613291628704,-4.6845270837361023e-17,-0.017162424639406162,-0.00041002371787790537,0.01479650921838208,-0.024674763321380945,0.01370245775141075,-0.073613291628704,-4.6845270837361023e-17
1762513475.8535628,0.4273302630821224,-0.913486765772696,0.1067436356322084,1.0866738623835823,0.002152520521681743,-0.5872558091889308,5.647435931293093e-17,-0.017162424639406162,-0.00041002371787790537,0.01479650921838208,-0.024674763321380945,0.01370245775141075,-0.073613291628704,-4.6845270837361023e-17,-0.017162424639406162,-0.00041002371787790537,0.01479650921838208,-0.024674763321380945,0.01370245775141075,-0.073613291628704,-4.6845270837361023e-17
1762513475.863655,0.42710235107717665,-0.9134922107683526,0.10694012896884433,1.0863461887070305,0.0023344851732052725,-0.588233372280292,5.585226774818459e-17,-0.017162424639406162,-0.00041002371787790537,0.01479650921838208,-0.024674763321380945,0.01370245775141075,-0.073613291628704,-4.6845270837361023e-17,-0.017162424639406162,-0.00041002371787790537,0.01479650921838208,-0.024674763321380945,0.01370245775141075,-0.073613291628704,-4.6845270837361023e-17
1762513475.8734088,0.4269478676994166,-0.9134959014968033,0.10707331613622535,1.0861240848456353,0.0024578245032549047,-0.5888959843632446,5.5430601472988167e-17,-0.017162424639406162,-0.00041002371787790537,0.01479650921838208,-0.024674763321380945,0.01370245775141075,-0.073613291628704,-4.6845270837361023e-17,-0.017162424639406162,-0.00041002371787790537,0.01479650921838208,-0.024674763321380945,0.01370245775141075,-0.073613291628704,-4.6845270837361023e-17
1762513475.8836753,0.4267952784526519,-0.9134995469729863,0.10720487028686648,1.085904704214494,0.002579651561554803,-0.5895504721152666,5.5014105276107714e-17,-0.017162424639406162,-0.00041002371787790537,0.01479650921838208,-0.024674763321380945,0.01370245775141075,-0.073613291628704,-4.6845270837361023e-17,-0.017162424639406162,-0.00041002371787790537,0.01479650921838208,-0.024674763321380945,0.01370245775141075,-0.073613291628704,-4.6845270837361023e-17
1762513475.8934872,0.4266440856094056,-0.9135031590879996,0.10733522053433156,1.0856873312207957,0.0027003637330822155,-0.5901989703954285,5.4601420597843666e-17,-0.017162424639406162,-0.00041002371787790537,0.01479650921838208,-0.024674763321380945,0.01370245775141075,-0.073613291628704,-4.6845270837361023e-17,-0.017162424639406162,-0.00041002371787790537,0.01479650921838208,-0.024674763321380945,0.01370245775141075,-0.073613291628704,-4.6845270837361023e-17
1762513475.9033287,0.4264166693754204,-0.9135085922393009,0.1075312864442057,1.0853603703241321,0.0028819325617086794,-0.5911744070196345,5.398068225243601e-17,-0.015326572232640568,0.007553823877630069,0.010794249121747226,-0.013328039914399277,0.011957203768460056,-0.04064839491886077,-2.2144463864128382e-17,-0.015326572232640568,0.007553823877630069,0.010794249121747226,-0.013328039914399277,0.011957203768460056,-0.04064839491886077,-2.2144463864128382e-17
1762513475.9133923,0.4262793431962565,-0.9134409099320344,0.10762800298110206,1.0852409510065308,0.002989069179217304,-0.5915386168819978,5.378226772334663e-17,-0.015326572232640568,0.007553823877630069,0.010794249121747226,-0.013328039914399277,0.011957203768460056,-0.04064839491886077,-2.2144463864128382e-17,-0.015326572232640568,0.007553823877630069,0.010794249121747226,-0.013328039914399277,0.011957203768460056,-0.04064839491886077,-2.2144463864128382e-17
1762513475.9236321,0.42614311915090186,-0.913373770820243,0.10772394330354407,1.0851224901082799,0.003095345954202939,-0.5918999037182826,5.358544560265373e-17,-0.015326572232640568,0.007553823877630069,0.010794249121747226,-0.013328039914399277,0.011957203768460056,-0.04064839491886077,-2.2144463864128382e-17,-0.015326572232640568,0.007553823877630069,0.010794249121747226,-0.013328039914399277,0.011957203768460056,-0.04064839491886077,-2.2144463864128382e-17
1762513475.9334474,0.42600687570210677,-0.9133066221453104,0.10781989729150547,1.0850040123367304,0.0032016378670085446,-0.5922612420154353,5.338859544706957e-17,-0.015326572232640568,0.007553823877630069,0.010794249121747226,-0.013328039914399277,0.011957203768460056,-0.04064839491886077,-2.2144463864128382e-17,-0.015326572232640568,0.007553823877630069,0.010794249121747226,-0.013328039914399277,0.011957203768460056,-0.04064839491886077,-2.2144463864128382e-17
1762513475.9434237,0.4258036677924037,-0.9132064694994911,0.10796301323207913,1.084827302039716,0.003360172883632008,-0.5928001802228092,5.309499227572633e-17,-0.015326572232640568,0.007553823877630069,0.010794249121747226,-0.013328039914399277,0.011957203768460056,-0.04064839491886077,-2.2144463864128382e-17,-0.015326572232640568,0.007553823877630069,0.010794249121747226,-0.013328039914399277,0.011957203768460056,-0.04064839491886077,-2.2144463864128382e-17
1762513475.9534936,0.42566619791129856,-0.9131387163675719,0.10805983097585524,1.0847077577584123,0.0034674216118831657,-0.5931647712045233,5.289637012014377e-17,-0.015326572232640568,0.007553823877630069,0.010794249121747226,-0.013328039914399277,0.011957203768460056,-0.04064839491886077,-2.2144463864128382e-17,-0.015326572232640568,0.007553823877630069,0.010794249121747226,-0.013328039914399277,0.011957203768460056,-0.04064839491886077,-2.2144463864128382e-17
1762513475.9635482,0.42553135563306355,-0.9130722582707721,0.10815479814276768,1.0845904984496,0.003572620385163055,-0.5935223933847642,5.2701544433590534e-17,-0.015326572232640568,0.007553823877630069,0.010794249121747226,-0.013328039914399277,0.011957203768460056,-0.04064839491886077,-2.2144463864128382e-17,-0.015326572232640568,0.007553823877630069,0.010794249121747226,-0.013328039914399277,0.011957203768460056,-0.04064839491886077,-2.2144463864128382e-17
1762513475.9735713,0.4253938588691507,-0.9130044918894459,0.10825163481965676,1.0844709307909144,0.0036798900863496227,-0.5938870556637631,5.250288343661835e-17,-0.015326572232640568,0.007553823877630069,0.010794249121747226,-0.013328039914399277,0.011957203768460056,-0.04064839491886077,-2.2144463864128382e-17,-0.015326572232640568,0.007553823877630069,0.010794249121747226,-0.013328039914399277,0.011957203768460056,-0.04064839491886077,-2.2144463864128382e-17
1762513475.9838367,0.4251893236476392,-0.9129036850673712,0.10839568556379285,1.0842930662589871,0.003839460620733842,-0.5944295141034338,5.220736251041555e-17,-0.015326572232640568,0.007553823877630069,0.010794249121747226,-0.013328039914399277,0.011957203768460056,-0.04064839491886077,-2.2144463864128382e-17,-0.015326572232640568,0.007553823877630069,0.010794249121747226,-0.013328039914399277,0.011957203768460056,-0.04064839491886077,-2.2144463864128382e-17
1762513475.993395,0.42505410350809236,-0.9128370407385976,0.10849091885212314,1.0841754783606785,0.003944954186915439,-0.594788138429203,5.201199087425021e-17,-0.015326572232640568,0.007553823877630069,0.010794249121747226,-0.013328039914399277,0.011957203768460056,-0.04064839491886077,-2.2144463864128382e-17,-0.015326572232640568,0.007553823877630069,0.010794249121747226,-0.013328039914399277,0.011957203768460056,-0.04064839491886077,-2.2144463864128382e-17
1762513476.0035944,0.42491702342769877,-0.9127694797230811,0.10858746206576135,1.084056273051414,0.004051898807603154,-0.5951516956002891,5.18139319188171e-17,-0.013317225171833612,0.002813957324382179,0.008088454696939525,-0.006255662975233719,0.010360275406375213,-0.020960605777619504,2.121795229315466e-18,-0.013317225171833612,0.002813957324382179,0.008088454696939525,-0.006255662975233719,0.010360275406375213,-0.020960605777619504,2.121795229315466e-18
1762513476.0135992,0.42479868779000657,-0.9127444751571807,0.10865933533006053,1.084000685805737,0.004143959261718866,-0.5953379496148533,5.183278599601964e-17,-0.013317225171833612,0.002813957324382179,0.008088454696939525,-0.006255662975233719,0.010360275406375213,-0.020960605777619504,2.121795229315466e-18,-0.013317225171833612,0.002813957324382179,0.008088454696939525,-0.006255662975233719,0.010360275406375213,-0.020960605777619504,2.121795229315466e-18
1762513476.0237281,0.4246219974432856,-0.9127071401201226,0.10876665136973086,1.0839176868892357,0.004281417375556948,-0.5956160508449926,5.1860937561372125e-17,-0.013317225171833612,0.002813957324382179,0.008088454696939525,-0.006255662975233719,0.010360275406375213,-0.020960605777619504,2.121795229315466e-18,-0.013317225171833612,0.002813957324382179,0.008088454696939525,-0.006255662975233719,0.010360275406375213,-0.020960605777619504,2.121795229315466e-18
1762513476.033581,0.4245026426649855,-0.912681920207696,0.10883914362729108,1.0838616209101826,0.0043742706808289605,-0.5958039089327958,5.1879954015319974e-17,-0.013317225171833612,0.002813957324382179,0.008088454696939525,-0.006255662975233719,0.010360275406375213,-0.020960605777619504,2.121795229315466e-18,-0.013317225171833612,0.002813957324382179,0.008088454696939525,-0.006255662975233719,0.010360275406375213,-0.020960605777619504,2.121795229315466e-18
1762513476.0436,0.42438431705516383,-0.9126569177607055,0.10891101080098387,1.0838060383750199,0.004466323333657292,-0.5959901471640239,5.18988064948107e-17,-0.013317225171833612,0.002813957324382179,0.008088454696939525,-0.006255662975233719,0.010360275406375213,-0.020960605777619504,2.121795229315466e-18,-0.013317225171833612,0.002813957324382179,0.008088454696939525,-0.006255662975233719,0.010360275406375213,-0.020960605777619504,2.121795229315466e-18
1762513476.053558,0.42426614728351114,-0.9126319482426436,0.10898278332357979,1.0837505290436253,0.004558254750542819,-0.5961761401142431,5.1917634145053655e-17,-0.013317225171833612,0.002813957324382179,0.008088454696939525,-0.006255662975233719,0.010360275406375213,-0.020960605777619504,2.121795229315466e-18,-0.013317225171833612,0.002813957324382179,0.008088454696939525,-0.006255662975233719,0.010360275406375213,-0.020960605777619504,2.121795229315466e-18
1762513476.0635977,0.42408936121257557,-0.9125945929788603,0.10909015750306247,1.0836674851614188,0.0046957873340405226,-0.5964543920092167,5.194580096187025e-17,-0.013317225171833612,0.002813957324382179,0.008088454696939525,-0.006255662975233719,0.010360275406375213,-0.020960605777619504,2.121795229315466e-18,-0.013317225171833612,0.002813957324382179,0.008088454696939525,-0.006255662975233719,0.010360275406375213,-0.020960605777619504,2.121795229315466e-18
1762513476.0734181,0.4239698698128624,-0.9125693441980456,0.10916273274007943,1.083611355005519,0.004788746925377929,-0.5966424651318745,5.1964839183315356e-17,-0.013317225171833612,0.002813957324382179,0.008088454696939525,-0.006255662975233719,0.010360275406375213,-0.020960605777619504,2.121795229315466e-18,-0.013317225171833612,0.002813957324382179,0.008088454696939525,-0.006255662975233719,0.010360275406375213,-0.020960605777619504,2.121795229315466e-18
1762513476.083527,0.4238516147710169,-0.9125443566622149,0.10923455705305078,1.0835558056191146,0.004880744679106882,-0.5968285922928525,5.1983680419413165e-17,-0.013317225171833612,0.002813957324382179,0.008088454696939525,-0.006255662975233719,0.010360275406375213,-0.020960605777619504,2.121795229315466e-18,-0.013317225171833612,0.002813957324382179,0.008088454696939525,-0.006255662975233719,0.010360275406375213,-0.020960605777619504,2.121795229315466e-18
1762513476.0935464,0.4237332170084693,-0.9125193389692037,0.10930646804999111,1.0835001891907698,0.004972853463907366,-0.5970149440886425,5.200254439479045e-17,-0.013317225171833612,0.002813957324382179,0.008088454696939525,-0.006255662975233719,0.010360275406375213,-0.020960605777619504,2.121795229315466e-18,-0.013317225171833612,0.002813957324382179,0.008088454696939525,-0.006255662975233719,0.010360275406375213,-0.020960605777619504,2.121795229315466e-18
1762513476.103498,0.4235563700911319,-0.9124819708484492,0.10941387918562331,1.083417116726439,0.0051104333835034,-0.597293291752624,5.2030720906089455e-17,-0.011751252437850742,-0.005294796826366325,0.0061328465297663,-0.0011706662816864484,0.0089899863238071,-0.010692815283092483,-1.0474786582605907e-16,-0.011751252437850742,-0.005294796826366325,0.0061328465297663,-0.0011706662816864484,0.0089899863238071,-0.010692815283092483,-1.0474786582605907e-16
1762513476.113403,0.42345106879846545,-0.9125294167656542,0.1094688347463795,1.0834066265532942,0.005190991365382992,-0.5973891085413032,5.109209025936695e-17,-0.011751252437850742,-0.005294796826366325,0.0061328465297663,-0.0011706662816864484,0.0089899863238071,-0.010692815283092483,-1.0474786582605907e-16,-0.011751252437850742,-0.005294796826366325,0.0061328465297663,-0.0011706662816864484,0.0089899863238071,-0.010692815283092483,-1.0474786582605907e-16
1762513476.1234763,0.4233470279216329,-0.9125762947735414,0.10952313251028259,1.0833962619434734,0.005270585099309465,-0.5974837784400008,5.0164694659237225e-17,-0.011751252437850742,-0.005294796826366325,0.0061328465297663,-0.0011706662816864484,0.0089899863238071,-0.010692815283092483,-1.0474786582605907e-16,-0.011751252437850742,-0.005294796826366325,0.0061328465297663,-0.0011706662816864484,0.0089899863238071,-0.010692815283092483,-1.0474786582605907e-16
1762513476.1336777,0.42324242956538477,-0.9126234239665899,0.10957772121642506,1.0833858417972442,0.005350605318187138,-0.5975789556058554,4.9232329820352706e-17,-0.011751252437850742,-0.005294796826366325,0.0061328465297663,-0.0011706662816864484,0.0089899863238071,-0.010692815283092483,-1.0474786582605907e-16,-0.011751252437850742,-0.005294796826366325,0.0061328465297663,-0.0011706662816864484,0.0089899863238071,-0.010692815283092483,-1.0474786582605907e-16
1762513476.1434665,0.4230863573273469,-0.9126937458999342,0.10965917356276055,1.0833702937943788,0.0054700042752691335,-0.5977209703928735,4.784113905701682e-17,-0.011751252437850742,-0.005294796826366325,0.0061328465297663,-0.0011706662816864484,0.0089899863238071,-0.010692815283092483,-1.0474786582605907e-16,-0.011751252437850742,-0.005294796826366325,0.0061328465297663,-0.0011706662816864484,0.0089899863238071,-0.010692815283092483,-1.0474786582605907e-16
1762513476.15351,0.4229812195768606,-0.9127411181294519,0.10971404377269156,1.0833598199133965,0.005550437143509056,-0.5978166383696424,4.6903966186343026e-17,-0.011751252437850742,-0.005294796826366325,0.0061328465297663,-0.0011706662816864484,0.0089899863238071,-0.010692815283092483,-1.0474786582605907e-16,-0.011751252437850742,-0.005294796826366325,0.0061328465297663,-0.0011706662816864484,0.0089899863238071,-0.010692815283092483,-1.0474786582605907e-16
1762513476.1636147,0.42287667846096305,-0.9127882215315452,0.10976860260573858,1.0833494054694828,0.005630413572163347,-0.5979117634507937,4.5972111574312946e-17,-0.011751252437850742,-0.005294796826366325,0.0061328465297663,-0.0011706662816864484,0.0089899863238071,-0.010692815283092483,-1.0474786582605907e-16,-0.011751252437850742,-0.005294796826366325,0.0061328465297663,-0.0011706662816864484,0.0089899863238071,-0.010692815283092483,-1.0474786582605907e-16
1762513476.173601,0.42277229793768134,-0.912835252574945,0.10982307762730491,1.0833390070238944,0.005710267143664537,-0.5980067424039314,4.504168844661724e-17,-0.011751252437850742,-0.005294796826366325,0.0061328465297663,-0.0011706662816864484,0.0089899863238071,-0.010692815283092483,-1.0474786582605907e-16,-0.011751252437850742,-0.005294796826366325,0.0061328465297663,-0.0011706662816864484,0.0089899863238071,-0.010692815283092483,-1.0474786582605907e-16
1762513476.1834483,0.42261668537338504,-0.912905367391722,0.10990429007508268,1.0833235048139818,0.005829314439451505,-0.5981483389200941,4.3654595105548883e-17,-0.011751252437850742,-0.005294796826366325,0.0061328465297663,-0.0011706662816864484,0.0089899863238071,-0.010692815283092483,-1.0474786582605907e-16,-0.011751252437850742,-0.005294796826366325,0.0061328465297663,-0.0011706662816864484,0.0089899863238071,-0.010692815283092483,-1.0474786582605907e-16
1762513476.1934047,0.42251059103569655,-0.9129531706335857,0.10995965951711978,1.0833129356372522,0.0059104791195481446,-0.5982448773241056,4.270889544435324e-17,-0.011751252437850742,-0.005294796826366325,0.0061328465297663,-0.0011706662816864484,0.0089899863238071,-0.010692815283092483,-1.0474786582605907e-16,-0.011751252437850742,-0.005294796826366325,0.0061328465297663,-0.0011706662816864484,0.0089899863238071,-0.010692815283092483,-1.0474786582605907e-16
1762513476.2036016,0.4224060198130902,-0.9130002876009484,0.11001423406251962,1.0833025181940914,0.005990478580547396,-0.5983400298002497,4.177677246829091e-17,-0.010513487371998548,-0.011070120079566521,0.004481914100202632,0.0027875686936633948,0.007717157996777522,-0.005543345508117875,2.232338620404117e-17,-0.010513487371998548,-0.011070120079566521,0.004481914100202632,0.0027875686936633948,0.007717157996777522,-0.005543345508117875,2.232338620404117e-17
1762513476.2135017,0.4223133573522768,-0.9130978560415407,0.11005373619677672,1.0833270869185976,0.006058495103054644,-0.5983888870459709,4.197352353919281e-17,-0.010513487371998548,-0.011070120079566521,0.004481914100202632,0.0027875686936633948,0.007717157996777522,-0.005543345508117875,2.232338620404117e-17,-0.010513487371998548,-0.011070120079566521,0.004481914100202632,0.0027875686936633948,0.007717157996777522,-0.005543345508117875,2.232338620404117e-17
1762513476.223808,0.42217379519153775,-0.9132448072693569,0.11011323173749873,1.08336409073059,0.006160937157406982,-0.5984624726460162,4.226985718219942e-17,-0.010513487371998548,-0.011070120079566521,0.004481914100202632,0.0027875686936633948,0.007717157996777522,-0.005543345508117875,2.232338620404117e-17,-0.010513487371998548,-0.011070120079566521,0.004481914100202632,0.0027875686936633948,0.007717157996777522,-0.005543345508117875,2.232338620404117e-17
1762513476.233394,0.42208018660096874,-0.9133433719321953,0.11015313720816955,1.083388910313978,0.006229648162396677,-0.5985118287484864,4.246861717927259e-17,-0.010513487371998548,-0.011070120079566521,0.004481914100202632,0.0027875686936633948,0.007717157996777522,-0.005543345508117875,2.232338620404117e-17,-0.010513487371998548,-0.011070120079566521,0.004481914100202632,0.0027875686936633948,0.007717157996777522,-0.005543345508117875,2.232338620404117e-17
1762513476.2435584,0.4219851735451622,-0.9134434154191647,0.11019364140429926,1.083414102280305,0.0062993900793716865,-0.5985619253698531,4.267035929053861e-17,-0.010513487371998548,-0.011070120079566521,0.004481914100202632,0.0027875686936633948,0.007717157996777522,-0.005543345508117875,2.232338620404117e-17,-0.010513487371998548,-0.011070120079566521,0.004481914100202632,0.0027875686936633948,0.007717157996777522,-0.005543345508117875,2.232338620404117e-17
1762513476.2536108,0.4218935908510424,-0.9135398469252145,0.11023268323253253,1.0834383847131435,0.006366614026601191,-0.5986102132973605,4.2864817682707196e-17,-0.010513487371998548,-0.011070120079566521,0.004481914100202632,0.0027875686936633948,0.007717157996777522,-0.005543345508117875,2.232338620404117e-17,-0.010513487371998548,-0.011070120079566521,0.004481914100202632,0.0027875686936633948,0.007717157996777522,-0.005543345508117875,2.232338620404117e-17
1762513476.2634149,0.42175345212014237,-0.9136874052494859,0.11029242456590571,1.0834755413981905,0.0064694792976152295,-0.5986841029000168,4.316237556253661e-17,-0.010513487371998548,-0.011070120079566521,0.004481914100202632,0.0027875686936633948,0.007717157996777522,-0.005543345508117875,2.232338620404117e-17,-0.010513487371998548,-0.011070120079566521,0.004481914100202632,0.0027875686936633948,0.007717157996777522,-0.005543345508117875,2.232338620404117e-17
1762513476.2733722,0.4216600941395719,-0.913785706033872,0.11033222320119011,1.0835002945343035,0.0065380063487097545,-0.5987333268657602,4.336060343705284e-17,-0.010513487371998548,-0.011070120079566521,0.004481914100202632,0.0027875686936633948,0.007717157996777522,-0.005543345508117875,2.232338620404117e-17,-0.010513487371998548,-0.011070120079566521,0.004481914100202632,0.0027875686936633948,0.007717157996777522,-0.005543345508117875,2.232338620404117e-17
1762513476.2833943,0.42156651840365095,-0.9138842361025852,0.11037211466587936,1.0835251054065393,0.006606693237580709,-0.5987826656452757,4.355929367354413e-17,-0.010513487371998548,-0.011070120079566521,0.004481914100202632,0.0027875686936633948,0.007717157996777522,-0.005543345508117875,2.232338620404117e-17,-0.010513487371998548,-0.011070120079566521,0.004481914100202632,0.0027875686936633948,0.007717157996777522,-0.005543345508117875,2.232338620404117e-17
1762513476.2935326,0.4214730999495011,-0.913982600562302,0.11041193908113367,1.0835498745767476,0.006675264677768031,-0.5988319214963425,4.37576499521778e-17,-0.010513487371998548,-0.011070120079566521,0.004481914100202632,0.0027875686936633948,0.007717157996777522,-0.005543345508117875,2.232338620404117e-17,-0.010513487371998548,-0.011070120079566521,0.004481914100202632,0.0027875686936633948,0.007717157996777522,-0.005543345508117875,2.232338620404117e-17
1762513476.3036203,0.42133262296817187,-0.9141305150455468,0.1104718246111292,1.0835871209462422,0.006778378232906299,-0.5989059894450537,4.405592604231156e-17,-0.009862030809973443,-0.01266288050922736,0.0029807350522622193,0.00545160994505866,0.006607173330911483,-0.0036089777231002812,6.532353013152424e-17,-0.009862030809973443,-0.01266288050922736,0.0029807350522622193,0.00545160994505866,0.006607173330911483,-0.0036089777231002812,6.532353013152424e-17
1762513476.3134007,0.4212441334410837,-0.914244135893973,0.11049856999858866,1.083636036873925,0.006837662740804062,-0.5989383718963096,4.464205768197567e-17,-0.009862030809973443,-0.01266288050922736,0.0029807350522622193,0.00545160994505866,0.006607173330911483,-0.0036089777231002812,6.532353013152424e-17,-0.009862030809973443,-0.01266288050922736,0.0029807350522622193,0.00545160994505866,0.006607173330911483,-0.0036089777231002812,6.532353013152424e-17
1762513476.3235843,0.42115656374560917,-0.9143565756755343,0.1105250373728898,1.0836844443299485,0.00689633099764525,-0.5989704177382134,4.5222096595984406e-17,-0.009862030809973443,-0.01266288050922736,0.0029807350522622193,0.00545160994505866,0.006607173330911483,-0.0036089777231002812,6.532353013152424e-17,-0.009862030809973443,-0.01266288050922736,0.0029807350522622193,0.00545160994505866,0.006607173330911483,-0.0036089777231002812,6.532353013152424e-17
1762513476.3335848,0.42106904627944985,-0.9144689483944803,0.1105514889612181,1.0837328229142456,0.006954964262896478,-0.599002444466971,4.5801789556577567e-17,-0.009862030809973443,-0.01266288050922736,0.0029807350522622193,0.00545160994505866,0.006607173330911483,-0.0036089777231002812,6.532353013152424e-17,-0.009862030809973443,-0.01266288050922736,0.0029807350522622193,0.00545160994505866,0.006607173330911483,-0.0036089777231002812,6.532353013152424e-17
1762513476.3439147,0.42093826509991633,-0.9146368718659436,0.11059101672720494,1.0838051171498557,0.007042582517011562,-0.5990503034092752,4.6668050115534123e-17,-0.009862030809973443,-0.01266288050922736,0.0029807350522622193,0.00545160994505866,0.006607173330911483,-0.0036089777231002812,6.532353013152424e-17,-0.009862030809973443,-0.01266288050922736,0.0029807350522622193,0.00545160994505866,0.006607173330911483,-0.0036089777231002812,6.532353013152424e-17
1762513476.3536155,0.4208498298337217,-0.9147504230432013,0.11061774571466013,1.0838540030827808,0.007101830672241658,-0.5990826660039358,4.725382234513544e-17,-0.009862030809973443,-0.01266288050922736,0.0029807350522622193,0.00545160994505866,0.006607173330911483,-0.0036089777231002812,6.532353013152424e-17,-0.009862030809973443,-0.01266288050922736,0.0029807350522622193,0.00545160994505866,0.006607173330911483,-0.0036089777231002812,6.532353013152424e-17
1762513476.363592,0.4207622892312381,-0.914862825469265,0.11064420429579284,1.083902394456555,0.007160479437921521,-0.5991147011993553,4.783366855473029e-17,-0.009862030809973443,-0.01266288050922736,0.0029807350522622193,0.00545160994505866,0.006607173330911483,-0.0036089777231002812,6.532353013152424e-17,-0.009862030809973443,-0.01266288050922736,0.0029807350522622193,0.00545160994505866,0.006607173330911483,-0.0036089777231002812,6.532353013152424e-17
1762513476.373653,0.4206744742177472,-0.9149755802399789,0.11067074581587841,1.0839509375213756,0.0072193120481993155,-0.5991468368145799,4.8415332391551047e-17,-0.009862030809973443,-0.01266288050922736,0.0029807350522622193,0.00545160994505866,0.006607173330911483,-0.0036089777231002812,6.532353013152424e-17,-0.009862030809973443,-0.01266288050922736,0.0029807350522622193,0.00545160994505866,0.006607173330911483,-0.0036089777231002812,6.532353013152424e-17
1762513476.3834615,0.4205436140236228,-0.9151436051664409,0.1107102974635145,1.0840232754352845,0.0073069832389871265,-0.5991947246720137,4.928211632263102e-17,-0.009862030809973443,-0.01266288050922736,0.0029807350522622193,0.00545160994505866,0.006607173330911483,-0.0036089777231002812,6.532353013152424e-17,-0.009862030809973443,-0.01266288050922736,0.0029807350522622193,0.00545160994505866,0.006607173330911483,-0.0036089777231002812,6.532353013152424e-17
1762513476.3934653,0.4204553457807819,-0.9152569418851543,0.11073697596924086,1.0840720690397436,0.00736611949512969,-0.5992270261450275,4.986678223292603e-17,-0.009862030809973443,-0.01266288050922736,0.0029807350522622193,0.00545160994505866,0.006607173330911483,-0.0036089777231002812,6.532353013152424e-17,-0.009862030809973443,-0.01266288050922736,0.0029807350522622193,0.00545160994505866,0.006607173330911483,-0.0036089777231002812,6.532353013152424e-17
1762513476.403653,0.420367796450401,-0.9153693555178671,0.1107634371883241,1.0841204652381924,0.00742477410815795,-0.5992590645343923,5.044668625384504e-17,-0.009431381329242951,-0.011088703793081408,0.0016311789572386014,0.006742277930711171,0.005591979938489616,-0.003177651025008353,-6.083177212661765e-17,-0.009431381329242951,-0.011088703793081408,0.0016311789572386014,0.006742277930711171,0.005591979938489616,-0.003177651025008353,-6.083177212661765e-17
1762513476.4135604,0.4202840082661624,-0.9154678673184135,0.11077792854629427,1.0841803634869986,0.007474453134907933,-0.5992872947161901,4.990625812857116e-17,-0.009431381329242951,-0.011088703793081408,0.0016311789572386014,0.006742277930711171,0.005591979938489616,-0.003177651025008353,-6.083177212661765e-17,-0.009431381329242951,-0.011088703793081408,0.0016311789572386014,0.006742277930711171,0.005591979938489616,-0.003177651025008353,-6.083177212661765e-17
1762513476.4237144,0.42015874279083953,-0.9156151449761462,0.11079959349655787,1.0842699128987194,0.007548724548663486,-0.5993294995589552,4.909830427916592e-17,-0.009431381329242951,-0.011088703793081408,0.0016311789572386014,0.006742277930711171,0.005591979938489616,-0.003177651025008353,-6.083177212661765e-17,-0.009431381329242951,-0.011088703793081408,0.0016311789572386014,0.006742277930711171,0.005591979938489616,-0.003177651025008353,-6.083177212661765e-17
1762513476.4334338,0.42007402740750244,-0.9157147469071624,0.11081424521573131,1.084330473980869,0.007598953322961222,-0.5993580421356254,4.855189578237427e-17,-0.009431381329242951,-0.011088703793081408,0.0016311789572386014,0.006742277930711171,0.005591979938489616,-0.003177651025008353,-6.083177212661765e-17,-0.009431381329242951,-0.011088703793081408,0.0016311789572386014,0.006742277930711171,0.005591979938489616,-0.003177651025008353,-6.083177212661765e-17
1762513476.4435103,0.41999051480822625,-0.9158129346957837,0.11082868891065235,1.0843901752203142,0.007648468952057403,-0.5993861794664602,4.801324516148192e-17,-0.009431381329242951,-0.011088703793081408,0.0016311789572386014,0.006742277930711171,0.005591979938489616,-0.003177651025008353,-6.083177212661765e-17,-0.009431381329242951,-0.011088703793081408,0.0016311789572386014,0.006742277930711171,0.005591979938489616,-0.003177651025008353,-6.083177212661765e-17
1762513476.453582,0.419907439287455,-0.9159106086006052,0.11084305701184698,1.0844495640023732,0.007697725432027294,-0.5994141695354136,4.7477413667405234e-17,-0.009431381329242951,-0.011088703793081408,0.0016311789572386014,0.006742277930711171,0.005591979938489616,-0.003177651025008353,-6.083177212661765e-17,-0.009431381329242951,-0.011088703793081408,0.0016311789572386014,0.006742277930711171,0.005591979938489616,-0.003177651025008353,-6.083177212661765e-17
1762513476.4637554,0.4197817313954654,-0.916058406418344,0.11086479847908429,1.0845394296876096,0.0077722591599697815,-0.5994565234386106,4.666660626040131e-17,-0.009431381329242951,-0.011088703793081408,0.0016311789572386014,0.006742277930711171,0.005591979938489616,-0.003177651025008353,-6.083177212661765e-17,-0.009431381329242951,-0.011088703793081408,0.0016311789572386014,0.006742277930711171,0.005591979938489616,-0.003177651025008353,-6.083177212661765e-17
1762513476.4736686,0.41969787396602504,-0.9161569996321535,0.11087930181317036,1.0845993774382205,0.007821979243036473,-0.5994847769507222,4.612573150825648e-17,-0.009431381329242951,-0.011088703793081408,0.0016311789572386014,0.006742277930711171,0.005591979938489616,-0.003177651025008353,-6.083177212661765e-17,-0.009431381329242951,-0.011088703793081408,0.0016311789572386014,0.006742277930711171,0.005591979938489616,-0.003177651025008353,-6.083177212661765e-17
1762513476.4834268,0.41961406759808323,-0.9162555328117206,0.11089379631605356,1.0846592886861386,0.007871669051123777,-0.5995130132590313,4.558518609932593e-17,-0.009431381329242951,-0.011088703793081408,0.0016311789572386014,0.006742277930711171,0.005591979938489616,-0.003177651025008353,-6.083177212661765e-17,-0.009431381329242951,-0.011088703793081408,0.0016311789572386014,0.006742277930711171,0.005591979938489616,-0.003177651025008353,-6.083177212661765e-17
1762513476.4933763,0.41953023560507835,-0.9163540961192959,0.11090829525084998,1.084719218252826,0.007921374052620575,-0.5995412582010181,4.504447541047052e-17,-0.009431381329242951,-0.011088703793081408,0.0016311789572386014,0.006742277930711171,0.005591979938489616,-0.003177651025008353,-6.083177212661765e-17,-0.009431381329242951,-0.011088703793081408,0.0016311789572386014,0.006742277930711171,0.005591979938489616,-0.003177651025008353,-6.083177212661765e-17
1762513476.503496,0.4194044730110771,-0.9165019582515167,0.11093004617892523,1.0848091230432744,0.007995940214046706,-0.5995836305345911,4.4233315179188264e-17,-0.009292380756178185,-0.008859031448587046,0.0004421327870137862,0.007130502159598014,0.004728808902020985,-0.003447853072699249,-5.949628888062923e-18,-0.009292380756178185,-0.008859031448587046,0.0004421327870137862,0.007130502159598014,0.004728808902020985,-0.003447853072699249,-5.949628888062923e-18
1762513476.5136054,0.41932187916221436,-0.9165807003439614,0.11093397600590349,1.08487250137797,0.008037971480091704,-0.5996142762284191,4.418043284880771e-17,-0.009292380756178185,-0.008859031448587046,0.0004421327870137862,0.007130502159598014,0.004728808902020985,-0.003447853072699249,-5.949628888062923e-18,-0.009292380756178185,-0.008859031448587046,0.0004421327870137862,0.007130502159598014,0.004728808902020985,-0.003447853072699249,-5.949628888062923e-18
1762513476.5235956,0.41923928890950296,-0.916659439007961,0.11093790566177636,1.0849358769531614,0.008080000916087657,-0.599644920587928,4.412755282093353e-17,-0.009292380756178185,-0.008859031448587046,0.0004421327870137862,0.007130502159598014,0.004728808902020985,-0.003447853072699249,-5.949628888062923e-18,-0.009292380756178185,-0.008859031448587046,0.0004421327870137862,0.007130502159598014,0.004728808902020985,-0.003447853072699249,-5.949628888062923e-18
1762513476.5334518,0.41915671521581405,-0.9167381618851665,0.1109418345297686,1.0849992398217978,0.008122021925346147,-0.5996755588033628,4.407468339529804e-17,-0.009292380756178185,-0.008859031448587046,0.0004421327870137862,0.007130502159598014,0.004728808902020985,-0.003447853072699249,-5.949628888062923e-18,-0.009292380756178185,-0.008859031448587046,0.0004421327870137862,0.007130502159598014,0.004728808902020985,-0.003447853072699249,-5.949628888062923e-18
1762513476.5434437,0.41903272444256445,-0.9168563703603007,0.11094773402824797,1.0850943840587404,0.008185119713490643,-0.5997215644481757,4.399529587279593e-17,-0.009292380756178185,-0.008859031448587046,0.0004421327870137862,0.007130502159598014,0.004728808902020985,-0.003447853072699249,-5.949628888062923e-18,-0.009292380756178185,-0.008859031448587046,0.0004421327870137862,0.007130502159598014,0.004728808902020985,-0.003447853072699249,-5.949628888062923e-18
1762513476.5535514,0.41894947688400785,-0.9169357356767488,0.11095169495882566,1.0851582640171324,0.00822748364651309,-0.5997524526950195,4.394199499197273e-17,-0.009292380756178185,-0.008859031448587046,0.0004421327870137862,0.007130502159598014,0.004728808902020985,-0.003447853072699249,-5.949628888062923e-18,-0.009292380756178185,-0.008859031448587046,0.0004421327870137862,0.007130502159598014,0.004728808902020985,-0.003447853072699249,-5.949628888062923e-18
1762513476.563551,0.4188669453126809,-0.9170144183959648,0.11095562182262998,1.0852215945632027,0.008269483220080828,-0.5997830752813362,4.388915253600498e-17,-0.009292380756178185,-0.008859031448587046,0.0004421327870137862,0.007130502159598014,0.004728808902020985,-0.003447853072699249,-5.949628888062923e-18,-0.009292380756178185,-0.008859031448587046,0.0004421327870137862,0.007130502159598014,0.004728808902020985,-0.003447853072699249,-5.949628888062923e-18
1762513476.5735655,0.4187847471333908,-0.9170927832708505,0.11095953282359418,1.0852846692811164,0.008311313133442778,-0.5998135741655805,4.383652354082248e-17,-0.009292380756178185,-0.008859031448587046,0.0004421327870137862,0.007130502159598014,0.004728808902020985,-0.003447853072699249,-5.949628888062923e-18,-0.009292380756178185,-0.008859031448587046,0.0004421327870137862,0.007130502159598014,0.004728808902020985,-0.003447853072699249,-5.949628888062923e-18
1762513476.5833628,0.41866038959916513,-0.9172113414030969,0.11096544977261252,1.0853800949518488,0.008374597562945828,-0.5998597158937062,4.375690119241779e-17,-0.009292380756178185,-0.008859031448587046,0.0004421327870137862,0.007130502159598014,0.004728808902020985,-0.003447853072699249,-5.949628888062923e-18,-0.009292380756178185,-0.008859031448587046,0.0004421327870137862,0.007130502159598014,0.004728808902020985,-0.003447853072699249,-5.949628888062923e-18
1762513476.5933545,0.41857744963699633,-0.9172904134678861,0.1109693960677107,1.0854437388763585,0.008416804962936,-0.5998904900097177,4.3703797256210044e-17,-0.009292380756178185,-0.008859031448587046,0.0004421327870137862,0.007130502159598014,0.004728808902020985,-0.003447853072699249,-5.949628888062923e-18,-0.009292380756178185,-0.008859031448587046,0.0004421327870137862,0.007130502159598014,0.004728808902020985,-0.003447853072699249,-5.949628888062923e-18
1762513476.603376,0.4184952144368613,-0.9173688136371532,0.1109733088301319,1.085506842002193,0.008458653715872616,-0.5999210026302086,4.3651144557706054e-17,-0.009111691311714992,-0.007189053677806823,-0.0005028942417704381,0.006881434898964388,0.003971054087823134,-0.003868807212718385,1.3485339506530897e-16,-0.009111691311714992,-0.007189053677806823,-0.0005028942417704381,0.006881434898964388,0.003971054087823134,-0.003868807212718385,1.3485339506530897e-16
1762513476.6135094,0.4184139607929137,-0.9174329221311608,0.1109688242631875,1.0855682073011261,0.008494065650266591,-0.5999555027765602,4.485370173100187e-17,-0.009111691311714992,-0.007189053677806823,-0.0005028942417704381,0.006881434898964388,0.003971054087823134,-0.003868807212718385,1.3485339506530897e-16,-0.009111691311714992,-0.007189053677806823,-0.0005028942417704381,0.006881434898964388,0.003971054087823134,-0.003868807212718385,1.3485339506530897e-16
1762513476.6233366,0.4182926960267535,-0.9175285990898426,0.11096213139459203,1.0856597902537661,0.008546915217805203,-0.600006991571112,4.6648425109907544e-17,-0.009111691311714992,-0.007189053677806823,-0.0005028942417704381,0.006881434898964388,0.003971054087823134,-0.003868807212718385,1.3485339506530897e-16,-0.009111691311714992,-0.007189053677806823,-0.0005028942417704381,0.006881434898964388,0.003971054087823134,-0.003868807212718385,1.3485339506530897e-16
1762513476.6335495,0.41821182306015725,-0.9175924072323767,0.11095766783806615,1.0857208680532306,0.008582161245530441,-0.600041330082567,4.7845348243210927e-17,-0.009111691311714992,-0.007189053677806823,-0.0005028942417704381,0.006881434898964388,0.003971054087823134,-0.003868807212718385,1.3485339506530897e-16,-0.009111691311714992,-0.007189053677806823,-0.0005028942417704381,0.006881434898964388,0.003971054087823134,-0.003868807212718385,1.3485339506530897e-16
1762513476.643598,0.41813032641651404,-0.9176567074512569,0.11095316985943522,1.085782416873151,0.008617679083965882,-0.6000759334061381,4.905150182169974e-17,-0.009111691311714992,-0.007189053677806823,-0.0005028942417704381,0.006881434898964388,0.003971054087823134,-0.003868807212718385,1.3485339506530897e-16,-0.009111691311714992,-0.007189053677806823,-0.0005028942417704381,0.006881434898964388,0.003971054087823134,-0.003868807212718385,1.3485339506530897e-16
1762513476.653585,0.41804960446708955,-0.9177203964424153,0.11094871463787852,1.0858433806197132,0.008652859295440669,-0.6001102077959822,5.0246189894833315e-17,-0.009111691311714992,-0.007189053677806823,-0.0005028942417704381,0.006881434898964388,0.003971054087823134,-0.003868807212718385,1.3485339506530897e-16,-0.009111691311714992,-0.007189053677806823,-0.0005028942417704381,0.006881434898964388,0.003971054087823134,-0.003868807212718385,1.3485339506530897e-16
1762513476.663753,0.4179287382280839,-0.9178157589662674,0.11094204376487142,1.0859346625921535,0.008705535177015588,-0.6001615273766443,5.203501505594562e-17,-0.009111691311714992,-0.007189053677806823,-0.0005028942417704381,0.006881434898964388,0.003971054087823134,-0.003868807212718385,1.3485339506530897e-16,-0.009111691311714992,-0.007189053677806823,-0.0005028942417704381,0.006881434898964388,0.003971054087823134,-0.003868807212718385,1.3485339506530897e-16
1762513476.6735935,0.4178470179562009,-0.917880235626092,0.1109375334437071,1.0859963803031307,0.008741150477031508,-0.6001962256523509,5.324447834130952e-17,-0.009111691311714992,-0.007189053677806823,-0.0005028942417704381,0.006881434898964388,0.003971054087823134,-0.003868807212718385,1.3485339506530897e-16,-0.009111691311714992,-0.007189053677806823,-0.0005028942417704381,0.006881434898964388,0.003971054087823134,-0.003868807212718385,1.3485339506530897e-16
1762513476.6836386,0.4177658302900101,-0.917944292064162,0.1109330525182199,1.0860576957735935,0.008776533657022832,-0.6002306977846693,5.4446059041171676e-17,-0.009111691311714992,-0.007189053677806823,-0.0005028942417704381,0.006881434898964388,0.003971054087823134,-0.003868807212718385,1.3485339506530897e-16,-0.009111691311714992,-0.007189053677806823,-0.0005028942417704381,0.006881434898964388,0.003971054087823134,-0.003868807212718385,1.3485339506530897e-16
1762513476.6935515,0.41768508196223925,-0.9180080018676308,0.11092859584078436,1.0861186794419098,0.008811725364699203,-0.6002649833747105,5.564113751488396e-17,-0.009111691311714992,-0.007189053677806823,-0.0005028942417704381,0.006881434898964388,0.003971054087823134,-0.003868807212718385,1.3485339506530897e-16,-0.009111691311714992,-0.007189053677806823,-0.0005028942417704381,0.006881434898964388,0.003971054087823134,-0.003868807212718385,1.3485339506530897e-16
1762513476.703515,0.4175644221303769,-0.9181032015378499,0.11092193635984052,1.0862098055292053,0.00886431128998587,-0.6003162153152827,5.742690784203785e-17,-0.009074524586829148,-0.006985768248888747,-0.0013008235814133831,0.006707157929664943,0.0033389587676063365,-0.004283645294720652,-1.9733067893350386e-16,-0.009074524586829148,-0.006985768248888747,-0.0013008235814133831,0.006707157929664943,0.0033389587676063365,-0.004283645294720652,-1.9733067893350386e-16
1762513476.7135866,0.41748285401474494,-0.9181659944640083,0.11091024365602004,1.0862700941127377,0.008894324165287541,-0.6003547196877579,5.565316294962302e-17,-0.009074524586829148,-0.006985768248888747,-0.0013008235814133831,0.006707157929664943,0.0033389587676063365,-0.004283645294720652,-1.9733067893350386e-16,-0.009074524586829148,-0.006985768248888747,-0.0013008235814133831,0.006707157929664943,0.0033389587676063365,-0.004283645294720652,-1.9733067893350386e-16
1762513476.7235723,0.4174024001146144,-0.9182279296426122,0.11089871067382298,1.0863295591578834,0.008923927066536932,-0.6003926980928455,5.390364730462104e-17,-0.009074524586829148,-0.006985768248888747,-0.0013008235814133831,0.006707157929664943,0.0033389587676063365,-0.004283645294720652,-1.9733067893350386e-16,-0.009074524586829148,-0.006985768248888747,-0.0013008235814133831,0.006707157929664943,0.0033389587676063365,-0.004283645294720652,-1.9733067893350386e-16
1762513476.73358,0.41732239731817555,-0.9182895175516907,0.110887242356867,1.0863886907835014,0.008953363984807026,-0.6004304635536418,5.2163941164999515e-17,-0.009074524586829148,-0.006985768248888747,-0.0013008235814133831,0.006707157929664943,0.0033389587676063365,-0.004283645294720652,-1.9733067893350386e-16,-0.009074524586829148,-0.006985768248888747,-0.0013008235814133831,0.006707157929664943,0.0033389587676063365,-0.004283645294720652,-1.9733067893350386e-16
1762513476.7439284,0.4172004139923912,-0.9183834229938993,0.11086975617506198,1.0864788510363053,0.008998247580771987,-0.6004880459971661,4.951134462781854e-17,-0.009074524586829148,-0.006985768248888747,-0.0013008235814133831,0.006707157929664943,0.0033389587676063365,-0.004283645294720652,-1.9733067893350386e-16,-0.009074524586829148,-0.006985768248888747,-0.0013008235814133831,0.006707157929664943,0.0033389587676063365,-0.004283645294720652,-1.9733067893350386e-16
1762513476.7536047,0.41712006831504084,-0.9184452748602311,0.11085823870648696,1.0865382360918856,0.009027810661599116,-0.6005259733155,4.776418234849351e-17,-0.009074524586829148,-0.006985768248888747,-0.0013008235814133831,0.006707157929664943,0.0033389587676063365,-0.004283645294720652,-1.9733067893350386e-16,-0.009074524586829148,-0.006985768248888747,-0.0013008235814133831,0.006707157929664943,0.0033389587676063365,-0.004283645294720652,-1.9733067893350386e-16
